;Generated with Cura_SteamEngine 15.01
; Default start code
G28 ; Home extruder
G1 Z15 F100
M107 ; Turn off fan
G90 ; Absolute positioning
M82 ; Extruder in absolute mode
; Activate all used extruder
M104 T0 S220
G92 E0 ; Reset extruder position
; Wait for all used extruders to reach temperature
M109 T0 S220
;Layer count: 125
;LAYER:0
M107
G0 F9000 X40.552 Y20.660 Z0.300
;TYPE:SKIRT
G1 F1800 X40.904 Y20.104 E0.03283
G1 X41.771 Y18.976 E0.10381
G1 X42.174 Y18.546 E0.13321
G1 X43.260 Y17.577 E0.20582
G1 X43.727 Y17.231 E0.23482
G1 X44.909 Y16.511 E0.30387
G1 X45.435 Y16.254 E0.33308
G1 X46.785 Y15.739 E0.40516
G1 X47.369 Y15.575 E0.43543
G1 X48.754 Y15.325 E0.50564
G1 X49.327 Y15.272 E0.53435
G1 X50.922 Y15.275 E0.61393
G1 X52.735 Y15.586 E0.70570
G1 X53.321 Y15.756 E0.73614
G1 X54.706 Y16.294 E0.81027
G1 X55.221 Y16.555 E0.83907
G1 X56.434 Y17.308 E0.91030
G1 X56.909 Y17.670 E0.94010
G1 X57.992 Y18.665 E1.01347
G1 X58.406 Y19.131 E1.04457
G1 X59.283 Y20.306 E1.11772
G1 X59.588 Y20.820 E1.14753
G1 X60.263 Y22.198 E1.22409
G1 X60.743 Y23.811 E1.30805
G1 X60.873 Y24.380 E1.33717
G1 X61.042 Y26.261 E1.43139
G1 X60.898 Y27.742 E1.50562
G1 X60.899 Y27.742 E1.50567
G1 X60.849 Y28.307 E1.53397
G1 X60.354 Y30.035 E1.62365
G1 X60.134 Y30.581 E1.65302
G1 X59.509 Y31.818 E1.72216
G1 X59.188 Y32.334 E1.75248
G1 X58.338 Y33.450 E1.82247
G1 X57.925 Y33.901 E1.85298
G1 X56.841 Y34.880 E1.92585
G1 X56.354 Y35.243 E1.95615
G1 X55.108 Y36.002 E2.02894
G1 X54.576 Y36.261 E2.05846
G1 X53.293 Y36.751 E2.12698
G1 X52.726 Y36.910 E2.15636
G1 X51.288 Y37.174 E2.22930
G1 X50.671 Y37.225 E2.26019
G1 X49.264 Y37.223 E2.33038
G1 X48.672 Y37.163 E2.36007
G1 X47.297 Y36.906 E2.42986
G1 X46.719 Y36.738 E2.45989
G1 X45.430 Y36.242 E2.52879
G1 X44.903 Y35.983 E2.55809
G1 X43.697 Y35.243 E2.62868
G1 X43.216 Y34.888 E2.65850
G1 X42.102 Y33.874 E2.73366
G1 X41.699 Y33.438 E2.76328
G1 X40.828 Y32.279 E2.83561
G1 X40.509 Y31.762 E2.86592
G1 X39.788 Y30.303 E2.94711
G1 X39.263 Y28.532 E3.03927
G1 X39.158 Y27.933 E3.06961
G1 X39.030 Y26.483 E3.14223
G1 X39.030 Y25.903 E3.17116
G1 X39.186 Y24.311 E3.25097
G1 X39.707 Y22.394 E3.35008
G1 X40.552 Y20.660 E3.44631
G0 F9000 X40.902 Y20.855
G1 F1800 X41.232 Y20.334 E3.47708
G1 X42.077 Y19.235 E3.54624
G1 X42.454 Y18.832 E3.57378
G1 X43.513 Y17.887 E3.64459
G1 X43.950 Y17.563 E3.67173
G1 X45.102 Y16.862 E3.73901
G1 X45.594 Y16.621 E3.76634
G1 X46.911 Y16.119 E3.83666
G1 X47.458 Y15.965 E3.86501
G1 X48.808 Y15.722 E3.93344
G1 X49.346 Y15.672 E3.96040
G1 X50.888 Y15.675 E4.03733
G1 X52.646 Y15.977 E4.12632
G1 X53.193 Y16.135 E4.15473
G1 X54.543 Y16.659 E4.22697
G1 X55.025 Y16.904 E4.25395
G1 X56.206 Y17.637 E4.32329
G1 X56.652 Y17.977 E4.35127
G1 X57.706 Y18.946 E4.42270
G1 X58.095 Y19.384 E4.45193
G1 X58.950 Y20.528 E4.52318
G1 X59.236 Y21.011 E4.55119
G1 X59.889 Y22.344 E4.62524
G1 X60.356 Y23.913 E4.70691
G1 X60.477 Y24.443 E4.73404
G1 X60.641 Y26.260 E4.82505
G1 X60.497 Y27.740 E4.89924
G1 X60.454 Y28.233 E4.92393
G1 X59.975 Y29.905 E5.01070
G1 X59.769 Y30.416 E5.03819
G1 X59.160 Y31.622 E5.10559
G1 X58.859 Y32.106 E5.13403
G1 X58.031 Y33.193 E5.20220
G1 X57.643 Y33.617 E5.23087
G1 X56.587 Y34.571 E5.30187
G1 X56.130 Y34.911 E5.33029
G1 X54.915 Y35.650 E5.40124
G1 X54.416 Y35.894 E5.42895
G1 X53.168 Y36.371 E5.49561
G1 X52.635 Y36.520 E5.52322
G1 X51.235 Y36.777 E5.59423
G1 X50.654 Y36.825 E5.62332
G1 X49.284 Y36.823 E5.69167
G1 X48.729 Y36.767 E5.71950
G1 X47.390 Y36.516 E5.78746
G1 X46.847 Y36.358 E5.81568
G1 X45.590 Y35.875 E5.88286
G1 X45.096 Y35.633 E5.91030
G1 X43.921 Y34.911 E5.97911
G1 X43.470 Y34.578 E6.00708
G1 X42.384 Y33.590 E6.08032
G1 X42.006 Y33.182 E6.10807
G1 X41.159 Y32.054 E6.17845
G1 X40.859 Y31.568 E6.20694
G1 X40.162 Y30.156 E6.28550
G1 X39.653 Y28.440 E6.37480
G1 X39.555 Y27.881 E6.40311
G1 X39.430 Y26.465 E6.47403
G1 X39.430 Y25.922 E6.50112
G1 X39.581 Y24.384 E6.57822
G1 X40.083 Y22.536 E6.67376
G1 X40.902 Y20.855 E6.76705
G0 F9000 X41.251 Y21.050
G1 F1800 X41.560 Y20.563 E6.79583
G1 X42.382 Y19.494 E6.86310
G1 X42.733 Y19.119 E6.88873
G1 X43.766 Y18.198 E6.95777
G1 X44.174 Y17.895 E6.98313
G1 X45.294 Y17.213 E7.04855
G1 X45.754 Y16.988 E7.07410
G1 X47.036 Y16.499 E7.14255
G1 X47.548 Y16.356 E7.16907
G1 X48.862 Y16.119 E7.23569
G1 X49.364 Y16.072 E7.26084
G1 X50.853 Y16.075 E7.33513
G1 X52.556 Y16.367 E7.42133
G1 X53.065 Y16.514 E7.44776
G1 X54.380 Y17.025 E7.51815
G1 X54.828 Y17.253 E7.54323
G1 X55.979 Y17.967 E7.61080
G1 X56.395 Y18.284 E7.63689
G1 X57.421 Y19.227 E7.70642
G1 X57.785 Y19.637 E7.73377
G1 X58.617 Y20.751 E7.80314
G1 X58.884 Y21.201 E7.82924
G1 X59.515 Y22.490 E7.90084
G1 X59.969 Y24.014 E7.98018
G1 X60.081 Y24.506 E8.00535
G1 X60.239 Y26.259 E8.09316
G1 X60.099 Y27.701 E8.16544
G1 X60.059 Y28.160 E8.18843
G1 X59.596 Y29.775 E8.27225
G1 X59.404 Y30.251 E8.29786
G1 X58.811 Y31.426 E8.36352
G1 X58.529 Y31.879 E8.39014
G1 X57.724 Y32.936 E8.45643
G1 X57.360 Y33.333 E8.48330
G1 X56.332 Y34.261 E8.55239
G1 X55.906 Y34.579 E8.57891
G1 X54.723 Y35.299 E8.64801
G1 X54.257 Y35.526 E8.67387
G1 X53.042 Y35.991 E8.73877
G1 X52.545 Y36.130 E8.76452
G1 X51.183 Y36.380 E8.83360
G1 X50.638 Y36.425 E8.86089
G1 X49.305 Y36.423 E8.92739
G1 X48.785 Y36.370 E8.95347
G1 X47.482 Y36.127 E9.01959
G1 X46.974 Y35.979 E9.04599
G1 X45.751 Y35.508 E9.11138
G1 X45.289 Y35.282 E9.13704
G1 X44.145 Y34.579 E9.20402
G1 X43.724 Y34.269 E9.23011
G1 X42.666 Y33.306 E9.30148
G1 X42.314 Y32.925 E9.32736
G1 X41.490 Y31.828 E9.39581
G1 X41.210 Y31.374 E9.42242
G1 X40.536 Y30.010 E9.49833
G1 X40.043 Y28.348 E9.58482
G1 X39.952 Y27.828 E9.61115
G1 X39.830 Y26.448 E9.68027
G1 X39.830 Y25.942 E9.70552
G1 X39.975 Y24.456 E9.78000
G1 X40.459 Y22.677 E9.87198
G1 X41.251 Y21.050 E9.96226
G1 F2400 E5.96226
G0 F9000 X44.227 Y22.707
;TYPE:WALL-OUTER
G1 F2400 E9.96226
G1 F1800 X44.344 Y22.521 E9.97323
G1 X44.978 Y21.696 E10.02513
G1 X45.117 Y21.548 E10.03526
G1 X45.910 Y20.841 E10.08827
G1 X46.074 Y20.719 E10.09847
G1 X46.929 Y20.199 E10.14839
G1 X47.114 Y20.108 E10.15868
G1 X48.099 Y19.733 E10.21126
G1 X48.311 Y19.673 E10.22225
G1 X49.327 Y19.490 E10.27376
G1 X49.518 Y19.472 E10.28333
G1 X50.560 Y19.474 E10.33531
G1 X51.796 Y19.686 E10.39788
G1 X51.979 Y19.739 E10.40738
G1 X52.986 Y20.131 E10.46129
G1 X54.048 Y20.770 E10.52313
G1 X54.211 Y20.895 E10.53338
G1 X54.986 Y21.606 E10.58585
G1 X55.152 Y21.793 E10.59832
G1 X55.785 Y22.640 E10.65108
G1 X56.337 Y23.732 E10.71212
G1 X56.680 Y24.884 E10.77209
G1 X56.715 Y25.036 E10.77987
G1 X56.824 Y26.247 E10.84053
G1 X56.715 Y27.374 E10.89702
G1 X56.701 Y27.538 E10.90523
G1 X56.377 Y28.669 E10.96393
G1 X56.308 Y28.839 E10.97308
G1 X55.844 Y29.758 E11.02444
G1 X55.724 Y29.951 E11.03578
G1 X55.114 Y30.752 E11.08601
G1 X54.963 Y30.918 E11.09721
G1 X54.175 Y31.629 E11.15016
G1 X54.003 Y31.757 E11.16086
G1 X53.093 Y32.311 E11.21401
G1 X52.899 Y32.406 E11.22478
G1 X51.978 Y32.757 E11.27396
G1 X50.728 Y33.006 E11.33754
G1 X50.503 Y33.025 E11.34881
G1 X49.479 Y33.023 E11.39990
G1 X49.275 Y33.002 E11.41013
G1 X48.267 Y32.814 E11.46129
G1 X48.066 Y32.756 E11.47172
G1 X47.112 Y32.388 E11.52274
G1 X46.926 Y32.297 E11.53307
G1 X46.051 Y31.760 E11.58429
G1 X45.884 Y31.637 E11.59463
G1 X45.063 Y30.889 E11.65004
G1 X44.926 Y30.742 E11.66007
G1 X44.300 Y29.909 E11.71206
G1 X44.188 Y29.726 E11.72276
G1 X43.714 Y28.767 E11.77613
G1 X43.358 Y27.565 E11.83867
G1 X43.230 Y26.300 E11.90211
G1 X43.230 Y26.107 E11.91173
G1 X43.332 Y25.069 E11.96377
G1 X43.655 Y23.880 E12.02524
G1 X44.227 Y22.707 E12.09035
G0 F9000 X44.562 Y23.329
G1 F1800 X44.454 Y23.539 E12.10213
G1 X44.036 Y24.667 E12.16214
G1 X43.979 Y24.896 E12.17392
G1 X43.832 Y26.061 E12.23250
G1 X43.831 Y26.300 E12.24442
G1 X43.956 Y27.500 E12.30462
G1 X44.010 Y27.725 E12.31616
G1 X44.390 Y28.827 E12.37432
G1 X44.498 Y29.045 E12.38645
G1 X45.090 Y29.996 E12.44234
G1 X45.234 Y30.174 E12.45376
G1 X46.044 Y30.995 E12.51130
G1 X46.230 Y31.145 E12.52322
G1 X47.182 Y31.753 E12.57958
G1 X47.389 Y31.855 E12.59109
G1 X48.547 Y32.263 E12.65235
G1 X48.778 Y32.318 E12.66419
G1 X49.932 Y32.441 E12.72209
G1 X50.192 Y32.440 E12.73506
G1 X51.381 Y32.294 E12.79483
G1 X51.605 Y32.239 E12.80634
G1 X52.669 Y31.852 E12.86282
G1 X52.877 Y31.748 E12.87442
G1 X53.799 Y31.163 E12.92890
G1 X53.998 Y30.998 E12.94180
G1 X54.854 Y30.132 E13.00255
G1 X55.007 Y29.926 E13.01535
G1 X55.586 Y28.982 E13.07060
G1 X55.680 Y28.782 E13.08162
G1 X56.023 Y27.789 E13.13404
G1 X56.075 Y27.602 E13.14372
G1 X56.226 Y26.248 E13.21169
G1 X56.092 Y25.069 E13.27089
G1 X56.048 Y24.783 E13.28533
G1 X55.698 Y23.770 E13.33880
G1 X55.592 Y23.525 E13.35211
G1 X54.995 Y22.556 E13.40890
G1 X54.825 Y22.330 E13.42301
G1 X54.090 Y21.575 E13.47557
G1 X53.890 Y21.404 E13.48870
G1 X52.923 Y20.779 E13.54615
G1 X52.685 Y20.652 E13.55960
G1 X51.599 Y20.260 E13.61721
G1 X51.368 Y20.199 E13.62913
G1 X50.174 Y20.058 E13.68911
G1 X49.939 Y20.051 E13.70084
G1 X48.766 Y20.184 E13.75973
G1 X48.525 Y20.236 E13.77203
G1 X47.403 Y20.637 E13.83148
G1 X47.189 Y20.738 E13.84329
G1 X46.297 Y21.301 E13.89591
G1 X46.109 Y21.447 E13.90779
G1 X45.291 Y22.255 E13.96515
G1 X45.142 Y22.433 E13.97673
G1 X44.562 Y23.329 E14.02998
G0 F9000 X44.452 Y23.239
;TYPE:SKIN
G1 F1800 X44.328 Y22.832 E14.04558
G1 X44.786 Y22.724 E14.06301
G1 X44.792 Y22.165 E14.07898
G1 X45.272 Y22.079 E14.09431
G1 X45.317 Y21.558 E14.11140
G1 X45.839 Y21.514 E14.12773
G1 X45.916 Y21.026 E14.14295
G1 X46.476 Y21.020 E14.15936
G1 X46.590 Y20.568 E14.17593
G1 X47.183 Y20.595 E14.19215
G1 X47.330 Y20.177 E14.20917
G1 X47.864 Y20.145 E14.22685
G1 X48.286 Y20.002 E14.24508
G1 X48.743 Y19.893 E14.26371
G1 X49.134 Y20.001 E14.28395
G1 F2400 E10.28395
G0 F9000 X51.106 Y19.710
G1 F2400 E14.28395
G1 F1800 X51.635 Y19.957 E14.31017
G1 X52.339 Y20.378 E14.35109
G0 F9000 X52.694 Y20.167
G1 F1800 X53.532 Y21.006 E14.41025
G0 F9000 X54.015 Y20.923
G1 F1800 X55.247 Y22.155 E14.49718
G0 F9000 X55.282 Y22.755
G1 F1800 X56.098 Y23.571 E14.55475
G0 F9000 X55.905 Y23.944
G1 F1800 X56.295 Y24.617 E14.58967
G1 X56.430 Y25.317 E14.61759
G1 X56.494 Y25.947 E14.64366
G1 X56.495 Y26.513 E14.66625
G1 X56.442 Y27.026 E14.68703
G1 X56.388 Y27.538 E14.70841
G1 X56.263 Y27.979 E14.72585
G1 X56.128 Y28.409 E14.74400
G1 X56.096 Y28.943 E14.76262
G1 X55.673 Y29.086 E14.77860
G1 X55.709 Y29.688 E14.79538
G1 X55.250 Y29.794 E14.81300
G1 X55.242 Y30.352 E14.82859
G1 X54.754 Y30.430 E14.84431
G1 X54.713 Y30.954 E14.86175
G1 X54.190 Y30.997 E14.87798
G1 X54.112 Y31.485 E14.89333
G1 X53.548 Y31.487 E14.91000
G1 X53.434 Y31.938 E14.92648
G1 X52.842 Y31.911 E14.94259
G1 X52.694 Y32.330 E14.95972
G1 X52.160 Y32.361 E14.97753
G1 X51.728 Y32.495 E14.99564
G1 X51.272 Y32.605 E15.01308
G1 X50.784 Y32.682 E15.03273
G1 X50.257 Y32.721 E15.05461
G1 X49.696 Y32.726 E15.07673
G1 X49.051 Y32.646 E15.10348
G1 X48.365 Y32.526 E15.13092
G1 X47.653 Y32.096 E15.17242
G0 F9000 X47.301 Y32.310
G1 F1800 X46.430 Y31.440 E15.23384
G0 F9000 X45.751 Y31.326
G1 F1800 X44.898 Y30.473 E15.29402
G0 F9000 X44.822 Y29.831
G1 F1800 X43.979 Y28.988 E15.35350
G0 F9000 X44.168 Y28.611
G1 F1800 X43.767 Y27.928 E15.38907
G1 X43.623 Y27.218 E15.41699
G1 X43.558 Y26.588 E15.44218
G1 X43.540 Y26.004 E15.46594
G1 X43.597 Y25.495 E15.48658
G1 X43.654 Y24.987 E15.50800
G1 X43.779 Y24.546 E15.52544
G1 X43.915 Y24.117 E15.54340
G1 X43.951 Y23.587 E15.56175
G1 X44.272 Y23.625 E15.57788
G1 F2400 E11.57788
G0 F9000 X49.331 Y19.632
G1 F2400 E15.57788
G1 F1800 X49.759 Y19.778 E15.59976
G1 X50.313 Y19.766 E15.62126
G1 X50.824 Y19.994 E15.64917
;LAYER:1
M106 S99
G0 F9000 X50.851 Y19.506 Z0.500
;TYPE:WALL-OUTER
G1 F1380 X51.703 Y19.665 E15.67800
G1 X52.083 Y19.774 E15.69115
G1 X52.898 Y20.091 E15.72023
G1 X53.250 Y20.269 E15.73335
G1 X53.963 Y20.712 E15.76127
G1 X54.303 Y20.972 E15.77551
G1 X54.906 Y21.525 E15.80272
G1 X55.238 Y21.899 E15.81935
G1 X55.732 Y22.559 E15.84677
G1 X56.301 Y23.646 E15.88758
G1 X56.451 Y24.043 E15.90170
G1 X56.641 Y24.718 E15.92502
G1 X56.720 Y25.067 E15.93692
G1 X56.824 Y26.247 E15.97632
G1 X56.736 Y27.163 E16.00693
G1 X56.706 Y27.506 E16.01838
G1 X56.408 Y28.581 E16.05548
G1 X56.261 Y28.943 E16.06848
G1 X55.903 Y29.653 E16.09492
G1 X55.656 Y30.049 E16.11045
G1 X55.189 Y30.662 E16.13608
G1 X54.878 Y31.002 E16.15140
G1 X54.259 Y31.560 E16.17912
G1 X53.913 Y31.818 E16.19348
G1 X53.195 Y32.256 E16.22145
G1 X52.796 Y32.451 E16.23622
G1 X52.079 Y32.724 E16.26174
G1 X51.662 Y32.841 E16.27614
G1 X50.848 Y32.990 E16.30367
G1 X50.370 Y33.030 E16.31962
G1 X49.582 Y33.029 E16.34583
G1 X49.149 Y32.984 E16.36031
G1 X48.377 Y32.840 E16.38643
G1 X47.950 Y32.717 E16.40121
G1 X47.217 Y32.434 E16.42734
G1 X46.842 Y32.250 E16.44124
G1 X46.137 Y31.818 E16.46874
G1 X45.800 Y31.568 E16.48269
G1 X45.151 Y30.977 E16.51189
G1 X44.864 Y30.667 E16.52594
G1 X44.367 Y30.007 E16.55342
G1 X44.131 Y29.623 E16.56841
G1 X43.751 Y28.854 E16.59694
G1 X43.609 Y28.478 E16.61031
G1 X43.380 Y27.661 E16.63853
G1 X43.309 Y27.265 E16.65191
G1 X43.234 Y26.405 E16.68062
G1 X43.236 Y26.001 E16.69406
G1 X43.318 Y25.160 E16.72216
G1 X43.393 Y24.774 E16.73524
G1 X43.625 Y23.966 E16.76320
G1 X43.770 Y23.598 E16.77636
G1 X44.162 Y22.822 E16.80527
G1 X44.422 Y22.410 E16.82148
G1 X44.903 Y21.784 E16.84773
G1 X45.197 Y21.470 E16.86204
G1 X45.830 Y20.905 E16.89026
G1 X46.153 Y20.665 E16.90364
G1 X46.834 Y20.251 E16.93015
G1 X47.219 Y20.062 E16.94442
G1 X47.982 Y19.772 E16.97157
G1 X48.421 Y19.648 E16.98674
G1 X49.214 Y19.505 E17.01354
G1 X49.619 Y19.467 E17.02707
G1 X50.461 Y19.469 E17.05507
G1 X50.851 Y19.506 E17.06810
G0 F9000 X50.308 Y20.068
G1 F1380 X49.861 Y20.055 E17.08298
G1 X48.883 Y20.165 E17.11571
G1 X48.426 Y20.265 E17.13127
G1 X47.514 Y20.590 E17.16347
G1 X47.106 Y20.785 E17.17851
G1 X46.390 Y21.236 E17.20666
G1 X46.032 Y21.515 E17.22175
G1 X45.374 Y22.164 E17.25249
G1 X45.091 Y22.503 E17.26718
G1 X44.618 Y23.233 E17.29611
G1 X44.412 Y23.635 E17.31113
G1 X44.067 Y24.564 E17.34409
G1 X43.960 Y25.002 E17.35909
G1 X43.839 Y25.963 E17.39131
G1 X43.837 Y26.418 E17.40644
G1 X43.941 Y27.410 E17.43961
G1 X44.043 Y27.838 E17.45425
G1 X44.354 Y28.741 E17.48601
G1 X44.559 Y29.154 E17.50135
G1 X45.036 Y29.921 E17.53139
G1 X45.310 Y30.260 E17.54589
G1 X45.963 Y30.922 E17.57682
G1 X46.318 Y31.208 E17.59198
G1 X47.094 Y31.704 E17.62261
G1 X47.490 Y31.897 E17.63726
G1 X48.435 Y32.230 E17.67059
G1 X48.875 Y32.334 E17.68563
G1 X49.812 Y32.434 E17.71697
G1 X50.309 Y32.432 E17.73350
G1 X51.283 Y32.312 E17.76614
G1 X51.708 Y32.208 E17.78069
G1 X52.578 Y31.891 E17.81149
G1 X52.974 Y31.693 E17.82621
G1 X53.719 Y31.220 E17.85556
G1 X54.100 Y30.905 E17.87201
G1 X54.790 Y30.206 E17.90467
G1 X55.083 Y29.814 E17.92095
G1 X55.542 Y29.065 E17.95017
G1 X55.720 Y28.685 E17.96413
G1 X55.983 Y27.923 E17.99094
G1 X56.081 Y27.571 E18.00309
G1 X56.226 Y26.248 E18.04736
G1 X56.114 Y25.262 E18.08036
G1 X56.029 Y24.710 E18.09894
G1 X55.756 Y23.920 E18.12674
G1 X55.552 Y23.448 E18.14384
G1 X55.081 Y22.683 E18.17372
G1 X54.755 Y22.249 E18.19177
G1 X54.192 Y21.671 E18.21861
G1 X53.810 Y21.344 E18.23534
G1 X53.061 Y20.860 E18.26500
G1 X52.606 Y20.617 E18.28215
G1 X51.730 Y20.301 E18.31313
G1 X51.293 Y20.184 E18.32817
G1 X50.308 Y20.068 E18.36116
G0 F9000 X50.985 Y20.007
;TYPE:SKIN
G1 F1380 X51.368 Y19.906 E18.37437
G1 X51.823 Y20.018 E18.38691
G1 X52.168 Y19.956 E18.39857
G0 F9000 X50.787 Y19.640
G1 F1380 X50.366 Y19.778 E18.41301
G1 X49.816 Y19.761 E18.42752
G1 X49.188 Y19.825 E18.44484
G1 X48.507 Y19.940 E18.46339
G1 X47.840 Y20.325 E18.48900
G0 F9000 X47.492 Y20.107
G1 F1380 X46.764 Y20.834 E18.52322
G0 F9000 X46.287 Y20.745
