;Generated with Cura_SteamEngine 15.01
; Default start code
G28 ; Home extruder
G1 Z15 F100
M107 ; Turn off fan
G90 ; Absolute positioning
M82 ; Extruder in absolute mode
; Activate all used extruder
M104 T0 S220
G92 E0 ; Reset extruder position
; Wait for all used extruders to reach temperature
M109 T0 S220
;Layer count: 100
;LAYER:0
M107
G0 F9000 X38.780 Y22.365 Z0.300
;TYPE:SKIRT
G1 F1800 X39.499 Y21.231 E0.06699
G1 X40.355 Y20.197 E0.13396
G1 X41.136 Y19.433 E0.18847
G1 X41.789 Y18.959 E0.22872
G1 X41.790 Y18.960 E0.22879
G1 X42.900 Y18.151 E0.29732
G1 X43.760 Y17.770 E0.34425
G1 X43.760 Y17.771 E0.34430
G1 X45.043 Y17.197 E0.41442
G1 X46.106 Y16.995 E0.46840
G1 X46.106 Y16.996 E0.46845
G1 X47.637 Y16.703 E0.54622
G1 X49.482 Y16.741 E0.63829
G1 X50.522 Y16.893 E0.69072
G1 X51.824 Y17.229 E0.75781
G1 X53.069 Y17.721 E0.82460
G1 X54.038 Y18.227 E0.87913
G1 X54.690 Y18.702 E0.91938
G1 X55.803 Y19.510 E0.98800
G1 X56.422 Y20.201 E1.03428
G1 X56.423 Y20.200 E1.03435
G1 X57.374 Y21.254 E1.10518
G1 X57.895 Y22.204 E1.15923
G1 X57.894 Y22.204 E1.15928
G1 X58.646 Y23.569 E1.23703
G1 X59.179 Y25.337 E1.32916
G1 X59.354 Y26.371 E1.38148
G1 X59.438 Y27.711 E1.44846
G1 X59.354 Y29.049 E1.51535
G1 X59.172 Y30.129 E1.56999
G1 X58.920 Y30.898 E1.61036
G1 X58.498 Y32.201 E1.67869
G1 X58.029 Y33.012 E1.72543
G1 X57.323 Y34.236 E1.79593
G1 X56.581 Y35.025 E1.84996
G1 X55.517 Y36.159 E1.92754
G1 X53.999 Y37.214 E2.01977
G1 X53.069 Y37.700 E2.07212
G1 X51.824 Y38.192 E2.13891
G1 X50.522 Y38.528 E2.20599
G1 X49.437 Y38.687 E2.26070
G1 X48.631 Y38.685 E2.30092
G1 X47.264 Y38.686 E2.36912
G1 X46.351 Y38.492 E2.41568
G1 X44.963 Y38.197 E2.48648
G1 X43.990 Y37.739 E2.54013
G1 X42.575 Y37.074 E2.61813
G1 X41.104 Y35.957 E2.71028
G1 X40.355 Y35.224 E2.76256
G1 X39.499 Y34.190 E2.82953
G1 X38.780 Y33.056 E2.89652
G1 X38.294 Y32.076 E2.95110
G1 X38.045 Y31.305 E2.99152
G1 X37.619 Y30.004 E3.05982
G1 X37.524 Y29.064 E3.10695
G1 X37.375 Y27.672 E3.17680
G1 X37.577 Y26.071 E3.25730
G1 X37.710 Y25.045 E3.30892
G1 X38.313 Y23.306 E3.40075
G1 X38.780 Y22.365 E3.45316
G0 F9000 X39.129 Y22.562
G1 F1800 X39.824 Y21.467 E3.51786
G1 X40.650 Y20.468 E3.58253
G1 X41.395 Y19.740 E3.63450
G1 X42.024 Y19.283 E3.67329
G1 X43.101 Y18.499 E3.73975
G1 X43.922 Y18.136 E3.78453
G1 X45.163 Y17.582 E3.85234
G1 X46.181 Y17.388 E3.90404
G1 X46.181 Y17.389 E3.90409
G1 X47.671 Y17.104 E3.97977
G1 X49.448 Y17.140 E4.06845
G1 X50.443 Y17.286 E4.11862
G1 X51.700 Y17.610 E4.18338
G1 X52.902 Y18.086 E4.24788
G1 X53.827 Y18.568 E4.29992
G1 X54.455 Y19.025 E4.33867
G1 X55.534 Y19.809 E4.40521
G1 X56.126 Y20.468 E4.44940
G1 X57.046 Y21.488 E4.51793
G1 X57.541 Y22.391 E4.56931
G1 X58.275 Y23.725 E4.64527
G1 X58.789 Y25.429 E4.73407
G1 X58.956 Y26.417 E4.78406
G1 X59.037 Y27.711 E4.84874
G1 X58.956 Y29.003 E4.91333
G1 X58.782 Y30.033 E4.96544
G1 X58.542 Y30.767 E5.00397
G1 X58.543 Y30.767 E5.00402
G1 X58.131 Y32.037 E5.07063
G1 X57.683 Y32.811 E5.11525
G1 X57.000 Y33.996 E5.18348
G1 X56.289 Y34.750 E5.23519
G1 X55.254 Y35.854 E5.31069
G1 X53.792 Y36.871 E5.39954
G1 X52.902 Y37.335 E5.44961
G1 X51.700 Y37.811 E5.51411
G1 X50.443 Y38.135 E5.57887
G1 X49.408 Y38.287 E5.63106
G1 X48.631 Y38.285 E5.66983
G1 X47.305 Y38.286 E5.73598
G1 X46.434 Y38.101 E5.78041
G1 X45.092 Y37.816 E5.84885
G1 X44.157 Y37.376 E5.90041
G1 X44.157 Y37.375 E5.90046
G1 X42.783 Y36.730 E5.97618
G1 X41.366 Y35.654 E6.06495
G1 X40.650 Y34.953 E6.11494
G1 X39.824 Y33.954 E6.17961
G1 X39.129 Y32.859 E6.24431
G1 X38.665 Y31.925 E6.29635
G1 X38.425 Y31.182 E6.33530
G1 X38.013 Y29.920 E6.40153
G1 X37.921 Y29.023 E6.44652
G1 X37.778 Y27.676 E6.51410
G1 X37.974 Y26.122 E6.59224
G1 X38.101 Y25.138 E6.64174
G1 X38.683 Y23.461 E6.73030
G1 X39.129 Y22.562 E6.78037
G0 F9000 X39.478 Y22.758
G1 F1800 X40.148 Y21.702 E6.84276
G1 X40.945 Y20.739 E6.90513
G1 X41.653 Y20.046 E6.95455
G1 X42.255 Y19.610 E6.99164
G1 X42.255 Y19.609 E6.99169
G1 X43.302 Y18.848 E7.05626
G1 X44.074 Y18.506 E7.09839
G1 X45.284 Y17.966 E7.16449
G1 X46.255 Y17.781 E7.21381
G1 X46.255 Y17.782 E7.21386
G1 X47.705 Y17.505 E7.28751
G1 X49.415 Y17.540 E7.37284
G1 X50.364 Y17.679 E7.42069
G1 X51.576 Y17.991 E7.48313
G1 X52.736 Y18.450 E7.54536
G1 X53.615 Y18.909 E7.59484
G1 X54.220 Y19.349 E7.63216
G1 X55.265 Y20.108 E7.69659
G1 X55.829 Y20.736 E7.73871
G1 X56.717 Y21.721 E7.80487
G1 X57.190 Y22.584 E7.85397
G1 X57.904 Y23.881 E7.92783
G1 X58.399 Y25.520 E8.01325
G1 X58.558 Y26.463 E8.06096
G1 X58.636 Y27.711 E8.12335
G1 X58.558 Y28.957 E8.18563
G1 X58.393 Y29.937 E8.23521
G1 X58.160 Y30.650 E8.27263
G1 X57.763 Y31.873 E8.33678
G1 X57.337 Y32.611 E8.37930
G1 X56.677 Y33.756 E8.44523
G1 X55.998 Y34.476 E8.49461
G1 X54.992 Y35.550 E8.56802
G1 X53.584 Y36.528 E8.65355
G1 X52.736 Y36.971 E8.70128
G1 X51.576 Y37.430 E8.76352
G1 X50.364 Y37.742 E8.82596
G1 X49.380 Y37.886 E8.87558
G1 X48.633 Y37.885 E8.91284
G1 X47.347 Y37.886 E8.97700
G1 X46.514 Y37.709 E9.01949
G1 X46.514 Y37.708 E9.01954
G1 X45.220 Y37.434 E9.08553
G1 X44.328 Y37.014 E9.13472
G1 X42.991 Y36.386 E9.20841
G1 X41.628 Y35.350 E9.29382
G1 X40.945 Y34.682 E9.34149
G1 X40.148 Y33.719 E9.40385
G1 X39.478 Y32.663 E9.46625
G1 X39.037 Y31.774 E9.51576
G1 X38.806 Y31.059 E9.55324
G1 X38.406 Y29.837 E9.61739
G1 X38.319 Y28.983 E9.66022
G1 X38.181 Y27.680 E9.72559
G1 X38.371 Y26.172 E9.80142
G1 X38.493 Y25.230 E9.84881
G1 X39.052 Y23.617 E9.93397
G1 X39.478 Y22.758 E9.98181
G1 F2400 E5.98181
G0 F9000 X42.792 Y24.629
;TYPE:WALL-INNER
G1 F2400 E9.98181
G1 F1800 X43.231 Y23.936 E10.02274
G1 X43.739 Y23.322 E10.06250
G1 X44.113 Y22.956 E10.08860
G1 X45.209 Y22.160 E10.15618
G1 X46.432 Y21.615 E10.22298
G1 X48.023 Y21.312 E10.30378
G1 X49.098 Y21.334 E10.35743
G1 X49.615 Y21.410 E10.38350
G1 X50.397 Y21.611 E10.42378
G1 X51.152 Y21.910 E10.46429
G1 X51.609 Y22.149 E10.49002
G1 X52.706 Y22.946 E10.55767
G1 X53.599 Y23.937 E10.62423
G1 X53.861 Y24.416 E10.65146
G1 X54.383 Y25.365 E10.70550
G1 X54.690 Y26.382 E10.75850
G1 X54.778 Y26.902 E10.78481
G1 X54.829 Y27.711 E10.82525
G1 X54.778 Y28.519 E10.86564
G1 X54.692 Y29.031 E10.89155
G1 X54.272 Y30.319 E10.95913
G1 X53.605 Y31.475 E11.02572
G1 X53.232 Y31.871 E11.05286
G1 X52.494 Y32.658 E11.10669
G1 X51.614 Y33.270 E11.16016
G1 X51.152 Y33.511 E11.18616
G1 X50.397 Y33.810 E11.22667
G1 X49.615 Y34.011 E11.26695
G1 X49.105 Y34.086 E11.29267
G1 X48.636 Y34.085 E11.31607
G1 X47.747 Y34.086 E11.36042
G1 X46.441 Y33.809 E11.42703
G1 X44.970 Y33.116 E11.50815
G1 X44.117 Y32.468 E11.56160
G1 X43.739 Y32.099 E11.58795
G1 X43.231 Y31.485 E11.62771
G1 X42.792 Y30.792 E11.66864
G1 X42.567 Y30.339 E11.69387
G1 X42.146 Y29.046 E11.76171
G1 X42.006 Y27.711 E11.82868
G1 X42.140 Y26.655 E11.88179
G1 X42.211 Y26.107 E11.90936
G1 X42.565 Y25.086 E11.96327
G1 X42.792 Y24.629 E11.98873
G0 F9000 X46.857 Y30.151
G1 F1800 X46.507 Y30.609 E12.01748
G1 X46.287 Y31.139 E12.04611
G1 X46.211 Y31.711 E12.07490
G1 X46.287 Y32.282 E12.10364
G1 X46.507 Y32.814 E12.13236
G1 X46.857 Y33.270 E12.16104
G1 X47.313 Y33.620 E12.18972
G1 X47.845 Y33.840 E12.21844
G1 X48.416 Y33.916 E12.24718
G1 X48.987 Y33.840 E12.27592
G1 X49.518 Y33.620 E12.30459
G1 X49.976 Y33.270 E12.33335
G1 X50.326 Y32.814 E12.36203
G1 X50.547 Y32.281 E12.39082
G1 X50.621 Y31.711 E12.41949
G1 X50.547 Y31.139 E12.44827
G1 X50.326 Y30.609 E12.47692
G1 X49.976 Y30.151 E12.50567
G1 X49.518 Y29.801 E12.53443
G1 X48.986 Y29.580 E12.56317
G1 X48.416 Y29.506 E12.59185
G1 X47.846 Y29.580 E12.62052
G1 X47.313 Y29.801 E12.64931
G1 X46.857 Y30.151 E12.67799
G0 F9000 X47.142 Y30.436
;TYPE:WALL-OUTER
G1 F1800 X46.856 Y30.810 E12.70148
G1 X46.676 Y31.244 E12.72492
G1 X46.614 Y31.711 E12.74842
G1 X46.676 Y32.177 E12.77188
G1 X46.856 Y32.612 E12.79536
G1 X47.142 Y32.985 E12.81881
G1 X47.515 Y33.271 E12.84226
G1 X47.950 Y33.451 E12.86575
G1 X48.416 Y33.513 E12.88920
G1 X48.882 Y33.451 E12.91266
G1 X49.317 Y33.271 E12.93614
G1 X49.691 Y32.985 E12.95963
G1 X49.977 Y32.612 E12.98308
G1 X50.157 Y32.177 E13.00657
G1 X50.218 Y31.711 E13.03002
G1 X50.157 Y31.244 E13.05351
G1 X49.977 Y30.810 E13.07695
G1 X49.691 Y30.436 E13.10044
G1 X49.317 Y30.150 E13.12393
G1 X48.882 Y29.970 E13.14742
G1 X48.416 Y29.909 E13.17087
G1 X47.950 Y29.970 E13.19431
G1 X47.515 Y30.150 E13.21780
G1 X47.142 Y30.436 E13.24125
G0 F9000 X46.960 Y30.199
G0 X44.919 Y33.204
G0 X44.761 Y33.461
G1 F1800 X43.856 Y32.773 E13.29797
G1 X43.447 Y32.373 E13.32651
G1 X42.906 Y31.719 E13.36885
G1 X42.444 Y30.991 E13.41187
G1 X42.193 Y30.486 E13.44001
G1 X41.752 Y29.130 E13.51114
G1 X41.603 Y27.711 E13.58233
G1 X41.819 Y26.016 E13.66758
G1 X42.195 Y24.932 E13.72482
G1 X42.444 Y24.430 E13.75277
G1 X42.906 Y23.702 E13.79579
G1 X43.447 Y23.048 E13.83814
G1 X43.854 Y22.650 E13.86654
G1 X45.008 Y21.811 E13.93772
G1 X46.311 Y21.231 E14.00887
G1 X47.989 Y20.911 E14.09410
G1 X49.133 Y20.935 E14.15118
G1 X49.689 Y21.016 E14.17922
G1 X50.523 Y21.231 E14.22219
G1 X51.322 Y21.547 E14.26505
G1 X51.816 Y21.805 E14.29286
G1 X52.975 Y22.648 E14.36436
G1 X53.929 Y23.706 E14.43543
G1 X54.753 Y25.206 E14.52081
G1 X55.082 Y26.297 E14.57766
G1 X55.175 Y26.848 E14.60554
G1 X55.229 Y27.711 E14.64868
G1 X55.175 Y28.573 E14.69177
G1 X55.083 Y29.121 E14.71949
G1 X54.640 Y30.482 E14.79090
G1 X53.930 Y31.713 E14.86180
G1 X52.755 Y32.964 E14.94743
G1 X51.822 Y33.613 E15.00413
G1 X51.322 Y33.874 E15.03227
G1 X50.523 Y34.190 E15.07513
G1 X49.689 Y34.405 E15.11810
G1 X49.135 Y34.486 E15.14603
G1 X47.706 Y34.486 E15.21733
G1 X46.310 Y34.189 E15.28853
G1 X44.761 Y33.461 E15.37392
G0 F9000 X45.260 Y33.098
;TYPE:SKIN
G1 F1800 X42.961 Y30.799 E15.53613
G0 F9000 X42.542 Y29.814
G1 F1800 X46.328 Y33.601 E15.80329
G0 F9000 X47.098 Y33.804
G1 F1800 X42.280 Y28.986 E16.14322
G0 F9000 X42.213 Y28.354
G1 F1800 X46.145 Y32.285 E16.42061
G0 F9000 X46.076 Y31.651
G1 F1800 X42.147 Y27.722 E16.69782
G0 F9000 X42.208 Y27.217
G1 F1800 X46.142 Y31.152 E16.97542
G0 F9000 X46.299 Y30.742
G1 F1800 X42.272 Y26.716 E17.25952
G0 F9000 X42.336 Y26.214
G1 F1800 X46.503 Y30.381 E17.55352
G0 F9000 X46.748 Y30.061
G1 F1800 X42.470 Y25.783 E17.85536
G0 F9000 X42.616 Y25.363
G1 F1800 X47.066 Y29.813 E18.16933
G0 F9000 X47.422 Y29.603
G1 F1800 X42.781 Y24.962 E18.49677
G0 F9000 X42.978 Y24.593
G1 F1800 X47.825 Y29.440 E18.83876
G0 F9000 X48.325 Y29.375
G1 F1800 X43.198 Y24.248 E19.20049
G0 F9000 X43.429 Y23.913
G1 F1800 X48.949 Y29.433 E19.58996
G0 F9000 X49.974 Y30.153
G0 X50.691 Y31.175
G1 F1800 X52.204 Y32.688 E19.69671
G0 F9000 X52.513 Y32.431
G1 F1800 X43.685 Y23.603 E20.31957
G0 F9000 X43.954 Y23.306
G1 F1800 X52.787 Y32.140 E20.94282
G0 F9000 X53.061 Y31.848
G1 F1800 X44.245 Y23.032 E21.56484
G0 F9000 X44.573 Y22.795
G1 F1800 X53.336 Y31.557 E22.18308
G0 F9000 X53.581 Y31.237
G1 F1800 X44.901 Y22.557 E22.79550
G0 F9000 X45.230 Y22.319
G1 F1800 X53.788 Y30.877 E23.39932
G0 F9000 X53.994 Y30.518
G1 F1800 X45.611 Y22.135 E23.99078
G0 F9000 X46.002 Y21.960
G1 F1800 X54.182 Y30.141 E24.56796
G0 F9000 X54.321 Y29.714
G1 F1800 X46.393 Y21.785 E25.12736
G0 F9000 X46.850 Y21.677
G1 F1800 X54.460 Y29.287 E25.66429
G0 F9000 X54.581 Y28.842
G1 F1800 X47.325 Y21.586 E26.17624
G0 F9000 X47.800 Y21.496
G1 F1800 X54.648 Y28.343 E26.65936
G0 F9000 X54.681 Y27.811
G1 F1800 X48.328 Y21.458 E27.10760
G0 F9000 X48.906 Y21.470
G1 F1800 X54.657 Y27.221 E27.51337
G0 F9000 X54.582 Y26.580
G1 F1800 X49.542 Y21.541 E27.86893
G0 F9000 X50.297 Y21.730
G1 F1800 X54.368 Y25.801 E28.15616
G0 F9000 X53.888 Y24.755
G1 F1800 X51.253 Y22.121 E28.34204
G0 F9000 X50.750 Y31.800
G1 F1800 X51.870 Y32.920 E28.42106
G0 F9000 X51.536 Y33.151
G1 F1800 X50.685 Y32.300 E28.48110
G0 F9000 X50.522 Y32.702
G1 F1800 X51.164 Y33.345 E28.52644
G0 F9000 X50.766 Y33.512
G1 F1800 X50.188 Y33.218 E28.55847
G1 X50.135 Y33.731 E28.57924
G1 X49.744 Y33.622 E28.59949
;LAYER:1
M106 S63
G0 F9000 X49.518 Y33.620 Z0.500
;TYPE:WALL-INNER
G1 F2220 X49.976 Y33.270 E28.61867
G1 X50.326 Y32.814 E28.63778
G1 X50.547 Y32.281 E28.65698
G1 X50.621 Y31.711 E28.67609
G1 X50.547 Y31.139 E28.69528
G1 X50.326 Y30.609 E28.71438
G1 X49.976 Y30.151 E28.73355
G1 X49.518 Y29.801 E28.75272
G1 X48.986 Y29.580 E28.77188
G1 X48.416 Y29.506 E28.79100
G1 X47.846 Y29.580 E28.81011
G1 X47.313 Y29.801 E28.82931
G1 X46.857 Y30.151 E28.84842
G1 X46.507 Y30.609 E28.86760
G1 X46.287 Y31.139 E28.88668
G1 X46.211 Y31.711 E28.90587
G1 X46.287 Y32.282 E28.92503
G1 X46.507 Y32.814 E28.94418
G1 X46.857 Y33.270 E28.96330
G1 X47.313 Y33.620 E28.98242
G1 X47.845 Y33.840 E29.00157
G1 X48.416 Y33.916 E29.02073
G1 X48.987 Y33.840 E29.03989
G1 X49.518 Y33.620 E29.05900
G0 F9000 X49.704 Y34.486
G1 F2220 X49.160 Y34.567 E29.07730
G1 X47.701 Y34.567 E29.12582
G1 X46.296 Y34.269 E29.17359
G1 X44.716 Y33.527 E29.23165
G1 X43.800 Y32.834 E29.26985
G1 X43.394 Y32.435 E29.28879
G1 X42.837 Y31.764 E29.31779
G1 X42.373 Y31.034 E29.34656
G1 X42.124 Y30.531 E29.36523
G1 X41.675 Y29.152 E29.41346
G1 X41.523 Y27.716 E29.46149
G1 X41.742 Y25.986 E29.51949
G1 X42.121 Y24.897 E29.55784
G1 X42.368 Y24.399 E29.57633
G1 X42.842 Y23.652 E29.60576
G1 X43.385 Y22.992 E29.63418
G1 X43.790 Y22.598 E29.65297
G1 X44.965 Y21.742 E29.70133
G1 X46.276 Y21.159 E29.74905
G1 X47.988 Y20.830 E29.80703
G1 X49.144 Y20.854 E29.84549
G1 X49.706 Y20.936 E29.86438
G1 X50.544 Y21.152 E29.89316
G1 X51.352 Y21.471 E29.92205
G1 X51.847 Y21.729 E29.94062
G1 X53.024 Y22.584 E29.98901
G1 X53.985 Y23.649 E30.03672
G1 X54.831 Y25.184 E30.09501
G1 X55.163 Y26.284 E30.13323
G1 X55.257 Y26.832 E30.15172
G1 X55.312 Y27.708 E30.18091
G1 X55.257 Y28.576 E30.20984
G1 X55.164 Y29.125 E30.22836
G1 X54.715 Y30.512 E30.27685
G1 X54.000 Y31.753 E30.32449
G1 X52.805 Y33.026 E30.38256
G1 X51.857 Y33.687 E30.42100
G1 X51.363 Y33.946 E30.43955
G1 X50.547 Y34.269 E30.46874
G1 X49.704 Y34.486 E30.49769
G0 F9000 X49.784 Y34.878
;TYPE:WALL-OUTER
G1 F1980 X49.185 Y34.967 E30.51783
G1 X47.660 Y34.967 E30.56855
G1 X46.167 Y34.650 E30.61932
G1 X44.508 Y33.872 E30.68026
G1 X43.536 Y33.135 E30.72083
G1 X43.101 Y32.709 E30.74108
G1 X42.514 Y32.001 E30.77167
G1 X42.022 Y31.227 E30.80218
G1 X41.754 Y30.686 E30.82226
G1 X41.281 Y29.234 E30.87305
G1 X41.120 Y27.716 E30.92382
G1 X41.350 Y25.895 E30.98487
G1 X41.752 Y24.740 E31.02555
G1 X42.020 Y24.199 E31.04563
G1 X42.514 Y23.421 E31.07628
G1 X43.092 Y22.719 E31.10652
G1 X43.527 Y22.296 E31.12670
G1 X44.765 Y21.394 E31.17765
G1 X46.157 Y20.774 E31.22833
G1 X47.954 Y20.429 E31.28919
G1 X49.178 Y20.455 E31.32991
G1 X49.777 Y20.542 E31.35004
G1 X50.672 Y20.772 E31.38078
G1 X51.522 Y21.108 E31.41118
G1 X52.058 Y21.388 E31.43129
G1 X53.292 Y22.284 E31.48201
G1 X54.315 Y23.417 E31.53279
G1 X55.201 Y25.025 E31.59385
G1 X55.553 Y26.190 E31.63433
G1 X55.654 Y26.787 E31.65447
G1 X55.712 Y27.708 E31.68516
G1 X55.654 Y28.630 E31.71589
G1 X55.556 Y29.213 E31.73555
G1 X55.083 Y30.674 E31.78662
G1 X54.324 Y31.992 E31.83721
G1 X53.067 Y33.331 E31.89829
G1 X52.066 Y34.029 E31.93888
G1 X51.529 Y34.310 E31.95904
G1 X50.675 Y34.649 E31.98960
G1 X49.784 Y34.878 E32.02020
G0 F9000 X49.729 Y34.583
G0 X49.496 Y33.509
G0 X49.317 Y33.271
G1 F1980 X49.691 Y32.985 E32.03586
G1 X49.977 Y32.612 E32.05149
G1 X50.157 Y32.177 E32.06715
G1 X50.218 Y31.711 E32.08278
G1 X50.157 Y31.244 E32.09845
G1 X49.977 Y30.810 E32.11407
G1 X49.691 Y30.436 E32.12973
G1 X49.317 Y30.150 E32.14539
G1 X48.882 Y29.970 E32.16105
G1 X48.416 Y29.909 E32.17668
G1 X47.950 Y29.970 E32.19231
G1 X47.515 Y30.150 E32.20797
G1 X47.142 Y30.436 E32.22360
G1 X46.856 Y30.810 E32.23926
G1 X46.676 Y31.244 E32.25489
G1 X46.614 Y31.711 E32.27056
G1 X46.676 Y32.177 E32.28620
G1 X46.856 Y32.612 E32.30185
