;Generated with Cura_SteamEngine 15.01
; Default start code
G28 ; Home extruder
G1 Z15 F100
M107 ; Turn off fan
G90 ; Absolute positioning
M82 ; Extruder in absolute mode
; Activate all used extruder
M104 T0 S220
G92 E0 ; Reset extruder position
; Wait for all used extruders to reach temperature
M109 T0 S220
;Layer count: 135
;LAYER:0
M107
G0 F9000 X28.821 Y14.489 Z0.300
G0 X28.606 Y15.012
;TYPE:SKIRT
G1 F1800 X28.821 Y14.489 E0.02821
G1 X29.957 Y12.925 E0.12465
G1 X30.292 Y12.468 E0.15292
G1 X31.785 Y11.233 E0.24959
G1 X32.219 Y10.873 E0.27772
G1 X33.986 Y10.042 E0.37514
G1 X34.494 Y9.802 E0.40317
G1 X36.411 Y9.437 E0.50052
G1 X36.948 Y9.329 E0.52785
G1 X38.916 Y9.452 E0.62623
G1 X39.482 Y9.489 E0.65453
G1 X41.334 Y10.091 E0.75168
G1 X41.871 Y10.267 E0.77987
G1 X43.528 Y11.318 E0.87777
G1 X44.003 Y11.625 E0.90599
G1 X45.302 Y13.009 E1.00068
G1 X45.705 Y13.431 E1.02980
G1 X46.653 Y15.157 E1.12804
G1 X46.925 Y15.653 E1.15626
G1 X47.409 Y17.541 E1.25350
G1 X47.549 Y18.089 E1.28172
G1 X47.549 Y20.599 E1.40694
G1 X47.066 Y22.478 E1.50373
G1 X47.067 Y22.478 E1.50378
G1 X46.926 Y23.030 E1.53221
G1 X45.986 Y24.742 E1.62965
G1 X45.716 Y25.236 E1.65773
G1 X44.368 Y26.671 E1.75596
G1 X43.976 Y27.081 E1.78426
G1 X42.344 Y28.116 E1.88067
G1 X41.885 Y28.413 E1.90795
G1 X40.016 Y29.021 E2.00600
G1 X39.481 Y29.196 E2.03409
G1 X37.531 Y29.318 E2.13156
G1 X36.974 Y29.355 E2.15941
G1 X35.038 Y28.987 E2.25773
G1 X34.480 Y28.876 E2.28611
G1 X32.730 Y28.052 E2.38262
G1 X32.219 Y27.810 E2.41082
G1 X30.718 Y26.568 E2.50802
G1 X30.282 Y26.207 E2.53626
G1 X29.151 Y24.650 E2.63227
G1 X28.809 Y24.185 E2.66107
G1 X28.088 Y22.361 E2.75892
G1 X27.883 Y21.861 E2.78588
G1 X27.636 Y19.901 E2.88444
G1 X27.564 Y19.357 E2.91182
G1 X27.810 Y17.396 E3.01042
G1 X27.885 Y16.835 E3.03866
G1 X28.606 Y15.012 E3.13646
G0 F9000 X28.977 Y15.162
G1 F1800 X29.173 Y14.686 E3.16214
G1 X30.280 Y13.161 E3.25616
G1 X30.585 Y12.745 E3.28189
G1 X32.040 Y11.541 E3.37611
G1 X32.436 Y11.213 E3.40177
G1 X34.149 Y10.407 E3.49622
G1 X34.619 Y10.185 E3.52215
G1 X36.454 Y9.836 E3.61534
G1 X36.975 Y9.732 E3.64184
G1 X38.890 Y9.851 E3.73757
G1 X39.406 Y9.885 E3.76337
G1 X41.210 Y10.472 E3.85801
G1 X41.699 Y10.632 E3.88368
G1 X43.312 Y11.655 E3.97897
G1 X43.745 Y11.935 E4.00470
G1 X45.013 Y13.285 E4.09710
G1 X45.380 Y13.669 E4.12360
G1 X46.303 Y15.349 E4.21924
G1 X46.550 Y15.801 E4.24493
G1 X47.022 Y17.640 E4.33965
G1 X47.149 Y18.140 E4.36539
G1 X47.149 Y20.549 E4.48558
G1 X46.677 Y22.387 E4.58025
G1 X46.551 Y22.883 E4.60578
G1 X45.635 Y24.549 E4.70063
G1 X45.389 Y24.999 E4.72622
G1 X44.077 Y26.396 E4.82183
G1 X43.721 Y26.769 E4.84756
G1 X42.130 Y27.778 E4.94155
G1 X41.712 Y28.049 E4.96640
G1 X39.892 Y28.641 E5.06189
G1 X39.405 Y28.800 E5.08745
G1 X37.506 Y28.919 E5.18237
G1 X36.999 Y28.952 E5.20772
G1 X35.114 Y28.595 E5.30344
G1 X34.606 Y28.493 E5.32929
G1 X32.901 Y27.690 E5.42331
G1 X32.435 Y27.470 E5.44902
G1 X30.973 Y26.260 E5.54370
G1 X30.576 Y25.931 E5.56942
G1 X29.463 Y24.398 E5.66394
G1 X29.162 Y23.989 E5.68927
G1 X28.460 Y22.214 E5.78450
G1 X28.273 Y21.758 E5.80909
G1 X28.033 Y19.851 E5.90498
G1 X27.967 Y19.356 E5.92990
G1 X28.207 Y17.448 E6.02584
G1 X28.275 Y16.936 E6.05160
G1 X28.977 Y15.162 E6.14679
G0 F9000 X29.348 Y15.311
G1 F1800 X29.524 Y14.882 E6.16992
G1 X30.603 Y13.397 E6.26150
G1 X30.878 Y13.022 E6.28470
G1 X32.295 Y11.849 E6.37647
G1 X32.652 Y11.553 E6.39961
G1 X34.320 Y10.769 E6.49156
G1 X34.744 Y10.569 E6.51495
G1 X36.532 Y10.229 E6.60575
G1 X36.532 Y10.228 E6.60580
G1 X37.002 Y10.134 E6.62972
G1 X38.864 Y10.251 E6.72279
G1 X39.330 Y10.281 E6.74609
G1 X41.086 Y10.852 E6.83821
G1 X41.527 Y10.996 E6.86136
G1 X43.096 Y11.991 E6.95405
G1 X43.487 Y12.244 E6.97728
G1 X44.724 Y13.561 E7.06743
G1 X45.054 Y13.908 E7.09132
G1 X45.952 Y15.542 E7.18434
G1 X46.175 Y15.949 E7.20749
G1 X46.634 Y17.739 E7.29968
G1 X46.749 Y18.190 E7.32291
G1 X46.749 Y20.498 E7.43805
G1 X46.289 Y22.288 E7.53026
G1 X46.176 Y22.735 E7.55326
G1 X45.285 Y24.357 E7.64559
G1 X45.284 Y24.357 E7.64564
G1 X45.063 Y24.763 E7.66870
G1 X43.787 Y26.121 E7.76166
G1 X43.465 Y26.458 E7.78492
G1 X41.940 Y27.425 E7.87501
G1 X41.538 Y27.685 E7.89889
G1 X39.775 Y28.258 E7.99138
G1 X39.329 Y28.404 E8.01479
G1 X37.481 Y28.520 E8.10717
G1 X37.023 Y28.550 E8.13007
G1 X35.191 Y28.202 E8.22310
G1 X34.733 Y28.110 E8.24641
G1 X33.072 Y27.328 E8.33800
G1 X32.651 Y27.129 E8.36123
G1 X31.228 Y25.952 E8.45336
G1 X30.870 Y25.655 E8.47657
G1 X29.786 Y24.163 E8.56858
G1 X29.515 Y23.794 E8.59142
G1 X28.832 Y22.067 E8.68407
G1 X28.663 Y21.656 E8.70624
G1 X28.430 Y19.801 E8.79952
G1 X28.370 Y19.354 E8.82202
G1 X28.603 Y17.499 E8.91529
G1 X28.665 Y17.038 E8.93850
G1 X29.348 Y15.311 E9.03115
G1 F2400 E5.03115
G0 F9000 X32.867 Y16.748
;TYPE:WALL-INNER
G1 F2400 E9.03115
G1 F1800 X33.666 Y15.646 E9.09906
G1 X34.704 Y14.787 E9.16628
G1 X35.933 Y14.210 E9.23402
G1 X37.260 Y13.958 E9.30140
G1 X38.607 Y14.042 E9.36874
G1 X39.894 Y14.460 E9.43625
G1 X41.034 Y15.184 E9.50362
G1 X41.963 Y16.174 E9.57136
G1 X42.613 Y17.356 E9.63865
G1 X42.949 Y18.664 E9.70603
G1 X42.949 Y20.019 E9.77363
G1 X42.613 Y21.328 E9.84105
G1 X41.962 Y22.513 E9.90851
G1 X41.038 Y23.497 E9.97585
G1 X39.892 Y24.224 E10.04356
G1 X38.609 Y24.642 E10.11088
G1 X37.254 Y24.726 E10.17861
G1 X35.935 Y24.476 E10.24559
G1 X34.703 Y23.896 E10.31352
G1 X33.665 Y23.036 E10.38077
G1 X32.870 Y21.942 E10.44824
G1 X32.370 Y20.678 E10.51606
G1 X32.202 Y19.339 E10.58338
G1 X32.370 Y18.004 E10.65051
G1 X32.867 Y16.748 E10.71790
G0 F9000 X34.912 Y17.784
G1 F1800 X34.600 Y18.532 E10.75834
G1 X34.493 Y19.336 E10.79880
G1 X34.596 Y20.139 E10.83919
G1 X34.905 Y20.889 E10.87966
G1 X35.397 Y21.533 E10.92009
G1 X36.039 Y22.027 E10.96051
G1 X36.787 Y22.339 E11.00094
G1 X37.591 Y22.446 E11.04141
G1 X38.394 Y22.343 E11.08180
G1 X39.144 Y22.034 E11.12227
G1 X39.787 Y21.542 E11.16266
G1 X40.283 Y20.900 E11.20313
G1 X40.593 Y20.152 E11.24353
G1 X40.701 Y19.348 E11.28400
G1 X40.597 Y18.545 E11.32440
G1 X40.289 Y17.795 E11.36485
G1 X39.796 Y17.151 E11.40531
G1 X39.155 Y16.657 E11.44569
G1 X38.407 Y16.345 E11.48612
G1 X37.603 Y16.238 E11.52659
G1 X36.800 Y16.341 E11.56698
G1 X36.045 Y16.653 E11.60773
G1 X35.406 Y17.143 E11.64791
G1 X34.912 Y17.784 E11.68828
G0 F9000 X35.261 Y17.987
;TYPE:WALL-OUTER
G1 F1800 X34.989 Y18.637 E11.72343
G1 X34.896 Y19.337 E11.75866
G1 X34.986 Y20.036 E11.79383
G1 X35.255 Y20.688 E11.82901
G1 X35.683 Y21.248 E11.86418
G1 X36.242 Y21.678 E11.89936
G1 X36.892 Y21.950 E11.93452
G1 X37.592 Y22.043 E11.96975
G1 X38.291 Y21.953 E12.00491
G1 X38.943 Y21.684 E12.04010
G1 X39.502 Y21.256 E12.07522
G1 X39.934 Y20.697 E12.11047
G1 X40.204 Y20.047 E12.14558
G1 X40.298 Y19.347 E12.18082
G1 X40.207 Y18.648 E12.21599
G1 X39.939 Y17.996 E12.25115
G1 X39.510 Y17.436 E12.28635
G1 X38.952 Y17.006 E12.32149
G1 X38.302 Y16.734 E12.35665
G1 X37.602 Y16.641 E12.39188
G1 X36.903 Y16.731 E12.42704
G1 X36.246 Y17.002 E12.46250
G1 X35.691 Y17.428 E12.49740
G1 X35.261 Y17.987 E12.53259
G0 F9000 X34.985 Y17.871
G0 X32.786 Y16.695
G0 X32.501 Y16.584
G1 F1800 X32.514 Y16.552 E12.53431
G1 X33.349 Y15.402 E12.60521
G1 X33.369 Y15.373 E12.60697
G1 X34.489 Y14.447 E12.67947
G1 X35.807 Y13.827 E12.75214
G1 X37.198 Y13.562 E12.82278
G1 X37.231 Y13.555 E12.82447
G1 X38.685 Y13.647 E12.89715
G1 X40.065 Y14.095 E12.96954
G1 X41.261 Y14.854 E13.04021
G1 X41.292 Y14.874 E13.04205
G1 X42.264 Y15.909 E13.11289
G1 X42.290 Y15.936 E13.11476
G1 X42.986 Y17.204 E13.18692
G1 X43.349 Y18.617 E13.25970
G1 X43.349 Y20.067 E13.33205
G1 X42.986 Y21.480 E13.40483
G1 X42.289 Y22.749 E13.47706
G1 X41.318 Y23.783 E13.54783
G1 X41.293 Y23.810 E13.54966
G1 X40.094 Y24.570 E13.62049
G1 X40.064 Y24.589 E13.62226
G1 X38.685 Y25.037 E13.69460
G1 X37.229 Y25.129 E13.76738
G1 X35.842 Y24.865 E13.83782
G1 X35.807 Y24.858 E13.83960
G1 X34.489 Y24.237 E13.91229
G1 X33.372 Y23.313 E13.98461
G1 X32.536 Y22.164 E14.05551
G1 X32.516 Y22.137 E14.05718
G1 X31.994 Y20.815 E14.12809
G1 X31.979 Y20.780 E14.12999
G1 X31.803 Y19.376 E14.20059
G1 X31.798 Y19.341 E14.20235
G1 X31.975 Y17.936 E14.27300
G1 X31.979 Y17.903 E14.27466
G1 X32.501 Y16.584 E14.34543
G0 F9000 X32.975 Y16.853
;TYPE:SKIN
G1 F1800 X34.508 Y18.386 E14.45359
G0 F9000 X34.675 Y17.987
G1 F1800 X33.205 Y16.518 E14.55727
G0 F9000 X33.443 Y16.189
G1 F1800 X34.868 Y17.614 E14.65781
G0 F9000 X35.113 Y17.294
G1 F1800 X33.680 Y15.861 E14.75892
G0 F9000 X33.965 Y15.581
G1 F1800 X35.375 Y16.990 E14.85837
G0 F9000 X35.695 Y16.744
G1 F1800 X34.275 Y15.325 E14.95852
G0 F9000 X34.585 Y15.069
G1 F1800 X36.024 Y16.508 E15.06005
G0 F9000 X36.425 Y16.343
G1 F1800 X34.921 Y14.840 E15.16613
G0 F9000 X35.306 Y14.659
G1 F1800 X36.841 Y16.194 E15.27443
G0 F9000 X37.343 Y16.130
G1 F1800 X35.691 Y14.478 E15.39099
G0 F9000 X36.099 Y14.320
G1 F1800 X37.916 Y16.137 E15.51919
G0 F9000 X38.630 Y16.286
G1 F1800 X36.574 Y14.229 E15.66429
G0 F9000 X37.050 Y14.140
G1 F1800 X42.808 Y19.897 E16.07051
G0 F9000 X42.713 Y20.368
G1 F1800 X40.647 Y18.302 E16.21628
G0 F9000 X40.797 Y19.019
G1 F1800 X42.598 Y20.819 E16.34331
G0 F9000 X42.482 Y21.269
G1 F1800 X40.808 Y19.595 E16.46142
G0 F9000 X42.808 Y19.332
G1 F1800 X37.596 Y14.120 E16.82916
G0 F9000 X38.200 Y14.158
G1 F1800 X42.808 Y18.766 E17.15427
G0 F9000 X42.642 Y18.034
G1 F1800 X38.888 Y14.281 E17.41910
G0 F9000 X39.725 Y14.552
G1 F1800 X42.361 Y17.188 E17.60509
G0 F9000 X40.741 Y20.093
G1 F1800 X42.283 Y21.636 E17.71392
G0 F9000 X42.083 Y22.001
G1 F1800 X40.594 Y20.512 E17.81898
G0 F9000 X40.428 Y20.912
G1 F1800 X41.883 Y22.367 E17.92164
G0 F9000 X41.621 Y22.671
G1 F1800 X40.193 Y21.242 E18.02242
G0 F9000 X39.947 Y21.562
G1 F1800 X41.348 Y22.963 E18.12127
G0 F9000 X41.074 Y23.255
G1 F1800 X39.645 Y21.826 E18.22210
G0 F9000 X39.325 Y22.071
G1 F1800 X40.760 Y23.507 E18.32338
G0 F9000 X40.413 Y23.726
G1 F1800 X38.952 Y22.264 E18.42649
G0 F9000 X38.552 Y22.430
G1 F1800 X40.068 Y23.946 E18.53346
G0 F9000 X39.696 Y24.139
G1 F1800 X38.080 Y22.524 E18.64744
G0 F9000 X37.577 Y22.586
G1 F1800 X39.269 Y24.278 E18.76682
G0 F9000 X38.842 Y24.417
G1 F1800 X36.924 Y22.499 E18.90214
G0 F9000 X36.036 Y22.177
G1 F1800 X38.373 Y24.514 E19.06703
G0 F9000 X37.841 Y24.547
G1 F1800 X32.374 Y19.080 E19.45276
G0 F9000 X32.437 Y18.578
G1 F1800 X34.755 Y20.896 E19.61631
G0 F9000 X34.438 Y20.013
G1 F1800 X32.500 Y18.075 E19.75304
G0 F9000 X32.654 Y17.663
G1 F1800 X34.355 Y19.364 E19.87306
G0 F9000 X34.414 Y18.857
G1 F1800 X32.814 Y17.258 E19.98591
G0 F9000 X32.381 Y19.653
G1 F1800 X37.308 Y24.580 E20.33354
G0 F9000 X36.625 Y24.463
G1 F1800 X32.461 Y20.299 E20.62733
G0 F9000 X32.679 Y21.083
G1 F1800 X35.902 Y24.306 E20.85473
G0 F9000 X34.832 Y23.801
G1 F1800 X33.229 Y22.198 E20.96783
;LAYER:1
M106 S63
G0 F9000 X32.895 Y21.978 Z0.500
;TYPE:WALL-INNER
G1 F2220 X32.869 Y21.942 E20.96931
G1 X32.387 Y20.724 E21.01287
G1 X32.370 Y20.682 E21.01438
G1 X32.208 Y19.385 E21.05785
G1 X32.202 Y19.338 E21.05943
G1 X32.364 Y18.049 E21.10264
G1 X32.370 Y18.002 E21.10422
G1 X32.851 Y16.788 E21.14765
G1 X32.869 Y16.743 E21.14926
G1 X33.665 Y15.648 E21.19429
G1 X34.704 Y14.787 E21.23917
G1 X35.891 Y14.230 E21.28278
G1 X35.933 Y14.210 E21.28432
G1 X37.214 Y13.966 E21.32770
G1 X37.258 Y13.958 E21.32918
G1 X38.560 Y14.039 E21.37257
G1 X38.607 Y14.042 E21.37414
G1 X39.848 Y14.445 E21.41754
G1 X39.893 Y14.460 E21.41911
G1 X40.998 Y15.161 E21.46264
G1 X41.035 Y15.184 E21.46409
G1 X41.931 Y16.138 E21.50762
G1 X41.961 Y16.170 E21.50908
G1 X42.591 Y17.316 E21.55257
G1 X42.613 Y17.354 E21.55403
G1 X42.949 Y18.665 E21.59905
G1 X42.949 Y20.019 E21.64408
G1 X42.613 Y21.327 E21.68900
G1 X41.983 Y22.475 E21.73255
G1 X41.962 Y22.513 E21.73400
G1 X41.068 Y23.465 E21.77743
G1 X41.037 Y23.498 E21.77894
G1 X39.931 Y24.200 E21.82251
G1 X39.895 Y24.223 E21.82393
G1 X38.649 Y24.628 E21.86750
G1 X38.607 Y24.642 E21.86898
G1 X37.303 Y24.723 E21.91243
G1 X37.254 Y24.726 E21.91406
G1 X35.976 Y24.483 E21.95733
G1 X35.930 Y24.474 E21.95889
G1 X34.749 Y23.918 E22.00231
G1 X34.705 Y23.897 E22.00393
G1 X33.665 Y23.036 E22.04884
G1 X32.895 Y21.978 E22.09236
G0 F9000 X34.903 Y20.884
G1 F2220 X35.393 Y21.528 E22.11927
G1 X36.034 Y22.024 E22.14623
G1 X36.782 Y22.337 E22.17320
G1 X37.495 Y22.433 E22.19713
G1 X37.576 Y22.450 E22.19988
G1 X38.389 Y22.344 E22.22715
G1 X39.139 Y22.036 E22.25412
G1 X39.782 Y21.546 E22.28100
G1 X40.279 Y20.905 E22.30798
G1 X40.591 Y20.157 E22.33494
G1 X40.689 Y19.441 E22.35897
G1 X40.705 Y19.362 E22.36165
G1 X40.598 Y18.550 E22.38890
G1 X40.291 Y17.800 E22.41585
G1 X39.799 Y17.156 E22.44280
G1 X39.160 Y16.660 E22.46971
G1 X38.412 Y16.347 E22.49668
G1 X37.699 Y16.251 E22.52061
G1 X37.618 Y16.234 E22.52336
G1 X36.805 Y16.340 E22.55063
G1 X36.045 Y16.652 E22.57795
G1 X35.410 Y17.139 E22.60457
G1 X34.915 Y17.779 E22.63148
G1 X34.602 Y18.527 E22.65845
G1 X34.506 Y19.240 E22.68238
G1 X34.489 Y19.321 E22.68513
G1 X34.595 Y20.134 E22.71240
G1 X34.903 Y20.884 E22.73937
G0 F9000 X35.253 Y20.683
;TYPE:WALL-OUTER
G1 F1980 X35.680 Y21.244 E22.76281
G1 X36.237 Y21.675 E22.78624
G1 X36.888 Y21.948 E22.80972
G1 X37.553 Y22.037 E22.83203
G1 X37.590 Y22.045 E22.83329
G1 X38.286 Y21.954 E22.85664
G1 X38.938 Y21.686 E22.88008
G1 X39.498 Y21.259 E22.90351
G1 X39.930 Y20.702 E22.92695
G1 X40.202 Y20.051 E22.95042
G1 X40.291 Y19.391 E22.97257
G1 X40.300 Y19.349 E22.97400
G1 X40.208 Y18.653 E22.99735
G1 X39.941 Y18.001 E23.02078
G1 X39.513 Y17.440 E23.04425
G1 X38.957 Y17.009 E23.06765
G1 X38.306 Y16.736 E23.09113
G1 X37.641 Y16.647 E23.11344
G1 X37.604 Y16.639 E23.11470
G1 X36.908 Y16.730 E23.13805
G1 X36.246 Y17.002 E23.16185
G1 X35.695 Y17.425 E23.18496
G1 X35.264 Y17.982 E23.20838
G1 X34.991 Y18.633 E23.23186
G1 X34.903 Y19.293 E23.25401
G1 X34.894 Y19.335 E23.25543
G1 X34.985 Y20.031 E23.27878
G1 X35.253 Y20.683 E23.30223
G0 F9000 X35.014 Y20.863
G0 X32.299 Y20.772
G0 X32.016 Y20.872
G1 F1980 X31.979 Y20.780 E23.30553
G1 X31.811 Y19.436 E23.35057
G1 X31.798 Y19.341 E23.35376
G1 X31.967 Y17.996 E23.39885
G1 X31.979 Y17.903 E23.40197
G1 X32.480 Y16.639 E23.44719
G1 X32.516 Y16.549 E23.45042
G1 X33.372 Y15.371 E23.49885
G1 X34.489 Y14.447 E23.54706
G1 X35.720 Y13.869 E23.59230
G1 X35.809 Y13.826 E23.59558
G1 X37.229 Y13.555 E23.64366
G1 X38.685 Y13.647 E23.69219
G1 X39.973 Y14.065 E23.73723
G1 X40.065 Y14.095 E23.74045
G1 X41.292 Y14.874 E23.78879
G1 X42.289 Y15.935 E23.83721
G1 X42.986 Y17.204 E23.88536
G1 X43.349 Y18.617 E23.93389
G1 X43.349 Y20.067 E23.98211
G1 X42.986 Y21.480 E24.03064
G1 X42.289 Y22.749 E24.07879
G1 X41.292 Y23.810 E24.12722
G1 X40.065 Y24.589 E24.17556
G1 X38.774 Y25.008 E24.22070
G1 X38.684 Y25.038 E24.22386
G1 X37.229 Y25.129 E24.27234
G1 X35.807 Y24.858 E24.32049
G1 X34.577 Y24.279 E24.36571
G1 X34.488 Y24.236 E24.36899
G1 X33.372 Y23.313 E24.41716
G1 X32.515 Y22.135 E24.46561
G1 X32.016 Y20.872 E24.51078
G0 F9000 X32.592 Y20.864
;TYPE:SKIN
G1 F1980 X34.386 Y19.070 E24.59517
G0 F9000 X34.387 Y19.635
G1 F1980 X32.753 Y21.269 E24.67202
G0 F9000 X32.913 Y21.674
G1 F1980 X34.452 Y20.136 E24.74439
G0 F9000 X34.610 Y20.543
G1 F1980 X33.113 Y22.040 E24.81480
G0 F9000 X33.352 Y22.367
G1 F1980 X34.775 Y20.944 E24.88174
G0 F9000 X35.018 Y21.267
G1 F1980 X33.590 Y22.695 E24.94891
G0 F9000 X33.846 Y23.005
G1 F1980 X35.262 Y21.589 E25.01551
G0 F9000 X35.573 Y21.843
G1 F1980 X34.156 Y23.260 E25.08216
G0 F9000 X34.465 Y23.516
G1 F1980 X35.892 Y22.090 E25.14926
G0 F9000 X36.273 Y22.275
G1 F1980 X34.774 Y23.773 E25.21975
G0 F9000 X35.158 Y23.956
G1 F1980 X36.671 Y22.442 E25.29094
G0 F9000 X37.152 Y22.527
G1 F1980 X35.542 Y24.137 E25.36667
G0 F9000 X35.926 Y24.318
