;Generated with Cura_SteamEngine 15.01
; Default start code
G28 ; Home extruder
G1 Z15 F100
M107 ; Turn off fan
G90 ; Absolute positioning
M82 ; Extruder in absolute mode
; Activate all used extruder
M104 T0 S220
G92 E0 ; Reset extruder position
; Wait for all used extruders to reach temperature
M109 T0 S220
;Layer count: 70
;LAYER:0
M107
G0 F9000 X20.017 Y13.464 Z0.300
;TYPE:SKIRT
G1 F1800 X76.417 Y13.464 E2.81381
G1 X76.417 Y35.864 E3.93135
G1 X20.017 Y35.864 E6.74516
G1 X20.017 Y13.464 E7.86270
G1 F2400 E3.86270
G0 F9000 X23.817 Y17.264
;TYPE:WALL-INNER
G1 F2400 E7.86270
G1 F1800 X72.617 Y17.264 E10.29734
G1 X72.617 Y32.064 E11.03571
G1 X23.817 Y32.064 E13.47035
G1 X23.817 Y17.264 E14.20873
G0 F9000 X34.463 Y22.732
G1 F1800 X34.364 Y22.862 E14.21688
G1 X33.984 Y23.779 E14.26640
G1 X33.855 Y24.764 E14.31597
G1 X33.984 Y25.749 E14.36553
G1 X34.365 Y26.667 E14.41511
G1 X34.970 Y27.455 E14.46468
G1 X35.757 Y28.059 E14.51417
G1 X36.675 Y28.440 E14.56376
G1 X37.621 Y28.564 E14.61136
G1 X68.046 Y28.564 E16.12927
G1 X68.992 Y28.440 E16.17687
G1 X69.757 Y28.122 E16.21820
G1 X69.909 Y28.060 E16.22639
G1 X70.567 Y27.554 E16.26780
G1 X70.696 Y27.456 E16.27588
G1 X71.204 Y26.796 E16.31744
G1 X71.302 Y26.666 E16.32556
G1 X71.621 Y25.899 E16.36700
G1 X71.683 Y25.748 E16.37515
G1 X71.812 Y24.764 E16.42466
G1 X71.683 Y23.779 E16.47422
G1 X71.364 Y23.012 E16.51566
G1 X71.303 Y22.862 E16.52374
G1 X70.796 Y22.202 E16.56526
G1 X70.698 Y22.074 E16.57331
G1 X70.038 Y21.567 E16.61483
G1 X69.909 Y21.469 E16.62291
G1 X69.142 Y21.150 E16.66435
G1 X68.991 Y21.088 E16.67250
G1 X68.129 Y20.975 E16.71587
G1 X37.621 Y20.964 E18.23792
G1 X36.675 Y21.088 E18.28552
G1 X35.910 Y21.406 E18.32685
G1 X35.758 Y21.468 E18.33504
G1 X35.100 Y21.974 E18.37645
G1 X34.971 Y22.072 E18.38454
G1 X34.463 Y22.732 E18.42609
G0 F9000 X34.714 Y23.063
;TYPE:WALL-OUTER
G1 F1800 X34.374 Y23.884 E18.47042
G1 X34.258 Y24.764 E18.51470
G1 X34.374 Y25.644 E18.55899
G1 X34.714 Y26.465 E18.60332
G1 X35.255 Y27.170 E18.64766
G1 X35.959 Y27.710 E18.69192
G1 X36.780 Y28.050 E18.73625
G1 X37.647 Y28.164 E18.77988
G1 X68.020 Y28.164 E20.29520
G1 X68.887 Y28.050 E20.33882
G1 X69.708 Y27.710 E20.38316
G1 X70.412 Y27.170 E20.42742
G1 X70.953 Y26.465 E20.47176
G1 X71.293 Y25.644 E20.51609
G1 X71.409 Y24.764 E20.56037
G1 X71.293 Y23.884 E20.60466
G1 X70.953 Y23.063 E20.64899
G1 X70.412 Y22.358 E20.69333
G1 X69.708 Y21.818 E20.73759
G1 X68.887 Y21.478 E20.78192
G1 X68.103 Y21.375 E20.82137
G1 X37.647 Y21.364 E22.34083
G1 X36.780 Y21.478 E22.38446
G1 X35.959 Y21.818 E22.42879
G1 X35.255 Y22.358 E22.47306
G1 X34.714 Y23.063 E22.51739
G0 F9000 X34.438 Y22.948
G0 X23.717 Y17.074
G0 X23.417 Y16.864
G1 F1800 X73.017 Y16.864 E24.99194
G1 X73.017 Y32.464 E25.77023
G1 X23.417 Y32.464 E28.24479
G1 X23.417 Y16.864 E29.02307
G0 F9000 X23.956 Y17.450
;TYPE:SKIN
G1 F1800 X38.428 Y31.923 E30.04419
G0 F9000 X37.862 Y31.923
G1 F1800 X23.956 Y18.016 E31.02536
G0 F9000 X23.956 Y18.582
G1 F1800 X37.297 Y31.923 E31.96664
G0 F9000 X36.731 Y31.923
G1 F1800 X23.956 Y19.147 E32.86803
G0 F9000 X23.956 Y19.713
G1 F1800 X36.165 Y31.923 E33.72947
G0 F9000 X35.599 Y31.923
G1 F1800 X23.956 Y20.279 E34.55098
G0 F9000 X23.956 Y20.844
G1 F1800 X35.034 Y31.923 E35.33263
G0 F9000 X34.468 Y31.923
G1 F1800 X23.956 Y21.410 E36.07434
G0 F9000 X23.956 Y21.976
G1 F1800 X33.902 Y31.923 E36.77612
G0 F9000 X33.337 Y31.923
G1 F1800 X23.956 Y22.541 E37.43804
G0 F9000 X23.956 Y23.107
G1 F1800 X32.771 Y31.923 E38.06002
G0 F9000 X32.205 Y31.923
G1 F1800 X23.956 Y23.673 E38.64207
G0 F9000 X23.956 Y24.238
G1 F1800 X31.640 Y31.923 E39.18425
G0 F9000 X31.074 Y31.923
G1 F1800 X23.956 Y24.804 E39.68650
G0 F9000 X23.956 Y25.370
G1 F1800 X30.508 Y31.923 E40.14881
G0 F9000 X29.943 Y31.923
G1 F1800 X23.956 Y25.935 E40.57126
G0 F9000 X23.956 Y26.501
G1 F1800 X29.377 Y31.923 E40.95378
G0 F9000 X28.811 Y31.923
G1 F1800 X23.956 Y27.067 E41.29636
G0 F9000 X23.956 Y27.633
G1 F1800 X28.246 Y31.923 E41.59904
G0 F9000 X27.680 Y31.923
G1 F1800 X23.956 Y28.198 E41.86183
G0 F9000 X23.956 Y28.764
G1 F1800 X27.114 Y31.923 E42.08468
G0 F9000 X26.549 Y31.923
G1 F1800 X23.956 Y29.330 E42.26763
G0 F9000 X23.956 Y29.895
G1 F1800 X25.983 Y31.923 E42.41068
G0 F9000 X25.417 Y31.923
G1 F1800 X23.956 Y30.461 E42.51380
G0 F9000 X23.956 Y31.027
G1 F1800 X24.851 Y31.923 E42.57698
G0 F9000 X24.286 Y31.923
G1 F1800 X23.956 Y31.592 E42.60030
G0 F9000 X34.148 Y26.511
G1 F1800 X25.040 Y17.404 E43.24288
G0 F9000 X24.475 Y17.404
G1 F1800 X38.994 Y31.923 E44.26727
G0 F9000 X39.559 Y31.923
G1 F1800 X35.912 Y28.275 E44.52462
G0 F9000 X36.801 Y28.598
G1 F1800 X40.125 Y31.923 E44.75919
G0 F9000 X40.691 Y31.923
G1 F1800 X37.451 Y28.683 E44.98779
G0 F9000 X38.037 Y28.703
G1 F1800 X41.256 Y31.923 E45.21494
G0 F9000 X41.822 Y31.923
G1 F1800 X38.603 Y28.703 E45.44209
G0 F9000 X39.168 Y28.703
G1 F1800 X42.388 Y31.923 E45.66928
G0 F9000 X42.953 Y31.923
G1 F1800 X39.734 Y28.703 E45.89643
G0 F9000 X36.677 Y28.438
G0 X34.972 Y27.453
G0 X33.825 Y25.622
G1 F1800 X25.606 Y17.404 E46.47629
G0 F9000 X26.172 Y17.404
G1 F1800 X33.739 Y24.971 E47.01019
G0 F9000 X33.757 Y24.423
G1 F1800 X26.737 Y17.404 E47.50545
G0 F9000 X27.303 Y17.404
G1 F1800 X33.823 Y23.923 E47.96543
G0 F9000 X33.952 Y23.487
G1 F1800 X27.869 Y17.404 E48.39462
G0 F9000 X28.434 Y17.404
G1 F1800 X34.118 Y23.087 E48.79562
G0 F9000 X34.305 Y22.708
G1 F1800 X29.000 Y17.404 E49.16989
G0 F9000 X29.566 Y17.404
G1 F1800 X34.551 Y22.389 E49.52160
G0 F9000 X34.796 Y22.068
G1 F1800 X30.131 Y17.404 E49.85071
G0 F9000 X30.697 Y17.404
G1 F1800 X35.093 Y21.800 E50.16087
G0 F9000 X35.414 Y21.554
G1 F1800 X31.263 Y17.404 E50.45371
G0 F9000 X31.828 Y17.404
G1 F1800 X35.745 Y21.320 E50.73004
G0 F9000 X36.145 Y21.154
G1 F1800 X32.394 Y17.404 E50.99466
G0 F9000 X32.960 Y17.404
G1 F1800 X36.545 Y20.989 E51.24760
G0 F9000 X37.021 Y20.899
G1 F1800 X33.526 Y17.404 E51.49419
G0 F9000 X34.091 Y17.404
G1 F1800 X37.521 Y20.834 E51.73620
G0 F9000 X38.076 Y20.823
G1 F1800 X34.657 Y17.404 E51.97743
G0 F9000 X35.223 Y17.404
G1 F1800 X38.642 Y20.823 E52.21866
G0 F9000 X39.208 Y20.823
G1 F1800 X35.788 Y17.404 E52.45992
G0 F9000 X36.354 Y17.404
G1 F1800 X39.774 Y20.824 E52.70122
G0 F9000 X40.340 Y20.824
G1 F1800 X36.920 Y17.404 E52.94252
G0 F9000 X37.485 Y17.404
G1 F1800 X40.906 Y20.824 E53.18385
G0 F9000 X41.472 Y20.825
G1 F1800 X38.051 Y17.404 E53.42522
G0 F9000 X38.617 Y17.404
G1 F1800 X42.038 Y20.825 E53.66659
G0 F9000 X42.603 Y20.825
G1 F1800 X39.182 Y17.404 E53.90796
G0 F9000 X39.748 Y17.404
G1 F1800 X43.169 Y20.825 E54.14933
G0 F9000 X43.735 Y20.825
G1 F1800 X40.314 Y17.404 E54.39070
G0 F9000 X40.879 Y17.404
G1 F1800 X44.301 Y20.825 E54.63211
G0 F9000 X44.867 Y20.825
G1 F1800 X41.445 Y17.404 E54.87351
G0 F9000 X42.011 Y17.404
G1 F1800 X45.433 Y20.826 E55.11495
G0 F9000 X45.999 Y20.826
G1 F1800 X42.577 Y17.404 E55.35640
G0 F9000 X43.142 Y17.404
G1 F1800 X46.565 Y20.826 E55.59787
G0 F9000 X47.130 Y20.826
G1 F1800 X43.708 Y17.404 E55.83931
G0 F9000 X44.274 Y17.404
G1 F1800 X47.697 Y20.827 E56.08082
G0 F9000 X48.262 Y20.827
G1 F1800 X44.839 Y17.404 E56.32233
G0 F9000 X45.405 Y17.404
G1 F1800 X48.828 Y20.827 E56.56385
G0 F9000 X49.394 Y20.827
G1 F1800 X45.971 Y17.404 E56.80536
G0 F9000 X46.536 Y17.404
G1 F1800 X49.960 Y20.827 E57.04690
G0 F9000 X50.526 Y20.827
G1 F1800 X47.102 Y17.404 E57.28845
G0 F9000 X47.668 Y17.404
G1 F1800 X51.092 Y20.828 E57.53003
G0 F9000 X51.658 Y20.828
G1 F1800 X48.233 Y17.404 E57.77165
G0 F9000 X48.799 Y17.404
G1 F1800 X52.224 Y20.828 E58.01326
G0 F9000 X52.789 Y20.828
G1 F1800 X49.365 Y17.404 E58.25485
G0 F9000 X49.930 Y17.404
G1 F1800 X53.356 Y20.829 E58.49653
G0 F9000 X53.921 Y20.829
G1 F1800 X50.496 Y17.404 E58.73819
G0 F9000 X51.062 Y17.404
G1 F1800 X54.487 Y20.829 E58.97984
G0 F9000 X55.053 Y20.829
G1 F1800 X51.627 Y17.404 E59.22153
G0 F9000 X52.193 Y17.404
G1 F1800 X55.619 Y20.829 E59.46321
G0 F9000 X56.185 Y20.829
G1 F1800 X52.759 Y17.404 E59.70490
G0 F9000 X53.325 Y17.404
G1 F1800 X56.751 Y20.830 E59.94662
G0 F9000 X57.317 Y20.830
G1 F1800 X53.890 Y17.404 E60.18838
G0 F9000 X54.456 Y17.404
G1 F1800 X57.883 Y20.830 E60.43014
G0 F9000 X58.448 Y20.830
G1 F1800 X55.022 Y17.404 E60.67186
G0 F9000 X55.587 Y17.404
G1 F1800 X59.015 Y20.831 E60.91369
G0 F9000 X59.580 Y20.831
G1 F1800 X56.153 Y17.404 E61.15548
G0 F9000 X56.719 Y17.404
G1 F1800 X60.146 Y20.831 E61.39728
G0 F9000 X60.712 Y20.832
G1 F1800 X57.284 Y17.404 E61.63914
G0 F9000 X57.850 Y17.404
G1 F1800 X61.278 Y20.832 E61.88101
G0 F9000 X61.844 Y20.832
G1 F1800 X58.416 Y17.404 E62.12287
G0 F9000 X58.981 Y17.404
G1 F1800 X62.409 Y20.832 E62.36473
G0 F9000 X62.976 Y20.832
G1 F1800 X59.547 Y17.404 E62.60663
G0 F9000 X60.113 Y17.404
G1 F1800 X63.542 Y20.832 E62.84853
G0 F9000 X64.107 Y20.832
G1 F1800 X60.678 Y17.404 E63.09043
G0 F9000 X61.244 Y17.404
G1 F1800 X64.674 Y20.833 E63.33240
G0 F9000 X65.239 Y20.833
G1 F1800 X61.810 Y17.404 E63.57434
G0 F9000 X62.376 Y17.404
G1 F1800 X65.805 Y20.833 E63.81627
G0 F9000 X66.371 Y20.834
G1 F1800 X62.941 Y17.404 E64.05828
G0 F9000 X63.507 Y17.404
G1 F1800 X66.937 Y20.834 E64.30028
G0 F9000 X67.503 Y20.834
G1 F1800 X64.073 Y17.404 E64.54229
G0 F9000 X64.638 Y17.404
G1 F1800 X68.068 Y20.834 E64.78429
G0 F9000 X68.710 Y20.909
G1 F1800 X65.204 Y17.404 E65.03162
G0 F9000 X65.770 Y17.404
G1 F1800 X69.523 Y21.157 E65.29642
G0 F9000 X71.612 Y23.246
G1 F1800 X72.476 Y24.110 E65.35738
G0 F9000 X72.476 Y24.675
G1 F1800 X71.860 Y24.060 E65.40080
G0 F9000 X71.945 Y24.711
G1 F1800 X72.476 Y25.241 E65.43823
G0 F9000 X72.476 Y25.807
G1 F1800 X71.892 Y25.223 E65.47944
G0 F9000 X71.827 Y25.723
G1 F1800 X72.476 Y26.372 E65.52523
G0 F9000 X72.476 Y26.938
G1 F1800 X71.673 Y26.135 E65.58188
G0 F9000 X71.506 Y26.534
G1 F1800 X72.476 Y27.504 E65.65032
G0 F9000 X72.476 Y28.070
G1 F1800 X71.300 Y26.894 E65.73330
G0 F9000 X71.055 Y27.214
G1 F1800 X72.476 Y28.635 E65.83355
G0 F9000 X72.476 Y29.201
G1 F1800 X70.809 Y27.534 E65.95117
G0 F9000 X70.495 Y27.785
G1 F1800 X72.476 Y29.767 E66.09098
G0 F9000 X72.476 Y30.332
G1 F1800 X70.174 Y28.031 E66.25336
G0 F9000 X69.824 Y28.246
G1 F1800 X72.476 Y30.898 E66.44047
G0 F9000 X72.476 Y31.464
G1 F1800 X69.425 Y28.412 E66.65577
G0 F9000 X69.024 Y28.577
G1 F1800 X72.369 Y31.923 E66.89182
G0 F9000 X71.803 Y31.923
G1 F1800 X68.524 Y28.643 E67.12320
G0 F9000 X68.018 Y28.703
G1 F1800 X71.238 Y31.923 E67.35039
G0 F9000 X70.672 Y31.923
G1 F1800 X67.453 Y28.703 E67.57754
G0 F9000 X66.887 Y28.703
G1 F1800 X70.106 Y31.923 E67.80470
G0 F9000 X69.541 Y31.923
G1 F1800 X66.321 Y28.703 E68.03188
G0 F9000 X65.755 Y28.703
G1 F1800 X68.975 Y31.923 E68.25907
G0 F9000 X68.409 Y31.923
G1 F1800 X65.190 Y28.703 E68.48623
G0 F9000 X64.624 Y28.703
G1 F1800 X67.844 Y31.923 E68.71341
G0 F9000 X67.278 Y31.923
G1 F1800 X64.058 Y28.703 E68.94060
G0 F9000 X63.493 Y28.703
G1 F1800 X66.712 Y31.923 E69.16776
G0 F9000 X66.147 Y31.923
G1 F1800 X62.927 Y28.703 E69.39494
G0 F9000 X62.361 Y28.703
G1 F1800 X65.581 Y31.923 E69.62213
G0 F9000 X65.015 Y31.923
G1 F1800 X61.796 Y28.703 E69.84929
G0 F9000 X61.230 Y28.703
G1 F1800 X64.449 Y31.923 E70.07644
G0 F9000 X63.884 Y31.923
G1 F1800 X60.664 Y28.703 E70.30363
G0 F9000 X60.099 Y28.703
G1 F1800 X63.318 Y31.923 E70.53078
G0 F9000 X62.752 Y31.923
G1 F1800 X59.533 Y28.703 E70.75793
G0 F9000 X58.967 Y28.703
G1 F1800 X62.187 Y31.923 E70.98512
G0 F9000 X61.621 Y31.923
G1 F1800 X58.402 Y28.703 E71.21228
G0 F9000 X57.836 Y28.703
G1 F1800 X61.055 Y31.923 E71.43943
G0 F9000 X60.490 Y31.923
G1 F1800 X57.270 Y28.703 E71.66662
G0 F9000 X56.705 Y28.703
G1 F1800 X59.924 Y31.923 E71.89377
G0 F9000 X59.358 Y31.923
G1 F1800 X56.139 Y28.703 E72.12092
G0 F9000 X55.573 Y28.703
G1 F1800 X58.793 Y31.923 E72.34811
G0 F9000 X58.227 Y31.923
G1 F1800 X55.007 Y28.703 E72.57530
G0 F9000 X54.442 Y28.703
G1 F1800 X57.661 Y31.923 E72.80245
G0 F9000 X57.096 Y31.923
G1 F1800 X53.876 Y28.703 E73.02964
G0 F9000 X53.310 Y28.703
G1 F1800 X56.530 Y31.923 E73.25683
G0 F9000 X55.964 Y31.923
G1 F1800 X52.745 Y28.703 E73.48398
G0 F9000 X52.179 Y28.703
G1 F1800 X55.398 Y31.923 E73.71114
G0 F9000 X54.833 Y31.923
G1 F1800 X51.613 Y28.703 E73.93832
G0 F9000 X51.048 Y28.703
G1 F1800 X54.267 Y31.923 E74.16548
G0 F9000 X53.701 Y31.923
G1 F1800 X50.482 Y28.703 E74.39263
G0 F9000 X49.916 Y28.703
G1 F1800 X53.136 Y31.923 E74.61982
G0 F9000 X52.570 Y31.923
G1 F1800 X49.351 Y28.703 E74.84697
G0 F9000 X48.785 Y28.703
G1 F1800 X52.004 Y31.923 E75.07413
G0 F9000 X51.439 Y31.923
G1 F1800 X48.219 Y28.703 E75.30131
G0 F9000 X47.654 Y28.703
G1 F1800 X50.873 Y31.923 E75.52847
G0 F9000 X50.307 Y31.923
G1 F1800 X47.088 Y28.703 E75.75562
G0 F9000 X46.522 Y28.703
G1 F1800 X49.742 Y31.923 E75.98281
G0 F9000 X49.176 Y31.923
G1 F1800 X45.956 Y28.703 E76.21000
G0 F9000 X45.391 Y28.703
G1 F1800 X48.610 Y31.923 E76.43715
G0 F9000 X48.045 Y31.923
G1 F1800 X44.825 Y28.703 E76.66434
G0 F9000 X44.259 Y28.703
G1 F1800 X47.479 Y31.923 E76.89153
G0 F9000 X46.913 Y31.923
G1 F1800 X43.694 Y28.703 E77.11868
G0 F9000 X43.128 Y28.703
G1 F1800 X46.348 Y31.923 E77.34587
G0 F9000 X45.782 Y31.923
G1 F1800 X42.562 Y28.703 E77.57306
G0 F9000 X41.997 Y28.703
G1 F1800 X45.216 Y31.923 E77.80021
G0 F9000 X44.650 Y31.923
G1 F1800 X41.431 Y28.703 E78.02736
G0 F9000 X40.865 Y28.703
G1 F1800 X44.085 Y31.923 E78.25455
G0 F9000 X43.519 Y31.923
G1 F1800 X40.300 Y28.703 E78.48170
G0 F9000 X36.677 Y28.438
G0 X34.972 Y27.453
G0 X33.986 Y25.747
G0 X33.986 Y23.781
G0 X35.100 Y21.975
G0 X36.676 Y21.090
G0 X66.335 Y17.404
G1 F1800 X72.476 Y23.544 E78.91495
G0 F9000 X72.476 Y22.978
G1 F1800 X66.901 Y17.404 E79.30826
G0 F9000 X67.467 Y17.404
G1 F1800 X72.476 Y22.413 E79.66167
G0 F9000 X72.476 Y21.847
G1 F1800 X68.032 Y17.404 E79.97519
G0 F9000 X68.598 Y17.404
G1 F1800 X72.476 Y21.281 E80.24876
G0 F9000 X72.476 Y20.716
G1 F1800 X69.164 Y17.404 E80.48244
G0 F9000 X69.729 Y17.404
G1 F1800 X72.476 Y20.150 E80.67622
G0 F9000 X72.476 Y19.584
G1 F1800 X70.295 Y17.404 E80.83007
G0 F9000 X70.861 Y17.404
G1 F1800 X72.476 Y19.019 E80.94402
G0 F9000 X72.476 Y18.453
G1 F1800 X71.426 Y17.404 E81.01807
G0 F9000 X71.992 Y17.404
G1 F1800 X72.476 Y17.887 E81.05218
;LAYER:1
M106 S63
G0 F9000 X72.617 Y17.264 Z0.500
;TYPE:WALL-INNER
G1 F2220 X72.617 Y32.064 E81.54443
G1 X23.817 Y32.064 E83.16752
G1 X23.817 Y17.264 E83.65977
G1 X72.617 Y17.264 E85.28287
G0 F9000 X69.910 Y21.469
G1 F2220 X69.219 Y21.183 E85.30774
G1 X68.991 Y21.088 E85.31596
G1 X68.046 Y20.964 E85.34766
G1 X37.621 Y20.964 E86.35960
G1 X36.675 Y21.088 E86.39133
G1 X35.986 Y21.374 E86.41614
G1 X35.758 Y21.469 E86.42436
G1 X34.970 Y22.073 E86.45738
G1 X34.365 Y22.861 E86.49042
G1 X33.984 Y23.779 E86.52348
G1 X33.855 Y24.764 E86.55652
G1 X33.984 Y25.749 E86.58956
G1 X34.365 Y26.667 E86.62262
G1 X34.970 Y27.455 E86.65566
G1 X35.757 Y28.059 E86.68866
G1 X36.675 Y28.440 E86.72172
G1 X37.621 Y28.564 E86.75345
G1 X68.046 Y28.564 E87.76539
G1 X68.992 Y28.440 E87.79712
G1 X69.681 Y28.154 E87.82194
G1 X69.909 Y28.059 E87.83015
G1 X70.697 Y27.455 E87.86317
G1 X71.302 Y26.667 E87.89622
G1 X71.588 Y25.976 E87.92109
G1 X71.683 Y25.748 E87.92930
G1 X71.812 Y24.764 E87.96231
G1 X71.683 Y23.779 E87.99535
G1 X71.397 Y23.090 E88.02017
G1 X71.302 Y22.862 E88.02838
G1 X70.697 Y22.073 E88.06145
G1 X69.910 Y21.469 E88.09445
G0 F9000 X69.708 Y21.818
;TYPE:WALL-OUTER
G1 F1980 X68.887 Y21.478 E88.12400
G1 X68.020 Y21.364 E88.15309
G1 X37.647 Y21.364 E89.16330
G1 X36.780 Y21.478 E89.19238
G1 X35.959 Y21.818 E89.22194
G1 X35.255 Y22.358 E89.25145
G1 X34.714 Y23.063 E89.28100
G1 X34.374 Y23.884 E89.31056
G1 X34.258 Y24.764 E89.34008
G1 X34.374 Y25.644 E89.36960
