;Generated with Cura_SteamEngine 15.01
; Default start code
G28 ; Home extruder
G1 Z15 F100
M107 ; Turn off fan
G90 ; Absolute positioning
M82 ; Extruder in absolute mode
; Activate all used extruder
M104 T0 S220
G92 E0 ; Reset extruder position
; Wait for all used extruders to reach temperature
M109 T0 S220
;Layer count: 30
;LAYER:0
M107
G0 F9000 X25.698 Y17.247 Z0.300
G0 X25.380 Y17.823
;TYPE:SKIRT
G1 F1800 X25.698 Y17.247 E0.03283
G1 X26.967 Y15.896 E0.12530
G1 X27.414 Y15.419 E0.15791
G1 X28.986 Y14.421 E0.25081
G1 X28.986 Y14.422 E0.25086
G1 X29.536 Y14.070 E0.28344
G1 X31.294 Y13.501 E0.37562
G1 X31.924 Y13.294 E0.40871
G1 X33.785 Y13.177 E0.50174
G1 X34.433 Y13.134 E0.53414
G1 X36.275 Y13.485 E0.62769
G1 X36.919 Y13.611 E0.66043
G1 X38.581 Y14.393 E0.75206
G1 X39.181 Y14.673 E0.78510
G1 X41.124 Y16.281 E0.91092
G1 X42.211 Y17.778 E1.00322
G1 X42.600 Y18.311 E1.03614
G1 X43.280 Y20.029 E1.12832
G1 X43.527 Y20.646 E1.16148
G1 X43.760 Y22.497 E1.25456
G1 X43.759 Y22.497 E1.25461
G1 X43.842 Y23.146 E1.28725
G1 X43.609 Y24.990 E1.37998
G1 X43.527 Y25.642 E1.41276
G1 X42.841 Y27.376 E1.50580
G1 X42.597 Y27.985 E1.53853
G1 X41.507 Y29.487 E1.63112
G1 X41.119 Y30.018 E1.66393
G1 X39.691 Y31.199 E1.75638
G1 X39.186 Y31.617 E1.78908
G1 X37.516 Y32.402 E1.88114
G1 X37.516 Y32.403 E1.88119
G1 X36.914 Y32.688 E1.91442
G1 X35.080 Y33.036 E2.00756
G1 X34.452 Y33.159 E2.03948
G1 X32.581 Y33.043 E2.13301
G1 X31.924 Y32.999 E2.16586
G1 X30.157 Y32.425 E2.25855
G1 X29.534 Y32.221 E2.29125
G1 X27.966 Y31.226 E2.38390
G1 X27.414 Y30.874 E2.41656
G1 X26.142 Y29.521 E2.50921
G1 X25.692 Y29.040 E2.54207
G1 X24.799 Y27.413 E2.63467
G1 X24.484 Y26.844 E2.66711
G1 X24.021 Y25.038 E2.76013
G1 X23.858 Y24.411 E2.79245
G1 X23.858 Y21.890 E2.91822
G1 X24.321 Y20.084 E3.01124
G1 X24.486 Y19.450 E3.04392
G1 X25.380 Y17.823 E3.13654
G0 F9000 X25.730 Y18.016
G1 F1800 X26.024 Y17.485 E3.16682
G1 X27.259 Y16.169 E3.25686
G1 X27.671 Y15.729 E3.28694
G1 X29.201 Y14.759 E3.37731
G1 X29.708 Y14.435 E3.40733
G1 X31.433 Y13.876 E3.49780
G1 X32.000 Y13.690 E3.52757
G1 X33.810 Y13.576 E3.61805
G1 X34.408 Y13.536 E3.64795
G1 X36.199 Y13.877 E3.73891
G1 X36.794 Y13.994 E3.76916
G1 X38.412 Y14.756 E3.85839
G1 X38.412 Y14.755 E3.85844
G1 X38.966 Y15.014 E3.88895
G1 X40.830 Y16.557 E4.00967
G1 X41.887 Y18.013 E4.09944
G1 X42.247 Y18.506 E4.12989
G1 X42.908 Y20.178 E4.21959
G1 X42.909 Y20.178 E4.21964
G1 X43.136 Y20.747 E4.25020
G1 X43.363 Y22.547 E4.34072
G1 X43.362 Y22.547 E4.34077
G1 X43.439 Y23.146 E4.37090
G1 X43.213 Y24.940 E4.46111
G1 X43.136 Y25.541 E4.49134
G1 X42.469 Y27.229 E4.58189
G1 X42.244 Y27.791 E4.61209
G1 X41.184 Y29.251 E4.70210
G1 X40.826 Y29.742 E4.73242
G1 X39.434 Y30.892 E4.82250
G1 X38.970 Y31.277 E4.85258
G1 X37.334 Y32.046 E4.94277
G1 X36.789 Y32.305 E4.97287
G1 X35.027 Y32.639 E5.06234
G1 X34.425 Y32.757 E5.09295
G1 X32.606 Y32.644 E5.18387
G1 X32.001 Y32.603 E5.21413
G1 X30.281 Y32.045 E5.30434
G1 X29.706 Y31.856 E5.33454
G1 X28.181 Y30.889 E5.42463
G1 X27.671 Y30.563 E5.45483
G1 X26.434 Y29.247 E5.54493
G1 X26.018 Y28.804 E5.57525
G1 X25.149 Y27.220 E5.66539
G1 X24.859 Y26.696 E5.69527
G1 X24.409 Y24.939 E5.78575
G1 X24.258 Y24.360 E5.81561
G1 X24.258 Y21.941 E5.93629
G1 X24.708 Y20.184 E6.02678
G1 X24.861 Y19.599 E6.05694
G1 X25.730 Y18.016 E6.14704
G0 F9000 X26.080 Y18.209
G1 F1800 X26.349 Y17.722 E6.17479
G1 X27.550 Y16.443 E6.26233
G1 X27.928 Y16.040 E6.28989
G1 X29.408 Y15.101 E6.37734
G1 X29.880 Y14.800 E6.40527
G1 X31.544 Y14.261 E6.49253
G1 X32.076 Y14.086 E6.52047
G1 X33.835 Y13.975 E6.60840
G1 X34.384 Y13.939 E6.63585
G1 X36.123 Y14.270 E6.72417
G1 X36.668 Y14.377 E6.75188
G1 X38.251 Y15.122 E6.83916
G1 X38.750 Y15.355 E6.86664
G1 X40.536 Y16.833 E6.98230
G1 X41.564 Y18.249 E7.06959
G1 X41.893 Y18.700 E7.09745
G1 X42.537 Y20.327 E7.18474
G1 X42.746 Y20.848 E7.21275
G1 X42.966 Y22.595 E7.30060
G1 X43.035 Y23.146 E7.32830
G1 X42.816 Y24.890 E7.41599
G1 X42.746 Y25.441 E7.44370
G1 X42.097 Y27.081 E7.53170
G1 X41.891 Y27.596 E7.55937
G1 X40.860 Y29.016 E7.64692
G1 X40.532 Y29.466 E7.67470
G1 X39.180 Y30.584 E7.76222
G1 X39.179 Y30.583 E7.76230
G1 X38.754 Y30.936 E7.78986
G1 X37.173 Y31.680 E7.87703
G1 X36.664 Y31.921 E7.90513
G1 X34.931 Y32.250 E7.99313
G1 X34.399 Y32.354 E8.02018
G1 X32.632 Y32.244 E8.10850
G1 X32.077 Y32.208 E8.13625
G1 X30.405 Y31.665 E8.22396
G1 X29.878 Y31.492 E8.25163
G1 X28.396 Y30.551 E8.33921
G1 X27.928 Y30.253 E8.36689
G1 X26.725 Y28.974 E8.45449
G1 X26.345 Y28.567 E8.48227
G1 X25.500 Y27.028 E8.56986
G1 X25.234 Y26.547 E8.59729
G1 X24.796 Y24.839 E8.68526
G1 X24.658 Y24.309 E8.71258
G1 X24.658 Y21.991 E8.82823
G1 X25.096 Y20.284 E8.91615
G1 X25.235 Y19.748 E8.94377
G1 X26.080 Y18.209 E9.03137
G1 F2400 E5.03137
G0 F9000 X29.444 Y19.977
;TYPE:WALL-INNER
G1 F2400 E9.03137
G1 F1800 X30.371 Y18.990 E9.09892
G1 X31.451 Y18.305 E9.16273
G1 X31.513 Y18.265 E9.16641
G1 X32.729 Y17.871 E9.23018
G1 X32.799 Y17.848 E9.23385
G1 X34.075 Y17.768 E9.29764
G1 X34.153 Y17.763 E9.30154
G1 X35.401 Y18.000 E9.36491
G1 X35.477 Y18.016 E9.36879
G1 X36.633 Y18.560 E9.43253
G1 X36.704 Y18.593 E9.43644
G1 X37.740 Y19.451 E9.50355
G1 X38.494 Y20.488 E9.56751
G1 X38.538 Y20.549 E9.57126
G1 X39.009 Y21.737 E9.63502
G1 X39.037 Y21.807 E9.63878
G1 X39.206 Y23.147 E9.70617
G1 X39.037 Y24.487 E9.77355
G1 X38.567 Y25.675 E9.83729
G1 X38.540 Y25.743 E9.84094
G1 X37.788 Y26.779 E9.90481
G1 X37.741 Y26.843 E9.90877
G1 X36.703 Y27.702 E9.97599
G1 X35.545 Y28.247 E10.03984
G1 X35.476 Y28.279 E10.04363
G1 X34.221 Y28.517 E10.10736
G1 X34.148 Y28.531 E10.11107
G1 X32.877 Y28.452 E10.17460
G1 X32.800 Y28.447 E10.17845
G1 X31.584 Y28.052 E10.24224
G1 X31.515 Y28.030 E10.24585
G1 X30.434 Y27.344 E10.30973
G1 X30.371 Y27.303 E10.31348
G1 X29.496 Y26.373 E10.37718
G1 X29.446 Y26.320 E10.38082
G1 X29.180 Y25.834 E10.40846
G1 X30.024 Y26.934 E10.47763
G1 X31.132 Y27.785 E10.54733
G1 X32.235 Y28.241 E10.60688
G1 X32.424 Y28.320 E10.61710
G1 X33.609 Y28.475 E10.67672
G1 X33.808 Y28.502 E10.68674
G1 X34.997 Y28.347 E10.74656
G1 X35.198 Y28.319 E10.75668
G1 X36.300 Y27.863 E10.81618
G1 X36.488 Y27.785 E10.82634
G1 X37.597 Y26.934 E10.89608
G1 X38.448 Y25.825 E10.96582
G1 X38.905 Y24.723 E11.02534
G1 X38.984 Y24.534 E11.03556
G1 X39.137 Y23.352 E11.09502
G1 X39.165 Y23.149 E11.10525
G1 X39.011 Y21.961 E11.16501
G1 X38.983 Y21.760 E11.17514
G1 X38.526 Y20.657 E11.23470
G1 X38.448 Y20.469 E11.24486
G1 X37.597 Y19.361 E11.31456
G1 X36.488 Y18.510 E11.38430
G1 X35.386 Y18.053 E11.44382
G1 X35.197 Y17.974 E11.45404
G1 X34.011 Y17.819 E11.51371
G1 X33.812 Y17.792 E11.52373
G1 X32.624 Y17.947 E11.58350
G1 X32.423 Y17.975 E11.59363
G1 X31.320 Y18.432 E11.65319
G1 X31.132 Y18.510 E11.66335
G1 X30.024 Y19.361 E11.73305
G1 X29.179 Y20.462 E11.80229
G1 X29.444 Y19.977 E11.82986
G0 F9000 X28.775 Y21.236
G1 F1800 X28.794 Y21.162 E11.83367
G1 X29.168 Y20.481 E11.87243
G1 X28.716 Y21.572 E11.93135
G1 X28.644 Y21.743 E11.94061
G1 X28.775 Y21.236 E11.96673
G0 F9000 X28.458 Y22.470
G1 F1800 X28.634 Y21.784 E12.00207
G1 X28.483 Y22.942 E12.06033
G1 X28.458 Y23.123 E12.06944
G1 X28.458 Y22.470 E12.10202
G0 F9000 X28.477 Y23.895
G1 F1800 X28.458 Y23.822 E12.10579
G1 X28.458 Y23.168 E12.13841
G1 X28.610 Y24.334 E12.19708
G1 X28.634 Y24.509 E12.20589
G1 X28.477 Y23.895 E12.23751
G0 F9000 X28.831 Y25.198
G1 F1800 X28.794 Y25.131 E12.24133
G1 X28.646 Y24.556 E12.27095
G1 X29.095 Y25.637 E12.32935
G1 X29.167 Y25.811 E12.33874
G1 X28.831 Y25.198 E12.37362
G0 F9000 X28.421 Y25.285
;TYPE:WALL-OUTER
G1 F1800 X28.058 Y23.872 E12.44640
G1 X28.058 Y22.422 E12.51874
G1 X28.420 Y21.010 E12.59147
G1 X29.118 Y19.741 E12.66372
G1 X30.115 Y18.679 E12.73639
G1 X31.342 Y17.900 E12.80890
G1 X32.722 Y17.453 E12.88127
G1 X34.178 Y17.360 E12.95406
G1 X35.478 Y17.608 E13.02009
G1 X35.600 Y17.632 E13.02629
G1 X36.918 Y18.252 E13.09896
G1 X38.035 Y19.176 E13.17128
G1 X38.892 Y20.355 E13.24400
G1 X39.427 Y21.707 E13.31654
G1 X39.609 Y23.146 E13.38891
G1 X39.427 Y24.587 E13.46137
G1 X38.892 Y25.940 E13.53396
G1 X38.035 Y27.119 E13.60667
G1 X36.918 Y28.042 E13.67897
G1 X35.600 Y28.663 E13.75165
G1 X34.297 Y28.910 E13.81782
G1 X34.177 Y28.934 E13.82392
G1 X32.722 Y28.842 E13.89666
G1 X31.342 Y28.394 E13.96904
G1 X30.115 Y27.615 E14.04156
G1 X29.118 Y26.554 E14.11419
G1 X28.421 Y25.285 E14.18642
G0 F9000 X29.007 Y24.281
G1 F1800 X29.027 Y24.430 E14.19392
G1 X29.522 Y25.623 E14.25836
G1 X30.309 Y26.649 E14.32287
G1 X31.334 Y27.436 E14.38735
G1 X32.529 Y27.930 E14.45186
G1 X33.660 Y28.078 E14.50877
G1 X33.809 Y28.099 E14.51627
G1 X34.944 Y27.950 E14.57338
G1 X35.093 Y27.930 E14.58088
G1 X36.286 Y27.436 E14.64530
G1 X37.312 Y26.649 E14.70982
G1 X38.099 Y25.623 E14.77433
G1 X38.594 Y24.429 E14.83881
G1 X38.741 Y23.297 E14.89576
G1 X38.762 Y23.148 E14.90327
G1 X38.614 Y22.014 E14.96033
G1 X38.594 Y21.865 E14.96783
G1 X38.099 Y20.671 E15.03231
G1 X37.312 Y19.646 E15.09678
G1 X36.286 Y18.859 E15.16129
G1 X35.092 Y18.364 E15.22578
G1 X33.960 Y18.216 E15.28274
G1 X33.811 Y18.195 E15.29024
G1 X32.677 Y18.344 E15.34731
G1 X32.528 Y18.364 E15.35481
G1 X31.334 Y18.859 E15.41929
G1 X30.309 Y19.646 E15.48376
G1 X29.522 Y20.671 E15.54824
G1 X29.027 Y21.866 E15.61277
G1 X28.879 Y22.997 E15.66967
G1 X28.858 Y23.146 E15.67718
G1 X29.007 Y24.281 E15.73429
;LAYER:1
M106 S91
G0 F9000 X28.594 Y24.210 Z0.500
;TYPE:WALL-INNER
G1 F1680 X28.635 Y24.515 E15.74453
G1 X28.458 Y23.824 E15.76825
G1 X28.458 Y23.169 E15.79004
G1 X28.594 Y24.210 E15.82496
G0 F9000 X28.794 Y25.132
G1 F1680 X28.644 Y24.548 E15.84501
G1 X29.169 Y25.815 E15.89062
G1 X28.794 Y25.132 E15.91654
G0 F9000 X29.599 Y26.483
G1 F1680 X29.446 Y26.320 E15.92398
G1 X29.178 Y25.831 E15.94252
G1 X30.024 Y26.934 E15.98876
G1 X31.132 Y27.785 E16.03522
G1 X32.425 Y28.320 E16.08177
G1 X33.484 Y28.459 E16.11729
G1 X33.809 Y28.502 E16.12819
G1 X34.873 Y28.363 E16.16388
G1 X35.197 Y28.319 E16.17476
G1 X36.488 Y27.785 E16.22123
G1 X37.597 Y26.934 E16.26772
G1 X38.448 Y25.825 E16.31421
G1 X38.984 Y24.533 E16.36074
G1 X39.122 Y23.473 E16.39629
G1 X39.165 Y23.148 E16.40719
G1 X39.027 Y22.085 E16.44285
G1 X38.983 Y21.761 E16.45372
G1 X38.448 Y20.469 E16.50023
G1 X37.597 Y19.361 E16.54670
G1 X36.488 Y18.510 E16.59319
G1 X35.197 Y17.974 E16.63969
G1 X34.136 Y17.835 E16.67528
G1 X33.811 Y17.792 E16.68618
G1 X32.748 Y17.931 E16.72184
G1 X32.424 Y17.975 E16.73271
G1 X31.132 Y18.510 E16.77922
G1 X30.024 Y19.361 E16.82569
G1 X29.180 Y20.460 E16.87178
G1 X29.446 Y19.976 E16.89015
G1 X30.218 Y19.154 E16.92765
G1 X30.371 Y18.990 E16.93511
G1 X31.324 Y18.386 E16.97264
G1 X31.514 Y18.265 E16.98013
G1 X32.799 Y17.848 E17.02507
G1 X34.152 Y17.763 E17.07016
G1 X35.255 Y17.973 E17.10750
G1 X35.476 Y18.016 E17.11499
G1 X36.703 Y18.592 E17.16007
G1 X37.742 Y19.453 E17.20495
G1 X38.537 Y20.547 E17.24993
G1 X39.037 Y21.807 E17.29502
G1 X39.206 Y23.147 E17.33994
G1 X39.037 Y24.487 E17.38486
G1 X38.537 Y25.748 E17.42998
G1 X37.744 Y26.840 E17.47487
G1 X36.700 Y27.703 E17.51992
G1 X35.476 Y28.279 E17.56491
G1 X34.370 Y28.489 E17.60235
G1 X34.150 Y28.531 E17.60980
G1 X32.801 Y28.447 E17.65476
G1 X31.512 Y28.028 E17.69984
G1 X30.561 Y27.425 E17.73729
G1 X30.371 Y27.303 E17.74480
G1 X29.599 Y26.483 E17.78226
G0 F9000 X28.594 Y24.210
G0 X28.498 Y22.821
G1 F1680 X28.458 Y23.123 E17.79239
G1 X28.458 Y22.470 E17.81411
G1 X28.634 Y21.786 E17.83760
G1 X28.498 Y22.821 E17.87232
G0 F9000 X28.794 Y21.163
G1 F1680 X29.167 Y20.483 E17.89812
G1 X28.645 Y21.741 E17.94342
G1 X28.794 Y21.163 E17.96327
G0 F9000 X28.420 Y21.010
;TYPE:WALL-OUTER
G1 F1500 X29.118 Y19.741 E18.01144
G1 X30.115 Y18.679 E18.05989
G1 X31.342 Y17.900 E18.10823
G1 X32.722 Y17.453 E18.15648
G1 X34.178 Y17.360 E18.20500
G1 X35.600 Y17.632 E18.25316
G1 X36.918 Y18.252 E18.30160
G1 X38.035 Y19.176 E18.34982
G1 X38.892 Y20.355 E18.39830
G1 X39.427 Y21.707 E18.44666
G1 X39.609 Y23.147 E18.49493
G1 X39.427 Y24.587 E18.54321
G1 X38.892 Y25.940 E18.59160
G1 X38.035 Y27.119 E18.64008
G1 X36.918 Y28.042 E18.68827
G1 X35.600 Y28.663 E18.73673
G1 X34.178 Y28.934 E18.78488
G1 X32.722 Y28.842 E18.83340
G1 X31.342 Y28.394 E18.88166
G1 X30.115 Y27.615 E18.93000
G1 X29.118 Y26.554 E18.97842
G1 X28.421 Y25.285 E19.02658
G1 X28.058 Y23.872 E19.07510
G1 X28.058 Y22.422 E19.12333
G1 X28.420 Y21.010 E19.17181
G0 F9000 X29.027 Y21.866
G1 F1500 X28.858 Y23.147 E19.21478
G1 X29.027 Y24.429 E19.25779
G1 X29.522 Y25.623 E19.30078
G1 X30.309 Y26.649 E19.34379
G1 X31.334 Y27.436 E19.38677
G1 X32.529 Y27.930 E19.42978
G1 X33.810 Y28.099 E19.47276
G1 X35.092 Y27.930 E19.51576
G1 X36.286 Y27.436 E19.55874
G1 X37.312 Y26.649 E19.60175
G1 X38.099 Y25.623 E19.64476
G1 X38.594 Y24.429 E19.68775
G1 X38.762 Y23.147 E19.73075
G1 X38.594 Y21.866 E19.77372
G1 X38.099 Y20.671 E19.81674
G1 X37.312 Y19.646 E19.85972
G1 X36.286 Y18.859 E19.90273
G1 X35.092 Y18.364 E19.94572
G1 X33.810 Y18.195 E19.98873
G1 X32.529 Y18.364 E20.03171
G1 X31.334 Y18.859 E20.07473
G1 X30.309 Y19.646 E20.11771
G1 X29.522 Y20.671 E20.16069
G1 X29.027 Y21.866 E20.20371
;LAYER:2
M106 S211
G0 F9000 X28.458 Y22.470 Z0.700
;TYPE:WALL-INNER
G1 F1800 X28.635 Y21.780 E20.22740
G1 X28.458 Y23.124 E20.27249
G1 X28.458 Y22.470 E20.29424
G0 F9000 X28.794 Y21.162
G1 F1800 X29.167 Y20.483 E20.32001
G1 X28.643 Y21.748 E20.36555
G1 X28.794 Y21.162 E20.38568
G0 F9000 X29.446 Y19.976
G1 F1800 X30.021 Y19.365 E20.41358
G1 X29.180 Y20.460 E20.45951
G1 X29.446 Y19.976 E20.47787
G0 F9000 X30.372 Y18.990
G1 F1800 X31.513 Y18.266 E20.52282
G1 X32.442 Y17.965 E20.55530
G1 X32.798 Y17.848 E20.56776
G1 X34.152 Y17.763 E20.61289
G1 X35.476 Y18.015 E20.65771
G1 X36.703 Y18.592 E20.70281
G1 X37.742 Y19.453 E20.74769
G1 X38.537 Y20.547 E20.79267
G1 X39.037 Y21.807 E20.83776
G1 X39.158 Y22.774 E20.87017
G1 X39.205 Y23.148 E20.88271
G1 X39.084 Y24.115 E20.91512
G1 X39.037 Y24.487 E20.92759
G1 X38.677 Y25.396 E20.96011
G1 X38.537 Y25.749 E20.97274
G1 X37.744 Y26.840 E21.01760
G1 X36.700 Y27.703 E21.06265
G1 X35.476 Y28.279 E21.10764
G1 X34.151 Y28.531 E21.15250
G1 X33.176 Y28.471 E21.18499
G1 X32.800 Y28.447 E21.19753
G1 X31.513 Y28.028 E21.24254
G1 X30.371 Y27.304 E21.28752
G1 X29.446 Y26.319 E21.33246
G1 X29.178 Y25.831 E21.35098
G1 X30.024 Y26.934 E21.39721
G1 X31.133 Y27.785 E21.44370
G1 X32.008 Y28.147 E21.47520
G1 X32.424 Y28.320 E21.49018
G1 X33.810 Y28.502 E21.53668
G1 X35.196 Y28.320 E21.58317
G1 X36.071 Y27.958 E21.61467
G1 X36.488 Y27.785 E21.62968
G1 X37.597 Y26.934 E21.67618
G1 X38.448 Y25.825 E21.72267
G1 X38.984 Y24.533 E21.76919
G1 X39.106 Y23.595 E21.80065
G1 X39.165 Y23.148 E21.81565
G1 X39.043 Y22.209 E21.84714
G1 X38.983 Y21.761 E21.86218
G1 X38.448 Y20.469 E21.90869
G1 X37.597 Y19.361 E21.95516
G1 X36.488 Y18.510 E22.00165
G1 X35.197 Y17.974 E22.04814
G1 X33.810 Y17.792 E22.09467
G1 X32.425 Y17.974 E22.14113
G1 X31.132 Y18.510 E22.18769
G1 X30.026 Y19.359 E22.23406
G1 X30.372 Y18.990 E22.25088
G0 F9000 X29.175 Y20.470
G0 X28.457 Y23.147
G0 X28.458 Y23.823
G1 F1800 X28.458 Y23.170 E22.27260
G1 X28.633 Y24.505 E22.31738
G1 X28.458 Y23.823 E22.34080
G0 F9000 X28.794 Y25.132
G1 F1800 X28.646 Y24.557 E22.36055
G1 X29.169 Y25.815 E22.40586
G1 X28.794 Y25.132 E22.43178
G0 F9000 X28.421 Y25.285
;TYPE:WALL-OUTER
G1 F1440 X28.058 Y23.872 E22.48030
G1 X28.058 Y22.422 E22.52853
G1 X28.420 Y21.010 E22.57701
G1 X29.118 Y19.741 E22.62518
G1 X30.115 Y18.679 E22.67363
G1 X31.342 Y17.900 E22.72197
G1 X32.722 Y17.453 E22.77022
G1 X34.178 Y17.360 E22.81874
G1 X35.600 Y17.632 E22.86690
G1 X36.918 Y18.252 E22.91534
G1 X38.035 Y19.176 E22.96356
G1 X38.892 Y20.355 E23.01204
