;Generated with Cura_SteamEngine 15.01
; Default start code
G28 ; Home extruder
G1 Z15 F100
M107 ; Turn off fan
G90 ; Absolute positioning
M82 ; Extruder in absolute mode
; Activate all used extruder
M104 T0 S220
G92 E0 ; Reset extruder position
; Wait for all used extruders to reach temperature
M109 T0 S220
;Layer count: 135
;LAYER:0
M107
G0 F9000 X18.626 Y7.840 Z0.300
;TYPE:SKIRT
G1 F1800 X37.026 Y7.840 E0.91798
G1 X37.026 Y35.840 E2.31491
G1 X95.026 Y35.840 E5.20854
G1 X95.026 Y54.240 E6.12652
G1 X81.971 Y54.240 E6.77783
G1 X81.972 Y65.263 E7.32777
G1 X67.571 Y65.264 E8.04624
G1 X63.574 Y65.259 E8.24565
G1 X63.574 Y54.240 E8.79539
G1 X29.669 Y54.240 E10.48692
G1 X27.638 Y54.040 E10.58874
G1 X25.533 Y53.402 E10.69847
G1 X23.594 Y52.364 E10.80820
G1 X21.895 Y50.970 E10.91784
G1 X20.500 Y49.271 E11.02752
G1 X19.464 Y47.331 E11.13724
G1 X18.826 Y45.227 E11.24693
G1 X18.626 Y43.198 E11.34865
G1 X18.626 Y7.840 E13.11267
G1 F2400 E9.11267
G0 F9000 X22.426 Y11.640
;TYPE:WALL-INNER
G1 F2400 E13.11267
G1 F1800 X33.226 Y11.640 E13.65148
G1 X33.226 Y39.640 E15.04841
G1 X91.226 Y39.640 E17.94204
G1 X91.226 Y50.440 E18.48085
G1 X29.855 Y50.440 E21.54266
G1 X28.382 Y50.295 E21.61651
G1 X26.995 Y49.874 E21.68882
G1 X25.718 Y49.191 E21.76107
G1 X24.596 Y48.269 E21.83352
G1 X23.674 Y47.147 E21.90598
G1 X22.992 Y45.870 E21.97820
G1 X22.571 Y44.483 E22.05052
G1 X22.426 Y43.011 E22.12431
G1 X22.426 Y11.640 E23.68942
G0 F9000 X22.026 Y11.240
;TYPE:WALL-OUTER
G1 F1800 X33.626 Y11.240 E24.26814
G1 X33.626 Y39.240 E25.66507
G1 X91.626 Y39.240 E28.55870
G1 X91.626 Y50.840 E29.13743
G1 X29.836 Y50.840 E32.22014
G1 X28.302 Y50.689 E32.29704
G1 X26.840 Y50.246 E32.37326
G1 X25.496 Y49.526 E32.44933
G1 X24.311 Y48.554 E32.52579
G1 X23.339 Y47.369 E32.60225
G1 X22.620 Y46.025 E32.67830
G1 X22.177 Y44.563 E32.75451
G1 X22.026 Y43.030 E32.83137
G1 X22.026 Y11.240 E34.41738
G0 F9000 X22.811 Y11.780
;TYPE:SKIN
G1 F1800 X33.086 Y22.055 E35.14233
G0 F9000 X33.086 Y22.621
G1 F1800 X22.565 Y12.100 E35.88465
G0 F9000 X22.565 Y12.665
G1 F1800 X33.086 Y23.186 E36.62696
G0 F9000 X33.086 Y23.752
G1 F1800 X22.565 Y13.231 E37.36927
G0 F9000 X22.565 Y13.797
G1 F1800 X33.086 Y24.318 E38.11159
G0 F9000 X33.086 Y24.883
G1 F1800 X22.565 Y14.362 E38.85390
G0 F9000 X22.565 Y14.928
G1 F1800 X33.086 Y25.449 E39.59621
G0 F9000 X33.086 Y26.015
G1 F1800 X22.565 Y15.494 E40.33853
G0 F9000 X22.565 Y16.059
G1 F1800 X33.086 Y26.580 E41.08084
G0 F9000 X33.086 Y27.146
G1 F1800 X22.565 Y16.625 E41.82315
G0 F9000 X22.565 Y17.191
G1 F1800 X33.086 Y27.712 E42.56547
G0 F9000 X33.086 Y28.277
G1 F1800 X22.565 Y17.756 E43.30778
G0 F9000 X22.565 Y18.322
G1 F1800 X33.086 Y28.843 E44.05009
G0 F9000 X33.086 Y29.409
G1 F1800 X22.565 Y18.888 E44.79241
G0 F9000 X22.565 Y19.453
G1 F1800 X33.086 Y29.974 E45.53472
G0 F9000 X33.086 Y30.540
G1 F1800 X22.565 Y20.019 E46.27703
G0 F9000 X22.565 Y20.585
G1 F1800 X33.086 Y31.106 E47.01935
G0 F9000 X33.086 Y31.672
G1 F1800 X22.565 Y21.150 E47.76169
G0 F9000 X22.565 Y21.716
G1 F1800 X33.086 Y32.237 E48.50401
G0 F9000 X33.086 Y32.803
G1 F1800 X22.565 Y22.282 E49.24632
G0 F9000 X22.565 Y22.848
G1 F1800 X33.086 Y33.369 E49.98863
G0 F9000 X33.086 Y33.934
G1 F1800 X22.565 Y23.413 E50.73095
G0 F9000 X22.565 Y23.979
G1 F1800 X33.086 Y34.500 E51.47326
G0 F9000 X33.086 Y35.066
G1 F1800 X22.565 Y24.545 E52.21557
G0 F9000 X22.565 Y25.110
G1 F1800 X33.086 Y35.631 E52.95789
G0 F9000 X33.086 Y36.197
G1 F1800 X22.565 Y25.676 E53.70020
G0 F9000 X22.565 Y26.242
G1 F1800 X33.086 Y36.763 E54.44251
G0 F9000 X33.086 Y37.328
G1 F1800 X22.565 Y26.807 E55.18483
G0 F9000 X22.565 Y27.373
G1 F1800 X33.086 Y37.894 E55.92714
G0 F9000 X33.086 Y38.460
G1 F1800 X22.565 Y27.939 E56.66945
G0 F9000 X22.565 Y28.504
G1 F1800 X33.086 Y39.025 E57.41177
G0 F9000 X33.086 Y39.591
G1 F1800 X22.565 Y29.070 E58.15408
G0 F9000 X22.565 Y29.636
G1 F1800 X43.228 Y50.299 E59.61197
G0 F9000 X43.793 Y50.299
G1 F1800 X33.275 Y39.780 E60.35410
G0 F9000 X33.840 Y39.780
G1 F1800 X44.359 Y50.299 E61.09628
G0 F9000 X44.925 Y50.299
G1 F1800 X34.406 Y39.780 E61.83845
G0 F9000 X34.972 Y39.780
G1 F1800 X45.491 Y50.299 E62.58062
G0 F9000 X46.056 Y50.299
G1 F1800 X35.537 Y39.780 E63.32279
G0 F9000 X36.103 Y39.780
G1 F1800 X46.622 Y50.299 E64.06497
G0 F9000 X47.188 Y50.299
G1 F1800 X36.669 Y39.780 E64.80714
G0 F9000 X37.234 Y39.780
G1 F1800 X47.753 Y50.299 E65.54931
G0 F9000 X48.319 Y50.299
G1 F1800 X37.800 Y39.780 E66.29148
G0 F9000 X38.366 Y39.780
G1 F1800 X48.885 Y50.299 E67.03366
G0 F9000 X49.450 Y50.299
G1 F1800 X38.931 Y39.780 E67.77583
G0 F9000 X39.497 Y39.780
G1 F1800 X50.016 Y50.299 E68.51800
G0 F9000 X50.582 Y50.299
G1 F1800 X40.063 Y39.780 E69.26017
G0 F9000 X40.628 Y39.780
G1 F1800 X51.147 Y50.299 E70.00234
G0 F9000 X51.713 Y50.299
G1 F1800 X41.194 Y39.780 E70.74452
G0 F9000 X41.760 Y39.780
G1 F1800 X52.279 Y50.299 E71.48669
G0 F9000 X52.844 Y50.299
G1 F1800 X42.325 Y39.780 E72.22886
G0 F9000 X42.891 Y39.780
G1 F1800 X53.410 Y50.299 E72.97103
G0 F9000 X53.976 Y50.299
G1 F1800 X43.457 Y39.780 E73.71321
G0 F9000 X44.023 Y39.780
G1 F1800 X54.541 Y50.299 E74.45534
G0 F9000 X55.107 Y50.299
G1 F1800 X44.588 Y39.780 E75.19751
G0 F9000 X45.154 Y39.780
G1 F1800 X55.673 Y50.299 E75.93969
G0 F9000 X56.239 Y50.299
G1 F1800 X45.720 Y39.780 E76.68186
G0 F9000 X46.285 Y39.780
G1 F1800 X56.804 Y50.299 E77.42403
G0 F9000 X57.370 Y50.299
G1 F1800 X46.851 Y39.780 E78.16620
G0 F9000 X47.417 Y39.780
G1 F1800 X57.936 Y50.299 E78.90838
G0 F9000 X58.501 Y50.299
G1 F1800 X47.982 Y39.780 E79.65055
G0 F9000 X48.548 Y39.780
G1 F1800 X59.067 Y50.299 E80.39272
G0 F9000 X59.633 Y50.299
G1 F1800 X49.114 Y39.780 E81.13489
G0 F9000 X49.679 Y39.780
G1 F1800 X60.198 Y50.299 E81.87707
G0 F9000 X60.764 Y50.299
G1 F1800 X50.245 Y39.780 E82.61924
G0 F9000 X50.811 Y39.780
G1 F1800 X61.330 Y50.299 E83.36141
G0 F9000 X61.895 Y50.299
G1 F1800 X51.376 Y39.780 E84.10358
G0 F9000 X51.942 Y39.780
G1 F1800 X62.461 Y50.299 E84.84575
G0 F9000 X63.027 Y50.299
G1 F1800 X52.508 Y39.780 E85.58793
G0 F9000 X53.074 Y39.780
G1 F1800 X63.592 Y50.299 E86.33006
G0 F9000 X64.158 Y50.299
G1 F1800 X53.639 Y39.780 E87.07224
G0 F9000 X54.205 Y39.780
G1 F1800 X64.724 Y50.299 E87.81441
G0 F9000 X65.289 Y50.299
G1 F1800 X54.771 Y39.780 E88.55655
G0 F9000 X55.336 Y39.780
G1 F1800 X65.855 Y50.299 E89.29872
G0 F9000 X66.421 Y50.299
G1 F1800 X55.902 Y39.780 E90.04089
G0 F9000 X56.468 Y39.780
G1 F1800 X66.987 Y50.299 E90.78306
G0 F9000 X67.552 Y50.299
G1 F1800 X57.033 Y39.780 E91.52523
G0 F9000 X57.599 Y39.780
G1 F1800 X68.118 Y50.299 E92.26741
G0 F9000 X68.684 Y50.299
G1 F1800 X58.165 Y39.780 E93.00958
G0 F9000 X58.730 Y39.780
G1 F1800 X69.249 Y50.299 E93.75175
G0 F9000 X69.815 Y50.299
G1 F1800 X59.296 Y39.780 E94.49392
G0 F9000 X59.862 Y39.780
G1 F1800 X70.381 Y50.299 E95.23610
G0 F9000 X70.946 Y50.299
G1 F1800 X60.427 Y39.780 E95.97827
G0 F9000 X60.993 Y39.780
G1 F1800 X71.512 Y50.299 E96.72044
G0 F9000 X72.078 Y50.299
G1 F1800 X61.559 Y39.780 E97.46261
G0 F9000 X62.124 Y39.780
G1 F1800 X72.643 Y50.299 E98.20478
G0 F9000 X73.209 Y50.299
G1 F1800 X62.690 Y39.780 E98.94696
G0 F9000 X63.256 Y39.780
G1 F1800 X73.775 Y50.299 E99.68913
G0 F9000 X74.340 Y50.299
G1 F1800 X63.822 Y39.780 E100.43127
G0 F9000 X64.387 Y39.780
G1 F1800 X74.906 Y50.299 E101.17344
G0 F9000 X75.472 Y50.299
G1 F1800 X64.953 Y39.780 E101.91561
G0 F9000 X65.519 Y39.780
G1 F1800 X76.038 Y50.299 E102.65778
G0 F9000 X76.603 Y50.299
G1 F1800 X66.084 Y39.780 E103.39996
G0 F9000 X66.650 Y39.780
G1 F1800 X77.169 Y50.299 E104.14213
G0 F9000 X77.735 Y50.299
G1 F1800 X67.216 Y39.780 E104.88430
G0 F9000 X67.781 Y39.780
G1 F1800 X78.300 Y50.299 E105.62647
G0 F9000 X78.866 Y50.299
G1 F1800 X68.347 Y39.780 E106.36864
G0 F9000 X68.913 Y39.780
G1 F1800 X79.432 Y50.299 E107.11082
G0 F9000 X79.997 Y50.299
G1 F1800 X69.478 Y39.780 E107.85299
G0 F9000 X70.044 Y39.780
G1 F1800 X80.563 Y50.299 E108.59516
G0 F9000 X81.129 Y50.299
G1 F1800 X70.610 Y39.780 E109.33733
G0 F9000 X71.175 Y39.780
G1 F1800 X81.694 Y50.299 E110.07951
G0 F9000 X82.260 Y50.299
G1 F1800 X71.741 Y39.780 E110.82168
G0 F9000 X72.307 Y39.780
G1 F1800 X82.826 Y50.299 E111.56385
G0 F9000 X83.391 Y50.299
G1 F1800 X72.873 Y39.780 E112.30599
G0 F9000 X73.438 Y39.780
G1 F1800 X83.957 Y50.299 E113.04816
G0 F9000 X84.523 Y50.299
G1 F1800 X74.004 Y39.780 E113.79033
G0 F9000 X74.570 Y39.780
G1 F1800 X85.088 Y50.299 E114.53247
G0 F9000 X85.654 Y50.299
G1 F1800 X75.135 Y39.780 E115.27464
G0 F9000 X75.701 Y39.780
G1 F1800 X86.220 Y50.299 E116.01681
G0 F9000 X86.786 Y50.299
G1 F1800 X76.267 Y39.780 E116.75899
G0 F9000 X76.832 Y39.780
G1 F1800 X87.351 Y50.299 E117.50116
G0 F9000 X87.917 Y50.299
G1 F1800 X77.398 Y39.780 E118.24333
G0 F9000 X77.964 Y39.780
G1 F1800 X88.483 Y50.299 E118.98550
G0 F9000 X89.048 Y50.299
G1 F1800 X78.529 Y39.780 E119.72767
G0 F9000 X79.095 Y39.780
G1 F1800 X89.614 Y50.299 E120.46985
G0 F9000 X90.180 Y50.299
G1 F1800 X79.661 Y39.780 E121.21202
G0 F9000 X80.226 Y39.780
G1 F1800 X90.745 Y50.299 E121.95419
G0 F9000 X91.085 Y50.073
G1 F1800 X80.792 Y39.780 E122.68042
G0 F9000 X81.358 Y39.780
G1 F1800 X91.085 Y49.507 E123.36671
G0 F9000 X91.085 Y48.941
G1 F1800 X81.923 Y39.780 E124.01310
G0 F9000 X82.489 Y39.780
G1 F1800 X91.085 Y48.376 E124.61960
G0 F9000 X91.085 Y47.810
G1 F1800 X83.055 Y39.780 E125.18616
G0 F9000 X83.621 Y39.780
G1 F1800 X91.085 Y47.244 E125.71278
G0 F9000 X91.085 Y46.678
G1 F1800 X84.186 Y39.780 E126.19951
G0 F9000 X84.752 Y39.780
G1 F1800 X91.085 Y46.113 E126.64634
G0 F9000 X91.085 Y45.547
G1 F1800 X85.318 Y39.780 E127.05323
G0 F9000 X85.883 Y39.780
G1 F1800 X91.085 Y44.981 E127.42022
G0 F9000 X91.085 Y44.416
G1 F1800 X86.449 Y39.780 E127.74732
G0 F9000 X87.015 Y39.780
G1 F1800 X91.085 Y43.850 E128.03448
G0 F9000 X91.085 Y43.284
G1 F1800 X87.580 Y39.780 E128.28174
G0 F9000 X88.146 Y39.780
G1 F1800 X91.085 Y42.719 E128.48910
G0 F9000 X91.085 Y42.153
G1 F1800 X88.712 Y39.780 E128.65653
G0 F9000 X89.277 Y39.780
G1 F1800 X91.085 Y41.587 E128.78406
G0 F9000 X91.085 Y41.022
G1 F1800 X89.843 Y39.780 E128.87169
G0 F9000 X90.409 Y39.780
G1 F1800 X91.085 Y40.456 E128.91939
G0 F9000 X91.085 Y39.890
G1 F1800 X90.974 Y39.780 E128.92718
G0 F9000 X42.662 Y50.299
G1 F1800 X22.565 Y30.201 E130.34517
G0 F9000 X22.565 Y30.767
G1 F1800 X42.096 Y50.299 E131.72322
G0 F9000 X41.531 Y50.299
G1 F1800 X22.565 Y31.333 E133.06138
G0 F9000 X22.565 Y31.899
G1 F1800 X40.965 Y50.299 E134.35959
G0 F9000 X40.399 Y50.299
G1 F1800 X22.565 Y32.464 E135.61792
G0 F9000 X22.565 Y33.030
G1 F1800 X39.834 Y50.299 E136.83634
G0 F9000 X39.268 Y50.299
G1 F1800 X22.565 Y33.596 E138.01482
G0 F9000 X22.565 Y34.161
G1 F1800 X38.702 Y50.299 E139.15341
G0 F9000 X38.137 Y50.299
G1 F1800 X22.565 Y34.727 E140.25210
G0 F9000 X22.565 Y35.293
G1 F1800 X37.571 Y50.299 E141.31085
G0 F9000 X37.005 Y50.299
G1 F1800 X22.565 Y35.858 E142.32971
G0 F9000 X22.565 Y36.424
G1 F1800 X36.440 Y50.299 E143.30867
G0 F9000 X35.874 Y50.299
G1 F1800 X22.565 Y36.990 E144.24769
G0 F9000 X22.565 Y37.555
G1 F1800 X35.308 Y50.299 E145.14681
G0 F9000 X34.742 Y50.299
G1 F1800 X22.565 Y38.121 E146.00600
G0 F9000 X22.565 Y38.687
G1 F1800 X34.177 Y50.299 E146.82529
G0 F9000 X33.611 Y50.299
G1 F1800 X22.565 Y39.252 E147.60468
G0 F9000 X22.565 Y39.818
G1 F1800 X33.045 Y50.299 E148.34413
G0 F9000 X32.480 Y50.299
G1 F1800 X22.565 Y40.384 E149.04369
G0 F9000 X22.565 Y40.949
G1 F1800 X31.914 Y50.299 E149.70335
G0 F9000 X31.348 Y50.299
G1 F1800 X22.565 Y41.515 E150.32307
G0 F9000 X22.565 Y42.081
G1 F1800 X30.783 Y50.299 E150.90290
G0 F9000 X30.217 Y50.299
G1 F1800 X22.565 Y42.647 E151.44279
G0 F9000 X22.588 Y43.236
G1 F1800 X29.628 Y50.275 E151.93946
G0 F9000 X29.001 Y50.214
G1 F1800 X22.650 Y43.863 E152.38756
G0 F9000 X22.722 Y44.501
G1 F1800 X28.364 Y50.143 E152.78563
G0 F9000 X27.552 Y49.896
G1 F1800 X22.968 Y45.312 E153.10906
G0 F9000 X23.367 Y46.278
G1 F1800 X26.587 Y49.497 E153.33621
G0 F9000 X33.086 Y21.489
G1 F1800 X23.376 Y11.780 E154.02127
G0 F9000 X23.942 Y11.780
G1 F1800 X33.086 Y20.923 E154.66639
G0 F9000 X33.086 Y20.358
G1 F1800 X24.508 Y11.780 E155.27162
G0 F9000 X25.074 Y11.780
G1 F1800 X33.086 Y19.792 E155.83691
G0 F9000 X33.086 Y19.226
G1 F1800 X25.639 Y11.780 E156.36230
G0 F9000 X26.205 Y11.780
G1 F1800 X33.086 Y18.661 E156.84779
G0 F9000 X33.086 Y18.095
G1 F1800 X26.771 Y11.780 E157.29335
G0 F9000 X27.336 Y11.780
G1 F1800 X33.086 Y17.529 E157.69900
G0 F9000 X33.086 Y16.964
G1 F1800 X27.902 Y11.780 E158.06476
G0 F9000 X28.468 Y11.780
G1 F1800 X33.086 Y16.398 E158.39059
G0 F9000 X33.086 Y15.832
G1 F1800 X29.033 Y11.780 E158.67651
G0 F9000 X29.599 Y11.780
G1 F1800 X33.086 Y15.267 E158.92254
G0 F9000 X33.086 Y14.701
G1 F1800 X30.165 Y11.780 E159.12863
G0 F9000 X30.730 Y11.780
G1 F1800 X33.086 Y14.135 E159.29483
G0 F9000 X33.086 Y13.570
G1 F1800 X31.296 Y11.780 E159.42112
G0 F9000 X31.862 Y11.780
G1 F1800 X33.086 Y13.004 E159.50748
G0 F9000 X33.086 Y12.438
G1 F1800 X32.427 Y11.780 E159.55394
G0 F9000 X32.993 Y11.780
G1 F1800 X33.086 Y11.873 E159.56050
G1 F2400 E155.56050
G0 F9000 X67.374 Y51.645
;TYPE:WALL-INNER
G1 F2400 E159.56050
G1 F1800 X78.171 Y51.645 E160.09917
G1 X78.172 Y61.463 E160.58899
G1 X67.374 Y61.463 E161.12770
G1 X67.374 Y51.645 E161.61753
G0 F9000 X66.974 Y51.245
;TYPE:WALL-OUTER
G1 F1800 X78.571 Y51.245 E162.19610
G1 X78.572 Y61.863 E162.72584
G1 X66.974 Y61.863 E163.30446
G1 X66.974 Y51.245 E163.83420
G0 F9000 X67.513 Y51.956
;TYPE:SKIN
G1 F1800 X76.878 Y61.322 E164.49498
G0 F9000 X76.313 Y61.322
G1 F1800 X67.513 Y52.522 E165.11587
G0 F9000 X67.513 Y53.088
G1 F1800 X75.747 Y61.322 E165.69682
G0 F9000 X75.181 Y61.322
G1 F1800 X67.513 Y53.653 E166.23788
G0 F9000 X67.513 Y54.219
G1 F1800 X74.616 Y61.322 E166.73903
G0 F9000 X74.050 Y61.322
G1 F1800 X67.513 Y54.785 E167.20025
G0 F9000 X67.513 Y55.350
G1 F1800 X73.484 Y61.322 E167.62158
G0 F9000 X72.918 Y61.322
G1 F1800 X67.513 Y55.916 E168.00296
G0 F9000 X67.513 Y56.482
G1 F1800 X72.353 Y61.322 E168.34445
G0 F9000 X71.787 Y61.322
G1 F1800 X67.513 Y57.047 E168.64604
G0 F9000 X67.513 Y57.613
G1 F1800 X71.221 Y61.322 E168.90769
G0 F9000 X70.656 Y61.322
G1 F1800 X67.513 Y58.179 E169.12945
G0 F9000 X67.513 Y58.745
G1 F1800 X70.090 Y61.322 E169.31127
G0 F9000 X69.524 Y61.322
G1 F1800 X67.513 Y59.310 E169.45319
G0 F9000 X67.513 Y59.876
G1 F1800 X68.959 Y61.322 E169.55522
G0 F9000 X68.393 Y61.322
G1 F1800 X67.513 Y60.442 E169.61731
G0 F9000 X67.513 Y61.007
G1 F1800 X67.827 Y61.322 E169.63950
G0 F9000 X67.906 Y51.784
G1 F1800 X77.444 Y61.322 E170.31245
G0 F9000 X78.010 Y61.322
G1 F1800 X68.472 Y51.784 E170.98541
G0 F9000 X69.038 Y51.784
G1 F1800 X78.031 Y60.777 E171.61991
G0 F9000 X78.031 Y60.212
G1 F1800 X69.604 Y51.784 E172.21452
G0 F9000 X70.169 Y51.784
G1 F1800 X78.031 Y59.646 E172.76923
G0 F9000 X78.031 Y59.080
G1 F1800 X70.735 Y51.784 E173.28400
G0 F9000 X71.301 Y51.784
G1 F1800 X78.031 Y58.515 E173.75887
G0 F9000 X78.031 Y57.949
G1 F1800 X71.866 Y51.784 E174.19385
G0 F9000 X72.432 Y51.784
G1 F1800 X78.031 Y57.383 E174.58889
G0 F9000 X78.031 Y56.818
G1 F1800 X72.998 Y51.784 E174.94403
G0 F9000 X73.563 Y51.784
G1 F1800 X78.030 Y56.251 E175.25920
G0 F9000 X78.030 Y55.686
G1 F1800 X74.129 Y51.784 E175.53447
G0 F9000 X74.695 Y51.784
G1 F1800 X78.030 Y55.120 E175.76981
G0 F9000 X78.030 Y54.554
G1 F1800 X75.260 Y51.784 E175.96525
G0 F9000 X75.826 Y51.784
G1 F1800 X78.030 Y53.989 E176.12079
G0 F9000 X78.030 Y53.423
G1 F1800 X76.392 Y51.784 E176.23639
G0 F9000 X76.957 Y51.784
G1 F1800 X78.030 Y52.857 E176.31210
G0 F9000 X78.030 Y52.291
G1 F1800 X77.523 Y51.784 E176.34787
;LAYER:1
M106 S63
G0 F9000 X77.523 Y50.540 Z0.500
