;Generated with Cura_SteamEngine 15.01
; Default start code
G28 ; Home extruder
G1 Z15 F100
M107 ; Turn off fan
G90 ; Absolute positioning
M82 ; Extruder in absolute mode
; Activate all used extruder
M104 T0 S220
G92 E0 ; Reset extruder position
; Wait for all used extruders to reach temperature
M109 T0 S220
;Layer count: 85
;LAYER:0
M107
G0 F9000 X66.790 Y26.312 Z0.300
;TYPE:SKIRT
G1 F1800 X68.036 Y23.958 E0.13288
G1 X69.721 Y21.890 E0.26596
G1 X71.776 Y20.188 E0.39909
G1 X74.126 Y18.921 E0.53228
G1 X76.313 Y18.249 E0.64643
G1 X76.708 Y18.124 E0.66710
G1 X78.993 Y17.899 E0.78165
G1 X79.382 Y17.860 E0.80115
G1 X81.651 Y18.084 E0.91490
G1 X82.044 Y18.123 E0.93461
G1 X84.551 Y18.883 E1.06530
G1 X86.905 Y20.129 E1.19818
G1 X88.973 Y21.814 E1.33127
G1 X90.675 Y23.869 E1.46439
G1 X91.942 Y26.219 E1.59758
G1 X92.614 Y28.405 E1.71168
G1 X92.739 Y28.801 E1.73240
G1 X92.963 Y31.080 E1.84665
G1 X93.003 Y31.475 E1.86645
G1 X92.779 Y33.744 E1.98020
G1 X92.740 Y34.137 E1.99991
G1 X91.980 Y36.644 E2.13060
G1 X90.734 Y38.998 E2.26348
G1 X89.049 Y41.066 E2.39657
G1 X86.994 Y42.768 E2.52969
G1 X84.965 Y43.862 E2.64469
G1 X84.606 Y44.056 E2.66505
G1 X82.021 Y44.838 E2.79979
G1 X79.654 Y45.071 E2.91845
G1 X79.235 Y45.083 E2.93936
G1 X76.792 Y44.844 E3.06183
G1 X74.644 Y44.200 E3.17370
G1 X74.205 Y44.076 E3.19646
G1 X71.860 Y42.823 E3.32911
G1 X69.797 Y41.142 E3.46187
G1 X68.095 Y39.087 E3.59500
G1 X66.828 Y36.737 E3.72819
G1 X66.148 Y34.525 E3.84365
G1 X66.031 Y34.155 E3.86301
G1 X65.806 Y31.870 E3.97756
G1 X65.767 Y31.481 E3.99706
G1 X65.991 Y29.212 E4.11081
G1 X66.030 Y28.819 E4.13052
G1 X66.790 Y26.312 E4.26121
G0 F9000 X67.161 Y26.465
G1 F1800 X68.371 Y24.180 E4.39021
G1 X70.006 Y22.174 E4.51932
G1 X72.001 Y20.522 E4.64854
G1 X74.282 Y19.292 E4.77783
G1 X76.455 Y18.623 E4.89127
G1 X76.455 Y18.624 E4.89132
G1 X76.789 Y18.518 E4.90880
G1 X79.032 Y18.297 E5.02125
G1 X79.382 Y18.262 E5.03879
G1 X81.612 Y18.482 E5.15059
G1 X81.965 Y18.517 E5.16829
G1 X84.398 Y19.254 E5.29512
G1 X86.683 Y20.464 E5.42411
G1 X88.689 Y22.099 E5.55322
G1 X90.341 Y24.094 E5.68245
G1 X91.571 Y26.375 E5.81174
G1 X92.240 Y28.548 E5.92517
G1 X92.239 Y28.548 E5.92522
G1 X92.345 Y28.882 E5.94271
G1 X92.566 Y31.125 E6.05515
G1 X92.601 Y31.475 E6.07270
G1 X92.381 Y33.705 E6.18449
G1 X92.346 Y34.058 E6.20219
G1 X91.609 Y36.491 E6.32902
G1 X90.399 Y38.776 E6.45802
G1 X88.764 Y40.782 E6.58713
G1 X86.769 Y42.434 E6.71635
G1 X84.766 Y43.515 E6.82991
G1 X84.766 Y43.514 E6.82996
G1 X84.451 Y43.685 E6.84784
G1 X81.942 Y44.444 E6.97862
G1 X79.628 Y44.671 E7.09462
G1 X79.249 Y44.683 E7.11354
G1 X76.870 Y44.449 E7.23280
G1 X74.741 Y43.811 E7.34368
G1 X74.355 Y43.702 E7.36369
G1 X72.083 Y42.488 E7.49221
G1 X70.081 Y40.857 E7.62104
G1 X68.429 Y38.862 E7.75026
G1 X67.199 Y36.581 E7.87955
G1 X66.530 Y34.408 E7.99299
G1 X66.531 Y34.408 E7.99304
G1 X66.425 Y34.074 E8.01052
G1 X66.204 Y31.831 E8.12296
G1 X66.169 Y31.481 E8.14051
G1 X66.389 Y29.251 E8.25231
G1 X66.424 Y28.898 E8.27001
G1 X67.161 Y26.465 E8.39684
G1 F2400 E4.39684
G0 F9000 X70.318 Y27.769
;TYPE:WALL-OUTER
G1 F2400 E8.39684
G1 F1800 X71.220 Y26.065 E8.49302
G1 X72.430 Y24.581 E8.58855
G1 X73.911 Y23.354 E8.68450
G1 X75.601 Y22.443 E8.78029
G1 X77.456 Y21.873 E8.87711
G1 X79.385 Y21.679 E8.97383
G1 X81.299 Y21.867 E9.06978
G1 X83.094 Y22.411 E9.16335
G1 X84.798 Y23.313 E9.25954
G1 X86.282 Y24.523 E9.35507
G1 X87.509 Y26.004 E9.45102
G1 X88.420 Y27.694 E9.54681
G1 X88.990 Y29.549 E9.64362
G1 X89.184 Y31.478 E9.74035
G1 X88.996 Y33.392 E9.83630
G1 X88.452 Y35.187 E9.92987
G1 X87.550 Y36.891 E10.02606
G1 X86.340 Y38.375 E10.12159
G1 X84.859 Y39.602 E10.21754
G1 X83.133 Y40.532 E10.31536
G1 X81.280 Y41.093 E10.41195
G1 X79.411 Y41.276 E10.50564
G1 X79.363 Y41.278 E10.50803
G1 X77.531 Y41.098 E10.59987
G1 X75.706 Y40.551 E10.69492
G1 X75.633 Y40.531 E10.69870
G1 X73.976 Y39.646 E10.79242
G1 X72.488 Y38.433 E10.88820
G1 X71.261 Y36.952 E10.98415
G1 X70.350 Y35.262 E11.07993
G1 X69.780 Y33.407 E11.17675
G1 X69.586 Y31.478 E11.27347
G1 X69.774 Y29.564 E11.36942
G1 X70.318 Y27.769 E11.46300
G0 F9000 X70.921 Y27.640
G1 F1800 X70.889 Y27.693 E11.46609
G1 X70.299 Y29.507 E11.56125
G1 X70.084 Y31.478 E11.66017
G1 X70.287 Y33.412 E11.75719
G1 X70.876 Y35.223 E11.85220
G1 X71.831 Y36.895 E11.94826
G1 X71.862 Y36.947 E11.95128
G1 X73.135 Y38.361 E12.04621
G1 X74.685 Y39.497 E12.14208
G1 X74.734 Y39.533 E12.14511
G1 X76.466 Y40.304 E12.23970
G1 X76.572 Y40.338 E12.24525
G1 X78.396 Y40.725 E12.33828
G1 X80.296 Y40.731 E12.43307
G1 X80.383 Y40.724 E12.43742
G1 X82.174 Y40.344 E12.52877
G1 X82.261 Y40.323 E12.53323
G1 X83.982 Y39.557 E12.62721
G1 X84.036 Y39.533 E12.63016
G1 X85.561 Y38.425 E12.72420
G1 X85.609 Y38.390 E12.72717
G1 X86.883 Y36.974 E12.82220
G1 X87.849 Y35.316 E12.91793
G1 X87.881 Y35.263 E12.92102
G1 X88.471 Y33.449 E13.01619
G1 X88.686 Y31.478 E13.11510
G1 X88.483 Y29.544 E13.21212
G1 X87.894 Y27.733 E13.30713
G1 X86.939 Y26.061 E13.40320
G1 X86.908 Y26.009 E13.40622
G1 X85.635 Y24.596 E13.50110
G1 X84.085 Y23.459 E13.59701
G1 X84.036 Y23.423 E13.60004
G1 X82.313 Y22.657 E13.69411
G1 X82.260 Y22.633 E13.69701
G1 X80.395 Y22.236 E13.79214
G1 X78.413 Y22.228 E13.89103
G1 X76.511 Y22.633 E13.98805
G1 X74.788 Y23.399 E14.08212
G1 X74.734 Y23.423 E14.08507
G1 X73.209 Y24.532 E14.17914
G1 X73.161 Y24.567 E14.18210
G1 X71.887 Y25.981 E14.27706
G1 X70.921 Y27.640 E14.37284
G0 F9000 X70.817 Y27.542
;TYPE:SKIN
G1 F1800 X70.847 Y27.290 E14.38312
G1 X71.049 Y26.926 E14.39418
G1 X71.161 Y26.472 E14.40608
G1 X71.544 Y26.289 E14.41873
G1 X71.617 Y25.796 E14.42986
G1 X72.014 Y25.628 E14.43943
G1 X72.125 Y25.173 E14.45000
G1 X72.551 Y25.033 E14.46158
G1 X72.659 Y24.576 E14.47417
G1 X73.104 Y24.455 E14.48407
G1 X73.275 Y24.061 E14.49350
G1 X73.746 Y23.966 E14.50416
G1 X73.899 Y23.554 E14.51617
G1 X74.401 Y23.490 E14.52866
G1 X74.611 Y23.134 E14.53836
G1 X75.050 Y23.007 E14.54839
G1 X75.430 Y22.821 E14.56016
G1 X75.831 Y22.656 E14.57351
G1 X76.243 Y22.503 E14.58557
G1 X76.659 Y22.353 E14.59528
G1 X77.109 Y22.237 E14.60740
G1 X77.576 Y22.139 E14.62180
G1 X78.066 Y22.063 E14.63608
G1 X78.556 Y21.988 E14.64697
G1 X79.095 Y21.961 E14.66137
G1 X79.678 Y21.978 E14.67963
G1 X80.276 Y22.010 E14.69576
G1 X80.905 Y22.073 E14.71208
G1 X81.644 Y22.248 E14.73482
G1 X82.410 Y22.448 E14.75466
G1 X83.400 Y22.872 E14.78435
G1 X84.124 Y23.313 E14.82664
G0 F9000 X85.190 Y23.813
G1 F1800 X87.063 Y25.687 E14.95883
G0 F9000 X87.403 Y26.592
G1 F1800 X87.974 Y27.163 E14.99912
G0 F9000 X88.070 Y27.824
G1 F1800 X88.382 Y28.419 E15.02392
G1 X88.644 Y29.246 E15.04708
G1 X88.776 Y29.945 E15.06491
G1 X88.841 Y30.576 E15.08232
G1 X88.905 Y31.205 E15.09951
G1 X88.902 Y31.768 E15.11446
G1 X88.850 Y32.281 E15.12874
G1 X88.797 Y32.794 E15.14341
G1 X88.744 Y33.307 E15.15839
G1 X88.627 Y33.755 E15.17029
G1 X88.492 Y34.186 E15.18246
G1 X88.357 Y34.617 E15.19519
G1 X88.221 Y35.046 E15.20832
G1 X88.046 Y35.437 E15.21965
G1 X87.844 Y35.801 E15.23009
G1 X87.642 Y36.165 E15.24141
G1 X87.533 Y36.621 E15.25369
G1 X87.145 Y36.799 E15.26679
G1 X87.055 Y37.275 E15.27669
G1 X86.652 Y37.437 E15.28672
G1 X86.548 Y37.899 E15.29776
G1 X86.116 Y38.032 E15.30983
G1 X85.994 Y38.477 E15.32157
G1 X85.552 Y38.600 E15.33044
G1 X85.376 Y38.990 E15.34036
G1 X84.898 Y39.078 E15.35152
G1 X84.740 Y39.486 E15.36401
G1 X84.241 Y39.552 E15.37531
G1 X84.018 Y39.894 E15.38417
G1 X83.574 Y40.017 E15.39475
G1 X83.195 Y40.203 E15.40702
G1 X82.785 Y40.358 E15.42096
G1 X82.372 Y40.511 E15.43222
G1 X81.942 Y40.647 E15.44285
G1 X81.491 Y40.762 E15.45568
G1 X81.011 Y40.847 E15.47094
G1 X80.520 Y40.922 E15.48426
G1 X80.014 Y40.982 E15.49627
G1 X79.467 Y41.000 E15.51204
G1 X78.869 Y40.968 E15.53071
G1 X78.272 Y40.936 E15.54510
G1 X77.595 Y40.825 E15.56393
G1 X76.834 Y40.630 E15.58656
G1 X76.046 Y40.408 E15.60658
G1 X75.289 Y39.934 E15.65114
G0 F9000 X74.624 Y39.834
G1 F1800 X73.848 Y39.059 E15.70585
G1 F2400 E11.70585
G0 F9000 X71.646 Y36.857
G1 F2400 E15.70585
G1 F1800 X71.042 Y36.252 E15.74850
G0 F9000 X70.893 Y35.537
G1 F1800 X70.483 Y34.845 E15.78030
G1 X70.221 Y34.018 E15.80400
G1 X70.023 Y33.253 E15.82608
G1 X69.950 Y32.615 E15.84362
G1 X69.886 Y31.985 E15.86092
G1 X69.852 Y31.385 E15.87801
G1 X69.898 Y30.866 E15.89217
G1 X69.951 Y30.353 E15.90658
G1 X70.004 Y29.840 E15.92144
G1 X70.090 Y29.360 E15.93537
G1 X70.225 Y28.930 E15.94740
G1 X70.360 Y28.499 E15.95990
G1 X70.495 Y28.069 E15.97294
G1 X70.475 Y27.766 E15.98809
;LAYER:1
M106 S63
G0 F9000 X70.331 Y27.727 Z0.500
;TYPE:WALL-OUTER
G1 F1980 X71.235 Y26.037 E16.05184
G1 X72.456 Y24.549 E16.11586
G1 X73.944 Y23.328 E16.17988
G1 X75.634 Y22.424 E16.24363
G1 X77.471 Y21.867 E16.30747
G1 X79.385 Y21.679 E16.37144
G1 X81.299 Y21.867 E16.43541
G1 X83.136 Y22.424 E16.49925
G1 X84.826 Y23.328 E16.56300
G1 X86.314 Y24.549 E16.62702
G1 X87.535 Y26.037 E16.69104
G1 X88.439 Y27.727 E16.75478
G1 X88.996 Y29.564 E16.81863
G1 X89.184 Y31.478 E16.88260
G1 X88.996 Y33.392 E16.94656
G1 X88.439 Y35.229 E17.01041
G1 X87.535 Y36.919 E17.07415
G1 X86.314 Y38.407 E17.13817
G1 X84.826 Y39.628 E17.20219
G1 X83.140 Y40.529 E17.26578
G1 X81.257 Y41.096 E17.33118
G1 X79.448 Y41.275 E17.39164
G1 X79.367 Y41.278 E17.39434
G1 X77.570 Y41.104 E17.45439
G1 X77.510 Y41.096 E17.45640
G1 X75.798 Y40.577 E17.51590
G1 X75.633 Y40.531 E17.52160
G1 X73.944 Y39.628 E17.58530
G1 X72.456 Y38.407 E17.64932
G1 X71.235 Y36.919 E17.71334
G1 X70.331 Y35.229 E17.77709
G1 X69.774 Y33.392 E17.84093
G1 X69.586 Y31.478 E17.90490
G1 X69.774 Y29.564 E17.96886
G1 X70.331 Y27.727 E18.03271
G0 F9000 X70.939 Y27.609
G1 F1980 X70.889 Y27.694 E18.03599
G1 X70.287 Y29.544 E18.10070
G1 X70.084 Y31.478 E18.16538
G1 X70.287 Y33.412 E18.23005
G1 X70.888 Y35.261 E18.29472
G1 X71.811 Y36.862 E18.35618
G1 X71.861 Y36.946 E18.35944
G1 X73.161 Y38.390 E18.42406
G1 X74.734 Y39.533 E18.48873
G1 X76.433 Y40.290 E18.55059
G1 X76.659 Y40.358 E18.55844
G1 X78.378 Y40.723 E18.61689
G1 X80.250 Y40.734 E18.67916
G1 X80.401 Y40.722 E18.68420
G1 X82.108 Y40.360 E18.74223
G1 X82.262 Y40.323 E18.74750
G1 X84.036 Y39.533 E18.81209
G1 X85.609 Y38.390 E18.87676
G1 X86.910 Y36.945 E18.94143
G1 X87.831 Y35.347 E19.00278
G1 X87.881 Y35.262 E19.00606
G1 X88.483 Y33.412 E19.07076
G1 X88.686 Y31.478 E19.13544
G1 X88.483 Y29.544 E19.20012
G1 X87.882 Y27.695 E19.26479
G1 X86.959 Y26.094 E19.32625
G1 X86.909 Y26.010 E19.32950
G1 X85.609 Y24.567 E19.39410
G1 X84.036 Y23.423 E19.45879
G1 X82.259 Y22.633 E19.52347
G1 X80.357 Y22.228 E19.58815
G1 X78.413 Y22.228 E19.65281
G1 X76.511 Y22.633 E19.71749
G1 X74.734 Y23.423 E19.78217
G1 X73.161 Y24.567 E19.84686
G1 X71.860 Y26.011 E19.91151
G1 X70.939 Y27.609 E19.97285
G0 F9000 X70.567 Y27.578
;TYPE:SKIN
G1 F1980 X71.098 Y27.047 E19.99783
G0 F9000 X71.219 Y26.361
G1 F1980 X72.585 Y24.994 E20.06211
G0 F9000 X73.256 Y24.323
G1 F1980 X74.268 Y23.312 E20.10968
G0 F9000 X74.991 Y23.154
G1 F1980 X75.747 Y22.681 E20.13289
G1 X76.612 Y22.381 E20.14956
G1 X77.378 Y22.181 E20.16438
G1 X78.088 Y22.037 E20.17823
G1 X78.694 Y21.996 E20.18778
G1 X79.291 Y21.965 E20.19921
G1 X79.690 Y21.849 E20.21303
G1 F2400 E16.21303
G0 F9000 X70.606 Y28.105
G1 F2400 E20.21303
G1 F1980 X70.293 Y28.700 E20.22952
G1 X70.067 Y29.492 E20.24479
G1 X69.967 Y30.158 E20.25666
G1 X69.903 Y30.787 E20.26828
G1 X69.852 Y31.404 E20.27971
G1 X69.881 Y31.940 E20.28899
G1 X69.933 Y32.455 E20.29842
G1 X69.985 Y32.968 E20.30794
G1 X70.054 Y33.466 E20.31760
G1 X70.185 Y33.899 E20.32538
G1 X70.321 Y34.330 E20.33350
G1 X70.456 Y34.760 E20.34193
G1 X70.591 Y35.191 E20.35076
G1 X70.784 Y35.563 E20.35759
G1 X70.987 Y35.926 E20.36481
G1 X71.102 Y36.377 E20.37248
G1 X71.478 Y36.566 E20.38067
G1 X71.540 Y37.070 E20.38860
G1 X71.936 Y37.240 E20.39491
G1 X72.049 Y37.692 E20.40184
G1 X72.472 Y37.836 E20.40935
G1 X72.574 Y38.300 E20.41753
G1 X73.017 Y38.422 E20.42498
G1 X73.182 Y38.822 E20.43124
G1 X73.652 Y38.918 E20.43830
G1 X73.803 Y39.332 E20.44618
G1 X74.307 Y39.395 E20.45483
G1 X74.500 Y39.767 E20.46212
G1 X74.939 Y39.894 E20.46873
G1 X75.319 Y40.080 E20.47636
G1 X75.710 Y40.254 E20.48512
G1 X76.122 Y40.408 E20.49386
G1 X76.535 Y40.560 E20.50059
G1 X76.977 Y40.685 E20.50808
G1 X77.428 Y40.799 E20.51709
G1 X77.918 Y40.874 E20.52760
G1 X78.409 Y40.948 E20.53586
G1 X78.936 Y40.988 E20.54504
G1 X79.499 Y40.990 E20.55642
G1 X80.094 Y40.961 E20.56771
G1 X80.705 Y40.915 E20.57744
G1 X81.424 Y40.762 E20.59138
G1 X82.188 Y40.565 E20.60522
G1 X83.068 Y40.250 E20.62185
G1 X83.820 Y39.781 E20.65133
G0 F9000 X84.554 Y39.613
G1 F1980 X85.595 Y38.572 E20.70030
G0 F9000 X85.970 Y38.197
G1 F1980 X87.521 Y36.646 E20.77325
G0 F9000 X87.636 Y35.965
G1 F1980 X88.161 Y35.157 E20.79849
G1 X88.463 Y34.289 E20.81507
G1 X88.694 Y33.493 E20.83044
G1 X88.798 Y32.823 E20.84228
G1 X88.861 Y32.194 E20.85390
G1 X88.915 Y31.574 E20.86533
G1 X88.888 Y31.036 E20.87460
G1 X88.836 Y30.522 E20.88401
G1 X88.784 Y30.008 E20.89359
G1 X88.718 Y29.509 E20.90326
G1 X88.587 Y29.074 E20.91108
G1 X88.452 Y28.643 E20.91923
G1 X88.317 Y28.213 E20.92770
G1 X88.182 Y27.782 E20.93656
G1 X87.991 Y27.407 E20.94356
G1 X87.789 Y27.044 E20.95078
G1 X87.674 Y26.593 E20.95844
G1 X87.297 Y26.404 E20.96661
G1 X87.238 Y25.897 E20.97468
G1 X86.843 Y25.727 E20.98093
G1 X86.728 Y25.276 E20.98782
G1 X86.306 Y25.132 E20.99535
G1 X86.206 Y24.667 E21.00354
G1 X85.762 Y24.545 E21.01112
G1 X85.599 Y24.142 E21.01741
G1 X85.130 Y24.046 E21.02445
G1 X84.977 Y23.633 E21.03229
G1 X84.474 Y23.570 E21.04093
G1 X84.284 Y23.195 E21.04830
G1 X83.846 Y23.067 E21.05483
G1 X83.465 Y22.882 E21.06251
G1 X83.077 Y22.704 E21.07128
G1 X82.664 Y22.552 E21.08042
G1 X82.251 Y22.399 E21.08753
G1 X81.810 Y22.275 E21.09530
G1 X81.357 Y22.162 E21.10462
G1 X80.866 Y22.087 E21.11515
G1 X80.375 Y22.012 E21.12341
G1 X80.018 Y22.087 E21.13554
;LAYER:2
M106 S155
G0 F9000 X80.357 Y22.228 Z0.700
;TYPE:WALL-OUTER
G1 F1920 X78.413 Y22.228 E21.20020
G1 X76.511 Y22.633 E21.26488
G1 X74.734 Y23.423 E21.32956
G1 X73.161 Y24.567 E21.39425
G1 X71.860 Y26.011 E21.45890
G1 X70.957 Y27.577 E21.51902
G1 X70.888 Y27.695 E21.52357
G1 X70.330 Y29.414 E21.58368
G1 X70.287 Y29.544 E21.58823
G1 X70.084 Y31.478 E21.65291
G1 X70.287 Y33.412 E21.71759
G1 X70.846 Y35.132 E21.77774
G1 X70.889 Y35.261 E21.78226
G1 X71.792 Y36.828 E21.84242
G1 X71.861 Y36.946 E21.84696
G1 X73.161 Y38.390 E21.91159
G1 X74.734 Y39.533 E21.97626
G1 X76.511 Y40.324 E22.04095
G1 X78.361 Y40.721 E22.10389
G1 X80.204 Y40.737 E22.16519
G1 X80.419 Y40.720 E22.17236
G1 X82.042 Y40.375 E22.22755
G1 X82.261 Y40.323 E22.23503
G1 X84.036 Y39.533 E22.29965
G1 X85.609 Y38.390 E22.36432
G1 X86.910 Y36.945 E22.42900
G1 X87.813 Y35.379 E22.48912
G1 X87.882 Y35.261 E22.49367
G1 X88.440 Y33.542 E22.55378
G1 X88.483 Y33.412 E22.55833
G1 X88.686 Y31.478 E22.62301
G1 X88.483 Y29.544 E22.68769
G1 X87.924 Y27.824 E22.74784
G1 X87.881 Y27.695 E22.75236
G1 X86.978 Y26.128 E22.81252
G1 X86.909 Y26.010 E22.81706
G1 X85.609 Y24.567 E22.88166
G1 X84.036 Y23.423 E22.94635
G1 X82.259 Y22.633 E23.01103
G1 X80.357 Y22.228 E23.07571
G0 F9000 X81.299 Y21.867
G1 F1920 X83.040 Y22.395 E23.13622
G1 X83.137 Y22.425 E23.13960
G1 X84.826 Y23.328 E23.20330
G1 X86.314 Y24.549 E23.26732
G1 X87.535 Y26.037 E23.33134
G1 X88.439 Y27.727 E23.39509
G1 X88.967 Y29.473 E23.45576
G1 X88.996 Y29.566 E23.45900
G1 X89.184 Y31.478 E23.52290
G1 X88.996 Y33.392 E23.58686
G1 X88.468 Y35.133 E23.64737
G1 X88.438 Y35.230 E23.65075
G1 X87.535 Y36.919 E23.71445
G1 X86.314 Y38.407 E23.77847
G1 X84.826 Y39.628 E23.84249
G1 X83.139 Y40.530 E23.90612
G1 X81.241 Y41.099 E23.97202
G1 X79.486 Y41.274 E24.03068
