;Generated with Cura_SteamEngine 15.01
; Default start code
G28 ; Home extruder
G1 Z15 F100
M107 ; Turn off fan
G90 ; Absolute positioning
M82 ; Extruder in absolute mode
; Activate all used extruder
M104 T0 S220
G92 E0 ; Reset extruder position
; Wait for all used extruders to reach temperature
M109 T0 S220
;Layer count: 125
;LAYER:0
M107
G0 F9000 X7.342 Y21.306 Z0.300
;TYPE:SKIRT
G1 F1800 X25.342 Y21.306 E0.89802
G1 X25.342 Y21.283 E0.89917
G1 X25.554 Y21.283 E0.90975
G1 X25.580 Y21.006 E0.92363
G1 X26.131 Y18.946 E1.03001
G1 X26.222 Y18.614 E1.04719
G1 X27.234 Y16.443 E1.16669
G1 X28.482 Y14.640 E1.27609
G1 X28.685 Y14.350 E1.29375
G1 X30.438 Y12.596 E1.41747
G1 X32.187 Y11.371 E1.52400
G1 X32.470 Y11.174 E1.54120
G1 X34.646 Y10.160 E1.66097
G1 X37.096 Y9.487 E1.78773
G1 X39.369 Y9.289 E1.90156
G1 X43.342 Y9.286 E2.09978
G1 X43.342 Y6.783 E2.22465
G1 X123.742 Y6.783 E6.23582
G1 X123.742 Y72.183 E9.49864
G1 X43.342 Y72.183 E13.50981
G1 X43.342 Y69.683 E13.63454
G1 X39.394 Y69.683 E13.83151
G1 X37.066 Y69.479 E13.94810
G1 X34.673 Y68.839 E14.07168
G1 X32.428 Y67.792 E14.19526
G1 X30.398 Y66.371 E14.31889
G1 X28.646 Y64.619 E14.44250
G1 X27.225 Y62.589 E14.56613
G1 X26.178 Y60.344 E14.68971
G1 X25.538 Y57.951 E14.81329
G1 X25.516 Y57.703 E14.82572
G1 X7.342 Y57.703 E15.73242
G1 X7.342 Y21.306 E17.54827
G1 F2400 E13.54827
G0 F9000 X11.142 Y25.106
;TYPE:WALL-INNER
G1 F2400 E17.54827
G1 F1800 X29.142 Y25.106 E18.44630
G1 X29.142 Y25.083 E18.44745
G1 X29.174 Y25.083 E18.44904
G1 X29.174 Y23.512 E18.52742
G1 X29.333 Y21.689 E18.61871
G1 X29.799 Y19.942 E18.70892
G1 X30.544 Y18.338 E18.79715
G1 X31.602 Y16.809 E18.88992
G1 X32.890 Y15.518 E18.98090
G1 X34.371 Y14.481 E19.07110
G1 X35.960 Y13.740 E19.15857
G1 X37.770 Y13.243 E19.25221
G1 X39.539 Y13.089 E19.34080
G1 X47.142 Y13.082 E19.72012
G1 X47.142 Y10.583 E19.84479
G1 X119.942 Y10.583 E23.47680
G1 X119.942 Y68.383 E26.36046
G1 X47.142 Y68.383 E29.99246
G1 X47.142 Y65.883 E30.11719
G1 X39.563 Y65.883 E30.49531
G1 X37.728 Y65.723 E30.58720
G1 X35.977 Y65.254 E30.67764
G1 X34.331 Y64.486 E30.76826
G1 X32.850 Y63.449 E30.85846
G1 X31.568 Y62.167 E30.94891
G1 X30.531 Y60.686 E31.03911
G1 X29.763 Y59.040 E31.12973
G1 X29.294 Y57.289 E31.22016
G1 X29.134 Y55.454 E31.31206
G1 X29.134 Y53.903 E31.38944
G1 X11.142 Y53.903 E32.28706
G1 X11.142 Y25.106 E33.72375
G0 F9000 X10.742 Y24.706
;TYPE:WALL-OUTER
G1 F1800 X28.742 Y24.706 E34.62178
G1 X28.742 Y24.683 E34.62292
G1 X28.774 Y24.683 E34.62452
G1 X28.774 Y23.483 E34.68439
G1 X28.934 Y21.656 E34.77589
G1 X28.938 Y21.608 E34.77829
G1 X29.413 Y19.836 E34.86982
G1 X29.428 Y19.783 E34.87256
G1 X30.193 Y18.142 E34.96289
G1 X31.302 Y16.540 E35.06010
G1 X32.628 Y15.214 E35.15365
G1 X34.176 Y14.130 E35.24794
G1 X35.821 Y13.363 E35.33849
G1 X37.701 Y12.847 E35.43575
G1 X39.516 Y12.689 E35.52665
G1 X46.742 Y12.683 E35.88715
G1 X46.742 Y10.183 E36.01188
G1 X120.342 Y10.183 E39.68380
G1 X120.342 Y68.783 E42.60736
G1 X46.742 Y68.783 E46.27928
G1 X46.742 Y66.283 E46.40401
G1 X39.540 Y66.283 E46.76332
G1 X37.659 Y66.119 E46.85752
G1 X35.840 Y65.632 E46.95146
G1 X34.136 Y64.837 E47.04527
G1 X32.588 Y63.753 E47.13955
G1 X31.264 Y62.429 E47.23297
G1 X30.180 Y60.881 E47.32725
G1 X29.385 Y59.177 E47.42106
G1 X28.898 Y57.358 E47.51501
G1 X28.734 Y55.483 E47.60891
G1 X28.734 Y54.303 E47.66778
G1 X10.742 Y54.303 E48.56541
G1 X10.742 Y24.706 E50.04201
G0 F9000 X11.387 Y25.246
;TYPE:SKIN
G1 F1800 X54.382 Y68.242 E53.07557
G0 F9000 X53.817 Y68.242
G1 F1800 X11.281 Y25.706 E56.07671
G0 F9000 X11.281 Y26.272
G1 F1800 X53.251 Y68.242 E59.03793
G0 F9000 X52.685 Y68.242
G1 F1800 X11.281 Y26.838 E61.95920
G0 F9000 X11.281 Y27.403
G1 F1800 X52.120 Y68.242 E64.84061
G0 F9000 X51.554 Y68.242
G1 F1800 X11.281 Y27.969 E67.68209
G0 F9000 X11.281 Y28.535
G1 F1800 X50.988 Y68.242 E70.48363
G0 F9000 X50.423 Y68.242
G1 F1800 X11.281 Y29.100 E73.24531
G0 F9000 X11.281 Y29.666
G1 F1800 X49.857 Y68.242 E75.96706
G0 F9000 X49.291 Y68.242
G1 F1800 X47.282 Y66.232 E76.10884
G0 F9000 X47.282 Y66.798
G1 F1800 X48.726 Y68.242 E76.21072
G0 F9000 X48.160 Y68.242
G1 F1800 X47.282 Y67.363 E76.27270
G0 F9000 X47.282 Y67.929
G1 F1800 X47.594 Y68.242 E76.29475
G0 F9000 X47.083 Y65.942
G0 X46.791 Y65.741
G1 F1800 X11.281 Y30.232 E78.80014
G0 F9000 X11.281 Y30.798
G1 F1800 X46.225 Y65.741 E81.26559
G0 F9000 X45.660 Y65.741
G1 F1800 X11.281 Y31.363 E83.69118
G0 F9000 X11.281 Y31.929
G1 F1800 X45.094 Y65.741 E86.07684
G0 F9000 X44.528 Y65.741
G1 F1800 X11.281 Y32.495 E88.42256
G0 F9000 X11.281 Y33.060
G1 F1800 X43.962 Y65.741 E90.72838
G0 F9000 X43.397 Y65.741
G1 F1800 X11.281 Y33.626 E92.99430
G0 F9000 X11.281 Y34.192
G1 F1800 X42.831 Y65.741 E95.22029
G0 F9000 X42.265 Y65.741
G1 F1800 X11.281 Y34.757 E97.40638
G0 F9000 X11.281 Y35.323
G1 F1800 X41.700 Y65.741 E99.55257
G0 F9000 X41.134 Y65.741
G1 F1800 X29.273 Y53.880 E100.38942
G0 F9000 X29.154 Y53.762
G1 F1800 X11.281 Y35.889 E101.65046
G0 F9000 X11.281 Y36.454
G1 F1800 X28.589 Y53.762 E102.87163
G0 F9000 X28.023 Y53.762
G1 F1800 X11.281 Y37.020 E104.05287
G0 F9000 X11.281 Y37.586
G1 F1800 X27.457 Y53.762 E105.19417
G0 F9000 X26.891 Y53.762
G1 F1800 X11.281 Y38.151 E106.29558
G0 F9000 X11.281 Y38.717
G1 F1800 X26.326 Y53.762 E107.35709
G0 F9000 X25.760 Y53.762
G1 F1800 X11.281 Y39.283 E108.37866
G0 F9000 X11.281 Y39.849
G1 F1800 X25.194 Y53.762 E109.36029
G0 F9000 X24.629 Y53.762
G1 F1800 X11.281 Y40.414 E110.30207
G0 F9000 X11.281 Y40.980
G1 F1800 X24.063 Y53.762 E111.20391
G0 F9000 X23.497 Y53.762
G1 F1800 X11.281 Y41.546 E112.06581
G0 F9000 X11.281 Y42.111
G1 F1800 X22.932 Y53.762 E112.88785
G0 F9000 X22.366 Y53.762
G1 F1800 X11.281 Y42.677 E113.66996
G0 F9000 X11.281 Y43.243
G1 F1800 X21.800 Y53.762 E114.41213
G0 F9000 X21.235 Y53.762
G1 F1800 X11.281 Y43.808 E115.11444
G0 F9000 X11.281 Y44.374
G1 F1800 X20.669 Y53.762 E115.77681
G0 F9000 X20.103 Y53.762
G1 F1800 X11.281 Y44.940 E116.39925
G0 F9000 X11.281 Y45.505
G1 F1800 X19.538 Y53.762 E116.98183
G0 F9000 X18.972 Y53.762
G1 F1800 X11.281 Y46.071 E117.52447
G0 F9000 X11.281 Y46.637
G1 F1800 X18.406 Y53.762 E118.02718
G0 F9000 X17.841 Y53.762
G1 F1800 X11.281 Y47.202 E118.49002
G0 F9000 X11.281 Y47.768
G1 F1800 X17.275 Y53.762 E118.91293
G0 F9000 X16.709 Y53.762
G1 F1800 X11.281 Y48.334 E119.29591
G0 F9000 X11.281 Y48.899
G1 F1800 X16.143 Y53.762 E119.63898
G0 F9000 X15.578 Y53.762
G1 F1800 X11.281 Y49.465 E119.94216
G0 F9000 X11.281 Y50.031
G1 F1800 X15.012 Y53.762 E120.20540
G0 F9000 X14.446 Y53.762
G1 F1800 X11.281 Y50.597 E120.42871
G0 F9000 X11.281 Y51.162
G1 F1800 X13.881 Y53.762 E120.61215
G0 F9000 X13.315 Y53.762
G1 F1800 X11.281 Y51.728 E120.75566
G0 F9000 X11.281 Y52.294
G1 F1800 X12.749 Y53.762 E120.85924
G0 F9000 X12.184 Y53.762
G1 F1800 X11.281 Y52.859 E120.92295
G0 F9000 X11.281 Y53.425
G1 F1800 X11.618 Y53.762 E120.94673
G0 F9000 X29.075 Y53.962
G0 X29.273 Y54.446
G1 F1800 X40.568 Y65.741 E121.74365
G0 F9000 X40.003 Y65.741
G1 F1800 X29.273 Y55.012 E122.50067
G0 F9000 X29.284 Y55.589
G1 F1800 X39.424 Y65.729 E123.21611
G0 F9000 X38.805 Y65.675
G1 F1800 X29.339 Y56.209 E123.88398
G0 F9000 X29.393 Y56.829
G1 F1800 X38.185 Y65.621 E124.50431
G0 F9000 X37.519 Y65.521
G1 F1800 X29.494 Y57.495 E125.07055
G0 F9000 X29.699 Y58.267
G1 F1800 X36.748 Y65.315 E125.56786
G0 F9000 X35.958 Y65.091
G1 F1800 X29.924 Y59.056 E125.99362
G0 F9000 X30.420 Y60.118
G1 F1800 X34.896 Y64.594 E126.30943
G0 F9000 X33.393 Y63.657
G1 F1800 X31.358 Y61.622 E126.45301
G0 F9000 X54.948 Y68.242
G1 F1800 X11.952 Y25.246 E129.48661
G0 F9000 X12.518 Y25.246
G1 F1800 X55.514 Y68.242 E132.52021
G0 F9000 X56.079 Y68.242
G1 F1800 X13.084 Y25.246 E135.55378
G0 F9000 X13.649 Y25.246
G1 F1800 X56.645 Y68.242 E138.58738
G0 F9000 X57.211 Y68.242
G1 F1800 X14.215 Y25.246 E141.62098
G0 F9000 X14.781 Y25.246
G1 F1800 X57.776 Y68.242 E144.65454
G0 F9000 X58.342 Y68.242
G1 F1800 X15.347 Y25.246 E147.68811
G0 F9000 X15.912 Y25.246
G1 F1800 X58.908 Y68.242 E150.72171
G0 F9000 X59.474 Y68.242
G1 F1800 X16.478 Y25.246 E153.75531
G0 F9000 X17.044 Y25.246
G1 F1800 X60.039 Y68.242 E156.78887
G0 F9000 X60.605 Y68.242
G1 F1800 X17.609 Y25.246 E159.82247
G0 F9000 X18.175 Y25.246
G1 F1800 X61.171 Y68.242 E162.85607
G0 F9000 X61.736 Y68.242
G1 F1800 X18.741 Y25.246 E165.88964
G0 F9000 X19.306 Y25.246
G1 F1800 X62.302 Y68.242 E168.92324
G0 F9000 X62.868 Y68.242
G1 F1800 X19.872 Y25.246 E171.95684
G0 F9000 X20.438 Y25.246
G1 F1800 X63.433 Y68.242 E174.99040
G0 F9000 X63.999 Y68.242
G1 F1800 X21.003 Y25.246 E178.02400
G0 F9000 X21.569 Y25.246
G1 F1800 X64.565 Y68.242 E181.05760
G0 F9000 X65.130 Y68.242
G1 F1800 X22.135 Y25.246 E184.09116
G0 F9000 X22.700 Y25.246
G1 F1800 X65.696 Y68.242 E187.12476
G0 F9000 X66.262 Y68.242
G1 F1800 X23.266 Y25.246 E190.15836
G0 F9000 X23.832 Y25.246
G1 F1800 X66.827 Y68.242 E193.19193
G0 F9000 X67.393 Y68.242
G1 F1800 X24.398 Y25.246 E196.22549
G0 F9000 X24.963 Y25.246
G1 F1800 X67.959 Y68.242 E199.25909
G0 F9000 X68.525 Y68.242
G1 F1800 X25.529 Y25.246 E202.29269
G0 F9000 X26.095 Y25.246
G1 F1800 X69.090 Y68.242 E205.32626
G0 F9000 X69.656 Y68.242
G1 F1800 X26.660 Y25.246 E208.35986
G0 F9000 X27.226 Y25.246
G1 F1800 X70.222 Y68.242 E211.39346
G0 F9000 X70.787 Y68.242
G1 F1800 X27.792 Y25.246 E214.42702
G0 F9000 X28.357 Y25.246
G1 F1800 X71.353 Y68.242 E217.46062
G0 F9000 X71.919 Y68.242
G1 F1800 X28.923 Y25.246 E220.49422
G0 F9000 X29.313 Y25.070
G1 F1800 X72.484 Y68.242 E223.54021
G0 F9000 X73.050 Y68.242
G1 F1800 X29.313 Y24.504 E226.62612
G0 F9000 X29.313 Y23.939
G1 F1800 X73.616 Y68.242 E229.75194
G0 F9000 X74.181 Y68.242
G1 F1800 X29.323 Y23.384 E232.91691
G0 F9000 X29.368 Y22.863
G1 F1800 X74.747 Y68.242 E236.11865
G0 F9000 X75.313 Y68.242
G1 F1800 X29.414 Y22.343 E239.35707
G0 F9000 X29.460 Y21.823
G1 F1800 X75.878 Y68.242 E242.63215
G0 F9000 X76.444 Y68.242
G1 F1800 X29.563 Y21.360 E245.93989
G0 F9000 X29.682 Y20.914
G1 F1800 X77.010 Y68.242 E249.27913
G0 F9000 X77.575 Y68.242
G1 F1800 X29.801 Y20.467 E252.64988
G0 F9000 X29.920 Y20.021
G1 F1800 X78.141 Y68.242 E256.05214
G0 F9000 X78.707 Y68.242
G1 F1800 X30.095 Y19.630 E259.48197
G0 F9000 X30.275 Y19.244
G1 F1800 X79.273 Y68.242 E262.93905
G0 F9000 X79.838 Y68.242
G1 F1800 X30.455 Y18.858 E266.42332
G0 F9000 X30.634 Y18.472
G1 F1800 X80.404 Y68.242 E269.93486
G0 F9000 X80.970 Y68.242
G1 F1800 X30.857 Y18.129 E273.47061
G0 F9000 X31.088 Y17.795
G1 F1800 X81.535 Y68.242 E277.02991
G0 F9000 X82.101 Y68.242
G1 F1800 X31.319 Y17.460 E280.61286
G0 F9000 X31.551 Y17.126
G1 F1800 X82.667 Y68.242 E284.21937
G0 F9000 X83.232 Y68.242
G1 F1800 X31.798 Y16.807 E287.84835
G0 F9000 X32.081 Y16.525
G1 F1800 X83.798 Y68.242 E291.49726
G0 F9000 X84.364 Y68.242
G1 F1800 X32.363 Y16.241 E295.16622
G0 F9000 X32.646 Y15.958
G1 F1800 X84.929 Y68.242 E298.85510
G0 F9000 X85.495 Y68.242
G1 F1800 X32.929 Y15.675 E302.56395
G0 F9000 X33.253 Y15.434
G1 F1800 X86.061 Y68.242 E306.28984
G0 F9000 X86.626 Y68.242
G1 F1800 X33.586 Y15.202 E310.03210
G0 F9000 X33.919 Y14.968
G1 F1800 X87.192 Y68.242 E313.79083
G0 F9000 X87.758 Y68.242
G1 F1800 X34.252 Y14.736 E317.56597
G0 F9000 X34.607 Y14.526
G1 F1800 X88.324 Y68.242 E321.35596
G0 F9000 X88.889 Y68.242
G1 F1800 X34.993 Y14.345 E325.15865
G0 F9000 X35.378 Y14.165
G1 F1800 X89.455 Y68.242 E328.97407
G0 F9000 X90.021 Y68.242
G1 F1800 X35.764 Y13.985 E332.80219
G0 F9000 X36.171 Y13.826
G1 F1800 X90.586 Y68.242 E336.64150
G0 F9000 X91.152 Y68.242
G1 F1800 X36.615 Y13.705 E340.48938
G0 F9000 X37.059 Y13.583
G1 F1800 X91.718 Y68.242 E344.34587
G0 F9000 X92.283 Y68.242
G1 F1800 X37.503 Y13.461 E348.21093
G0 F9000 X37.973 Y13.366
G1 F1800 X92.849 Y68.242 E352.08273
G0 F9000 X93.415 Y68.242
G1 F1800 X38.493 Y13.320 E355.95777
G0 F9000 X39.013 Y13.275
G1 F1800 X93.980 Y68.242 E359.83599
G0 F9000 X94.546 Y68.242
G1 F1800 X39.533 Y13.229 E363.71745
G0 F9000 X40.098 Y13.228
G1 F1800 X95.112 Y68.242 E367.59899
G0 F9000 X95.677 Y68.242
G1 F1800 X40.663 Y13.227 E371.48056
G0 F9000 X41.228 Y13.227
G1 F1800 X96.243 Y68.242 E375.36217
G0 F9000 X96.809 Y68.242
G1 F1800 X41.794 Y13.227 E379.24377
G0 F9000 X42.359 Y13.226
G1 F1800 X97.374 Y68.242 E383.12541
G0 F9000 X97.940 Y68.242
G1 F1800 X42.924 Y13.225 E387.00712
G0 F9000 X43.489 Y13.225
G1 F1800 X98.506 Y68.242 E390.88887
G0 F9000 X99.072 Y68.242
G1 F1800 X44.054 Y13.225 E394.77065
G0 F9000 X44.619 Y13.224
G1 F1800 X99.637 Y68.242 E398.65247
G0 F9000 X100.203 Y68.242
G1 F1800 X45.184 Y13.223 E402.53436
G0 F9000 X45.749 Y13.222
G1 F1800 X100.769 Y68.242 E406.41631
G0 F9000 X101.334 Y68.242
G1 F1800 X46.315 Y13.222 E410.29824
G0 F9000 X46.880 Y13.222
G1 F1800 X101.900 Y68.242 E414.18019
G0 F9000 X102.466 Y68.242
G1 F1800 X47.281 Y13.057 E418.07379
G0 F9000 X47.281 Y12.491
G1 F1800 X103.031 Y68.242 E422.00729
G0 F9000 X103.597 Y68.242
G1 F1800 X47.281 Y11.926 E425.98069
G0 F9000 X47.281 Y11.360
G1 F1800 X104.163 Y68.242 E429.99402
G0 F9000 X104.728 Y68.242
G1 F1800 X47.281 Y10.794 E434.04726
G0 F9000 X47.775 Y10.723
G1 F1800 X105.294 Y68.242 E438.10553
G0 F9000 X105.860 Y68.242
G1 F1800 X48.341 Y10.723 E442.16381
G0 F9000 X48.907 Y10.723
G1 F1800 X106.425 Y68.242 E446.22205
G0 F9000 X106.991 Y68.242
G1 F1800 X49.472 Y10.723 E450.28032
G0 F9000 X50.038 Y10.723
G1 F1800 X107.557 Y68.242 E454.33860
G0 F9000 X108.122 Y68.242
G1 F1800 X50.604 Y10.723 E458.39684
G0 F9000 X51.169 Y10.723
G1 F1800 X108.688 Y68.242 E462.45512
G0 F9000 X109.254 Y68.242
G1 F1800 X51.735 Y10.723 E466.51339
G0 F9000 X52.301 Y10.723
G1 F1800 X109.820 Y68.242 E470.57167
G0 F9000 X110.385 Y68.242
G1 F1800 X52.866 Y10.723 E474.62995
G0 F9000 X53.432 Y10.723
G1 F1800 X110.951 Y68.242 E478.68822
G0 F9000 X111.517 Y68.242
G1 F1800 X53.998 Y10.723 E482.74650
G0 F9000 X54.563 Y10.723
G1 F1800 X112.082 Y68.242 E486.80477
G0 F9000 X112.648 Y68.242
G1 F1800 X55.129 Y10.723 E490.86305
G0 F9000 X55.695 Y10.723
G1 F1800 X113.214 Y68.242 E494.92133
G0 F9000 X113.779 Y68.242
G1 F1800 X56.260 Y10.723 E498.97960
G0 F9000 X56.826 Y10.723
G1 F1800 X114.345 Y68.242 E503.03788
G0 F9000 X114.911 Y68.242
G1 F1800 X57.392 Y10.723 E507.09615
G0 F9000 X57.958 Y10.723
G1 F1800 X115.476 Y68.242 E511.15440
G0 F9000 X116.042 Y68.242
G1 F1800 X58.523 Y10.723 E515.21267
G0 F9000 X59.089 Y10.723
G1 F1800 X116.608 Y68.242 E519.27095
G0 F9000 X117.173 Y68.242
G1 F1800 X59.655 Y10.723 E523.32919
G0 F9000 X60.220 Y10.723
G1 F1800 X117.739 Y68.242 E527.38746
G0 F9000 X118.305 Y68.242
G1 F1800 X60.786 Y10.723 E531.44574
G0 F9000 X61.352 Y10.723
G1 F1800 X118.871 Y68.242 E535.50402
G0 F9000 X119.436 Y68.242
G1 F1800 X61.917 Y10.723 E539.56229
G0 F9000 X62.483 Y10.723
G1 F1800 X119.801 Y68.041 E543.60639
G0 F9000 X119.801 Y67.475
G1 F1800 X63.049 Y10.723 E547.61055
G0 F9000 X63.614 Y10.723
G1 F1800 X119.801 Y66.909 E551.57481
G0 F9000 X119.801 Y66.344
G1 F1800 X64.180 Y10.723 E555.49917
G0 F9000 X64.746 Y10.723
G1 F1800 X119.801 Y65.778 E559.38360
G0 F9000 X119.801 Y65.212
G1 F1800 X65.311 Y10.723 E563.22813
G0 F9000 X65.877 Y10.723
G1 F1800 X119.801 Y64.647 E567.03276
G0 F9000 X119.801 Y64.081
G1 F1800 X66.443 Y10.723 E570.79745
G0 F9000 X67.008 Y10.723
G1 F1800 X119.801 Y63.515 E574.52225
G0 F9000 X119.801 Y62.950
G1 F1800 X67.574 Y10.723 E578.20714
G0 F9000 X68.140 Y10.723
G1 F1800 X119.801 Y62.384 E581.85211
G0 F9000 X119.801 Y61.818
G1 F1800 X68.706 Y10.723 E585.45713
G0 F9000 X69.271 Y10.723
G1 F1800 X119.801 Y61.253 E589.02230
G0 F9000 X119.801 Y60.687
G1 F1800 X69.837 Y10.723 E592.54753
G0 F9000 X70.403 Y10.723
G1 F1800 X119.801 Y60.121 E596.03283
G0 F9000 X119.801 Y59.556
G1 F1800 X70.968 Y10.723 E599.47826
